; generated by PrusaSlicer 2.3.3+win64 on 2021-12-19 at 05:22:16 UTC

; 

; external perimeters extrusion width = 0.45mm
; perimeters extrusion width = 0.45mm
; infill extrusion width = 0.45mm
; solid infill extrusion width = 0.45mm
; top infill extrusion width = 0.40mm
; first layer extrusion width = 0.42mm

M73 P0 R93
M73 Q0 S94
M201 X1000 Y1000 Z200 E5000 ; sets maximum accelerations, mm/sec^2
M203 X200 Y200 Z12 E120 ; sets maximum feedrates, mm/sec
M204 P1250 R1250 T1250 ; sets acceleration (P, T) and retract acceleration (R), mm/sec^2
M205 X8.00 Y8.00 Z0.40 E4.50 ; sets the jerk limits, mm/sec
M205 S0 T0 ; sets the minimum extruding and travel feed rate, mm/sec
M107
;TYPE:Custom
M862.3 P "MK3S" ; printer model check
M862.1 P0.4 ; nozzle diameter check
M115 U3.10.0 ; tell printer latest fw version
G90 ; use absolute coordinates
M83 ; extruder relative mode
M104 S215 ; set extruder temp
M140 S60 ; set bed temp
M190 S60 ; wait for bed temp
M109 S215 ; wait for extruder temp
G28 W ; home all without mesh bed level
G80 ; mesh bed leveling
G1 Y-3.0 F1000.0 ; go outside print area
G92 E0.0
G1 X60.0 E9.0 F1000.0 ; intro line
M73 Q0 S93
G1 X100.0 E12.5 F1000.0 ; intro line
G92 E0.0
M221 S95

; Don't change E values below. Excessive value can damage the printer.
M907 E430 ; set extruder motor current
G21 ; set units to millimeters
G90 ; use absolute coordinates
M83 ; use relative distances for extrusion
M900 K0.05 ; Filament gcode LA 1.5
M900 K30 ; Filament gcode LA 1.0
;LAYER_CHANGE
;Z:0.2
;HEIGHT:0.2
;BEFORE_LAYER_CHANGE
G92 E0.0
;0.2


G1 E-0.80000 F2100.000
G1 Z0.400 F10800.000
;AFTER_LAYER_CHANGE
;0.2
G1 X63.126 Y81.168
G1 Z0.200
G1 E0.80000 F2100.000
M204 S1000
;TYPE:Skirt
;WIDTH:0.42
G1 F1200.000
G1 X64.186 Y80.634 E0.03721
G1 X65.343 Y80.395 E0.03704
G1 X89.953 Y78.858 E0.77315
G1 X92.286 Y78.997 E0.07327
G1 X94.730 Y79.473 E0.07807
G1 X97.034 Y80.253 E0.07628
G1 X99.167 Y81.308 E0.07460
G1 X101.206 Y82.676 E0.07699
G1 X103.031 Y84.297 E0.07651
G1 X104.637 Y86.167 E0.07730
G1 X105.888 Y88.087 E0.07186
G1 X106.248 Y89.031 E0.03168
G1 X106.366 Y90.093 E0.03351
G1 X106.221 Y91.074 E0.03109
G1 X105.810 Y92.056 E0.03337
G1 X104.670 Y93.788 E0.06502
G1 X103.315 Y95.407 E0.06618
G1 X101.738 Y96.896 E0.06802
G1 X100.143 Y98.087 E0.06242
G1 X97.811 Y99.402 E0.08394
G1 X96.515 Y99.953 E0.04414
G1 X95.242 Y100.383 E0.04212
G1 X93.974 Y100.711 E0.04108
G1 X92.477 Y100.978 E0.04768
G1 X89.921 Y101.142 E0.08029
G1 X65.114 Y99.582 E0.77937
G1 X64.190 Y99.367 E0.02975
G1 X63.328 Y98.963 E0.02984
G1 X62.576 Y98.388 E0.02967
G1 X61.961 Y97.658 E0.02993
G1 X61.422 Y96.556 E0.03848
G1 X61.192 Y95.347 E0.03856
G1 X61.194 Y84.618 E0.33641
G1 X61.394 Y83.532 E0.03462
G1 X61.781 Y82.634 E0.03064
G1 X62.365 Y81.828 E0.03122
G1 X63.080 Y81.207 E0.02971
;WIPE_START
G1 F8640.000
G1 X64.186 Y80.634 E-0.28747
G1 X65.343 Y80.395 E-0.27280
G1 X66.206 Y80.341 E-0.19973
;WIPE_END
G1 E-0.04000 F2100.000
G1 Z0.600 F10800.000
G1 X64.318 Y80.988
G1 Z0.200
G1 E0.80000 F2100.000
G1 F1200.000
G1 X65.381 Y80.770 E0.03400
G1 X89.956 Y79.235 E0.77202
G1 X92.240 Y79.372 E0.07176
G1 X94.634 Y79.838 E0.07647
G1 X96.891 Y80.602 E0.07472
G1 X98.976 Y81.633 E0.07291
G1 X100.976 Y82.975 E0.07552
G1 X102.761 Y84.560 E0.07483
G1 X104.336 Y86.394 E0.07581
G1 X105.548 Y88.249 E0.06948
G1 X105.880 Y89.113 E0.02901
G1 X105.989 Y90.093 E0.03093
G1 X105.831 Y91.065 E0.03086
G1 X105.458 Y91.910 E0.02896
G1 X104.365 Y93.567 E0.06226
G1 X103.035 Y95.154 E0.06492
G1 X101.491 Y96.610 E0.06653
G1 X99.910 Y97.789 E0.06185
G1 X97.649 Y99.062 E0.08135
G1 X96.380 Y99.601 E0.04323
G1 X95.134 Y100.021 E0.04123
G1 X93.895 Y100.342 E0.04013
G1 X92.423 Y100.605 E0.04686
G1 X89.927 Y100.765 E0.07843
G1 X65.170 Y99.209 E0.77777
G1 X64.314 Y99.011 E0.02755
G1 X63.521 Y98.639 E0.02745
G1 X62.832 Y98.110 E0.02725
G1 X62.261 Y97.429 E0.02786
G1 X61.777 Y96.428 E0.03487
G1 X61.568 Y95.316 E0.03550
G1 X61.570 Y84.649 E0.33444
G1 X61.755 Y83.643 E0.03208
G1 X62.112 Y82.815 E0.02825
G1 X62.648 Y82.078 E0.02859
G1 X63.357 Y81.466 E0.02936
G1 X64.265 Y81.014 E0.03178
; printing object 3DBenchy.stl id:0 copy 0
;WIPE_START
G1 F8640.000
G1 X65.381 Y80.770 E-0.26383
G1 X67.525 Y80.636 E-0.49617
;WIPE_END
G1 E-0.04000 F2100.000
G1 Z0.600 F10800.000
G1 X89.252 Y88.091
G1 Z0.200
G1 E0.80000 F2100.000
;TYPE:External perimeter
G1 F1200.000
G1 X89.418 Y88.149 E0.00553
G1 X89.572 Y88.238 E0.00556
G1 X89.709 Y88.374 E0.00605
G1 X89.904 Y88.704 E0.01204
G1 X89.952 Y88.934 E0.00735
G1 X90.035 Y89.114 E0.00623
G1 X90.161 Y89.175 E0.00437
G1 X90.229 Y89.013 E0.00551
G1 X90.341 Y89.087 E0.00421
G1 X90.397 Y88.960 E0.00437
G1 X90.466 Y88.667 E0.00944
G1 X90.586 Y88.458 E0.00757
G1 X90.846 Y88.209 E0.01125
G1 X91.096 Y88.094 E0.00866
G1 X91.372 Y88.102 E0.00864
G1 X91.543 Y88.168 E0.00575
G1 X91.686 Y88.260 E0.00535
G1 X91.819 Y88.381 E0.00562
G1 X91.916 Y88.521 E0.00535
G1 X91.989 Y88.860 E0.01087
G1 X91.946 Y89.283 E0.01334
G1 X91.639 Y89.876 E0.02093
G1 X91.267 Y90.489 E0.02248
G1 X91.194 Y90.710 E0.00728
G1 X91.230 Y90.852 E0.00460
G1 X91.955 Y92.063 E0.04425
G1 X92.086 Y92.423 E0.01203
G1 X92.103 Y92.726 E0.00950
G1 X92.036 Y93.014 E0.00928
G1 X91.878 Y93.250 E0.00891
G1 X91.655 Y93.411 E0.00861
G1 X91.386 Y93.495 E0.00885
G1 X91.100 Y93.497 E0.00895
G1 X90.900 Y93.441 E0.00651
G1 X90.688 Y93.295 E0.00808
G1 X90.571 Y93.157 E0.00567
G1 X90.476 Y92.992 E0.00596
G1 X90.365 Y92.650 E0.01128
G1 X90.342 Y92.477 E0.00548
G1 X90.306 Y92.409 E0.00239
G1 X90.098 Y92.329 E0.00698
G1 X90.087 Y92.304 E0.00086
G1 X89.952 Y92.364 E0.00466
G1 X89.902 Y92.463 E0.00346
G1 X89.889 Y92.573 E0.00347
G1 X89.783 Y92.890 E0.01047
G1 X89.669 Y93.099 E0.00747
G1 X89.490 Y93.311 E0.00872
G1 X89.251 Y93.437 E0.00846
G1 X88.970 Y93.450 E0.00884
G1 X88.717 Y93.369 E0.00833
G1 X88.566 Y93.254 E0.00594
G1 X88.437 Y93.106 E0.00616
G1 X88.363 Y92.870 E0.00774
G1 X88.356 Y92.673 E0.00618
G1 X88.475 Y92.067 E0.01938
G1 X88.785 Y91.355 E0.02435
G1 X88.911 Y91.134 E0.00797
G1 X89.175 Y90.768 E0.01416
G1 X88.946 Y90.419 E0.01308
G1 X88.377 Y89.392 E0.03680
G1 X88.280 Y89.104 E0.00955
G1 X88.263 Y88.758 E0.01084
G1 X88.357 Y88.495 E0.00878
G1 X88.533 Y88.288 E0.00851
G1 X88.779 Y88.144 E0.00893
G1 X89.085 Y88.079 E0.00981
G1 X89.192 Y88.087 E0.00336
G1 X89.367 Y87.957 F10800.000
;WIPE_START
G1 F8640.000
G1 X89.418 Y88.149 E-0.05425
G1 X89.572 Y88.238 E-0.04094
G1 X89.709 Y88.374 E-0.04452
G1 X89.904 Y88.704 E-0.08868
G1 X89.952 Y88.934 E-0.05416
G1 X90.035 Y89.114 E-0.04591
G1 X90.161 Y89.175 E-0.03215
G1 X90.229 Y89.013 E-0.04057
G1 X90.341 Y89.087 E-0.03098
G1 X90.397 Y88.960 E-0.03216
G1 X90.466 Y88.667 E-0.06953
G1 X90.586 Y88.458 E-0.05577
G1 X90.846 Y88.209 E-0.08284
G1 X91.096 Y88.094 E-0.06380
G1 X91.199 Y88.097 E-0.02373
;WIPE_END
G1 E-0.04000 F2100.000
G1 Z0.600 F10800.000
G1 X87.930 Y91.643
G1 Z0.200
G1 E0.80000 F2100.000
G1 F1200.000
G1 X88.027 Y92.003 E0.01167
G1 X88.024 Y92.241 E0.00747
G1 X87.928 Y92.911 E0.02123
G1 X87.891 Y93.047 E0.00441
G1 X87.716 Y93.347 E0.01088
G1 X87.511 Y93.531 E0.00867
G1 X87.293 Y93.664 E0.00798
G1 X87.045 Y93.744 E0.00817
G1 X86.675 Y93.772 E0.01164
G1 X86.312 Y93.698 E0.01162
G1 X86.078 Y93.589 E0.00808
G1 X85.872 Y93.439 E0.00799
G1 X85.708 Y93.247 E0.00792
G1 X85.579 Y93.022 E0.00814
G1 X85.501 Y92.657 E0.01170
G1 X85.599 Y92.048 E0.01933
G1 X85.674 Y91.846 E0.00676
G1 X85.784 Y91.658 E0.00684
G1 X86.199 Y91.213 E0.01906
G1 X86.521 Y91.039 E0.01150
G1 X86.777 Y90.991 E0.00815
G1 X87.030 Y90.996 E0.00794
G1 X87.278 Y91.059 E0.00802
G1 X87.510 Y91.175 E0.00813
G1 X87.708 Y91.341 E0.00809
G1 X87.895 Y91.595 E0.00990
G1 X88.300 Y91.682 F10800.000
;WIPE_START
G1 F8640.000
G1 X88.027 Y92.003 E-0.09899
G1 X88.024 Y92.241 E-0.05504
G1 X87.928 Y92.911 E-0.15634
G1 X87.891 Y93.047 E-0.03248
G1 X87.716 Y93.347 E-0.08011
G1 X87.511 Y93.531 E-0.06383
G1 X87.293 Y93.664 E-0.05880
G1 X87.045 Y93.744 E-0.06019
G1 X86.675 Y93.772 E-0.08574
G1 X86.384 Y93.713 E-0.06848
;WIPE_END
G1 E-0.04000 F2100.000
G1 Z0.600 F10800.000
G1 X80.906 Y86.905
G1 Z0.200
G1 E0.80000 F2100.000
G1 F1200.000
G1 X81.055 Y86.789 E0.00589
G1 X81.387 Y86.660 E0.01118
G1 X81.724 Y86.624 E0.01063
G1 X83.355 Y86.661 E0.05114
G1 X83.963 Y86.750 E0.01928
G1 X84.435 Y86.897 E0.01551
G1 X84.840 Y87.122 E0.01451
G1 X85.170 Y87.407 E0.01368
G1 X85.484 Y87.805 E0.01590
G1 X85.734 Y88.281 E0.01686
G1 X85.910 Y88.823 E0.01785
G1 X86.010 Y89.457 E0.02013
G1 X86.026 Y89.992 E0.01678
G1 X85.954 Y90.544 E0.01746
G1 X85.834 Y90.885 E0.01133
G1 X85.692 Y91.152 E0.00947
G1 X85.501 Y91.637 E0.01635
G1 X85.378 Y91.872 E0.00832
G1 X85.185 Y92.153 E0.01069
G1 X85.016 Y92.474 E0.01137
G1 X84.752 Y92.778 E0.01264
G1 X84.538 Y92.934 E0.00830
G1 X84.309 Y93.058 E0.00815
G1 X83.831 Y93.202 E0.01568
G1 X83.388 Y93.266 E0.01401
G1 X82.853 Y93.294 E0.01682
G1 X82.042 Y93.286 E0.02541
G1 X81.504 Y93.329 E0.01691
G1 X81.248 Y93.280 E0.00818
G1 X81.079 Y93.189 E0.00601
G1 X80.945 Y93.067 E0.00569
G1 X80.810 Y92.846 E0.00814
G1 X80.729 Y92.576 E0.00881
G1 X80.702 Y92.270 E0.00964
G1 X80.719 Y91.664 E0.01900
G1 X80.724 Y88.056 E0.11314
G1 X80.686 Y87.600 E0.01434
G1 X80.691 Y87.328 E0.00854
G1 X80.787 Y87.054 E0.00908
G1 X80.869 Y86.952 E0.00411
G1 X80.854 Y86.724 F10800.000
;WIPE_START
G1 F8640.000
G1 X81.055 Y86.789 E-0.05695
G1 X81.387 Y86.660 E-0.08231
G1 X81.724 Y86.624 E-0.07831
G1 X83.355 Y86.661 E-0.37660
G1 X83.963 Y86.750 E-0.14197
G1 X84.062 Y86.781 E-0.02386
;WIPE_END
G1 E-0.04000 F2100.000
G1 Z0.600 F10800.000
G1 X76.523 Y88.591
G1 Z0.200
G1 E0.80000 F2100.000
G1 F1200.000
G1 X76.337 Y88.521 E0.00624
G1 X76.165 Y88.382 E0.00694
G1 X75.988 Y88.184 E0.00833
G1 X75.887 Y87.982 E0.00707
G1 X75.867 Y87.574 E0.01280
G1 X75.942 Y87.269 E0.00984
G1 X76.050 Y87.095 E0.00644
G1 X76.265 Y86.900 E0.00912
G1 X76.542 Y86.717 E0.01039
G1 X76.874 Y86.583 E0.01124
G1 X77.232 Y86.501 E0.01151
G1 X77.609 Y86.463 E0.01188
G1 X78.000 Y86.466 E0.01226
G1 X78.299 Y86.499 E0.00945
G1 X78.652 Y86.575 E0.01130
G1 X78.878 Y86.655 E0.00752
G1 X79.173 Y86.814 E0.01053
G1 X79.349 Y86.950 E0.00697
G1 X79.509 Y87.111 E0.00711
G1 X79.694 Y87.374 E0.01009
G1 X79.814 Y87.659 E0.00970
G1 X79.857 Y87.866 E0.00661
G1 X79.871 Y88.080 E0.00674
G1 X79.865 Y88.323 E0.00761
G1 X79.744 Y88.842 E0.01672
G1 X79.621 Y89.031 E0.00708
G1 X79.447 Y89.174 E0.00707
G1 X79.317 Y89.317 E0.00606
G1 X79.103 Y89.456 E0.00797
G1 X78.986 Y89.509 E0.00403
G1 X79.304 Y89.651 E0.01091
G1 X79.480 Y89.819 E0.00762
G1 X79.605 Y89.893 E0.00457
G1 X79.780 Y90.056 E0.00748
G1 X79.984 Y90.488 E0.01500
G1 X80.087 Y90.881 E0.01271
G1 X80.118 Y91.115 E0.00741
G1 X80.095 Y91.565 E0.01414
G1 X79.967 Y92.027 E0.01503
G1 X79.801 Y92.372 E0.01201
G1 X79.513 Y92.762 E0.01519
G1 X79.337 Y92.931 E0.00766
G1 X78.942 Y93.200 E0.01497
G1 X78.718 Y93.302 E0.00772
G1 X78.268 Y93.425 E0.01465
G1 X77.867 Y93.465 E0.01263
G1 X77.432 Y93.458 E0.01363
G1 X77.038 Y93.404 E0.01248
G1 X76.709 Y93.312 E0.01071
G1 X76.417 Y93.181 E0.01003
G1 X76.171 Y93.007 E0.00942
G1 X75.975 Y92.781 E0.00940
G1 X75.855 Y92.534 E0.00862
G1 X75.793 Y92.244 E0.00929
G1 X75.810 Y91.948 E0.00931
G1 X75.915 Y91.680 E0.00901
G1 X76.097 Y91.475 E0.00858
G1 X76.257 Y91.376 E0.00591
G1 X76.429 Y91.311 E0.00578
G1 X76.713 Y91.273 E0.00896
G1 X77.059 Y91.322 E0.01098
G1 X77.319 Y91.438 E0.00891
G1 X77.731 Y91.738 E0.01599
G1 X77.810 Y91.758 E0.00254
G1 X77.927 Y91.732 E0.00375
G1 X78.053 Y91.659 E0.00458
G1 X78.144 Y91.556 E0.00432
G1 X78.201 Y91.425 E0.00448
G1 X78.216 Y91.280 E0.00456
G1 X78.183 Y91.130 E0.00480
G1 X78.087 Y90.951 E0.00637
G1 X77.975 Y90.822 E0.00535
G1 X77.839 Y90.714 E0.00544
G1 X77.689 Y90.638 E0.00527
G1 X77.504 Y90.585 E0.00604
G1 X77.080 Y90.510 E0.01350
G1 X76.837 Y90.415 E0.00818
G1 X76.635 Y90.244 E0.00830
G1 X76.537 Y90.076 E0.00608
G1 X76.485 Y89.899 E0.00577
G1 X76.476 Y89.711 E0.00590
G1 X76.511 Y89.518 E0.00617
G1 X76.604 Y89.259 E0.00862
G1 X76.722 Y89.079 E0.00676
G1 X76.881 Y88.964 E0.00614
G1 X77.082 Y88.866 E0.00702
G1 X77.678 Y88.694 E0.01944
G1 X77.767 Y88.641 E0.00324
G1 X77.895 Y88.498 E0.00601
G1 X77.919 Y88.413 E0.00278
G1 X77.887 Y88.268 E0.00467
G1 X77.805 Y88.198 E0.00337
G1 X77.655 Y88.191 E0.00470
G1 X77.479 Y88.243 E0.00576
G1 X77.262 Y88.368 E0.00786
G1 X76.925 Y88.525 E0.01166
G1 X76.716 Y88.585 E0.00680
G1 X76.583 Y88.589 E0.00417
G1 X76.394 Y88.742 F10800.000
G1 X76.366 Y88.934
;TYPE:Perimeter
G1 F1200.000
G1 X76.264 Y89.089 E0.00581
G1 X76.146 Y89.420 E0.01101
G1 X76.097 Y89.687 E0.00851
G1 X76.111 Y89.963 E0.00866
G1 X76.188 Y90.226 E0.00860
G1 X76.341 Y90.490 E0.00956
G1 X76.641 Y90.743 E0.01231
G1 X76.977 Y90.874 E0.01130
G1 X77.418 Y90.953 E0.01405
G1 X77.634 Y91.033 E0.00723
G1 X77.775 Y91.167 E0.00607
G1 X77.826 Y91.262 E0.00339
G1 X77.832 Y91.329 E0.00211
G1 X77.827 Y91.341 E0.00041
G1 X77.508 Y91.110 E0.01233
G1 X77.165 Y90.956 E0.01181
G1 X76.714 Y90.892 E0.01427
G1 X76.337 Y90.943 E0.01194
G1 X76.089 Y91.036 E0.00828
G1 X75.851 Y91.184 E0.00878
G1 X75.588 Y91.480 E0.01242
G1 X75.437 Y91.866 E0.01300
G1 X75.413 Y92.273 E0.01279
G1 X75.496 Y92.658 E0.01233
G1 X75.658 Y92.990 E0.01160
G1 X75.916 Y93.289 E0.01238
G1 X76.229 Y93.510 E0.01201
G1 X76.580 Y93.667 E0.01207
G1 X76.961 Y93.774 E0.01239
G1 X77.403 Y93.835 E0.01400
G1 X77.882 Y93.842 E0.01502
G1 X78.336 Y93.797 E0.01430
G1 X78.847 Y93.658 E0.01661
G1 X79.119 Y93.534 E0.00938
G1 X79.360 Y93.387 E0.00885
G1 X79.583 Y93.218 E0.00875
G1 X79.797 Y93.011 E0.00935
G1 X80.125 Y92.568 E0.01729
G1 X80.329 Y92.134 E0.01503
G1 X80.357 Y92.647 E0.01612
G1 X80.462 Y93.001 E0.01155
G1 X80.652 Y93.309 E0.01136
G1 X80.860 Y93.500 E0.00884
G1 X81.121 Y93.640 E0.00930
G1 X81.484 Y93.708 E0.01158
G1 X82.055 Y93.663 E0.01797
G1 X82.860 Y93.671 E0.02525
G1 X83.425 Y93.642 E0.01773
G1 X83.913 Y93.571 E0.01544
G1 X84.455 Y93.407 E0.01777
G1 X84.739 Y93.253 E0.01013
G1 X85.008 Y93.058 E0.01042
G1 X85.163 Y92.880 E0.00739
G1 X85.222 Y93.158 E0.00892
G1 X85.398 Y93.466 E0.01112
G1 X85.615 Y93.717 E0.01040
G1 X85.885 Y93.915 E0.01050
G1 X86.193 Y94.058 E0.01064
G1 X86.651 Y94.152 E0.01466
G1 X87.118 Y94.116 E0.01470
G1 X87.451 Y94.009 E0.01097
G1 X87.737 Y93.835 E0.01048
G1 X88.012 Y93.588 E0.01160
G1 X88.150 Y93.351 E0.00860
G1 X88.307 Y93.530 E0.00747
G1 X88.539 Y93.708 E0.00916
G1 X88.919 Y93.830 E0.01252
G1 X89.353 Y93.809 E0.01360
G1 X89.730 Y93.611 E0.01338
G1 X89.982 Y93.313 E0.01224
G1 X90.109 Y93.080 E0.00830
G1 X90.261 Y93.375 E0.01040
G1 X90.434 Y93.578 E0.00835
G1 X90.738 Y93.786 E0.01157
G1 X91.049 Y93.875 E0.01014
G1 X91.445 Y93.872 E0.01241
G1 X91.826 Y93.753 E0.01253
G1 X92.153 Y93.516 E0.01266
G1 X92.387 Y93.167 E0.01318
G1 X92.483 Y92.759 E0.01314
G1 X92.459 Y92.347 E0.01295
G1 X92.297 Y91.900 E0.01489
G1 X91.584 Y90.709 E0.04353
G1 X91.968 Y90.061 E0.02362
G1 X92.116 Y89.776 E0.01007
G1 X92.986 Y92.095 E0.07768
G1 X93.249 Y92.716 E0.02115
G1 X93.061 Y93.119 E0.01393
G1 X92.850 Y93.671 E0.01852
G1 X92.782 Y93.784 E0.00415
G1 X92.736 Y93.822 E0.00186
G1 X92.249 Y93.968 E0.01595
G1 X92.018 Y94.075 E0.00799
G1 X91.722 Y94.324 E0.01212
G1 X91.538 Y94.687 E0.01277
G1 X91.494 Y94.992 E0.00965
G1 X91.533 Y95.372 E0.01198
G1 X91.724 Y95.814 E0.01507
G1 X91.898 Y96.030 E0.00872
G1 X92.104 Y96.205 E0.00847
G1 X92.365 Y96.335 E0.00915
G1 X92.726 Y96.409 E0.01154
G1 X93.083 Y96.394 E0.01122
G1 X93.351 Y96.341 E0.00856
G1 X93.744 Y96.214 E0.01297
G1 X94.108 Y96.035 E0.01270
G1 X94.495 Y95.722 E0.01561
G1 X94.733 Y95.417 E0.01213
G1 X94.882 Y95.167 E0.00911
G1 X95.174 Y94.523 E0.02219
G1 X95.560 Y93.531 E0.03338
G1 X96.521 Y90.845 E0.08945
G1 X96.851 Y89.789 E0.03468
G1 X96.906 Y89.856 E0.00271
G1 X97.132 Y90.019 E0.00874
G1 X97.475 Y90.134 E0.01135
G1 X97.794 Y90.154 E0.01000
G1 X97.455 Y90.533 E0.01592
G1 X96.817 Y91.394 E0.03361
G1 X96.565 Y91.828 E0.01573
G1 X96.469 Y92.085 E0.00859
G1 X96.409 Y92.434 E0.01111
G1 X96.417 Y92.704 E0.00848
G1 X96.466 Y92.954 E0.00799
G1 X96.556 Y93.197 E0.00811
G1 X96.712 Y93.448 E0.00927
G1 X96.903 Y93.638 E0.00847
G1 X97.142 Y93.785 E0.00877
G1 X97.480 Y93.879 E0.01102
G1 X97.735 Y93.891 E0.00799
G1 X98.244 Y93.861 E0.01598
