; generated by PrusaSlicer 2.3.3+win64 on 2021-12-19 at 20:52:09 UTC

; 

; external perimeters extrusion width = 0.45mm
; perimeters extrusion width = 0.45mm
; infill extrusion width = 0.45mm
; solid infill extrusion width = 0.45mm
; top infill extrusion width = 0.40mm
; first layer extrusion width = 0.42mm

M73 P0 R13
M73 Q0 S13
M201 X1000 Y1000 Z200 E5000 ; sets maximum accelerations, mm/sec^2
M203 X200 Y200 Z12 E120 ; sets maximum feedrates, mm/sec
M204 P1250 R1250 T1250 ; sets acceleration (P, T) and retract acceleration (R), mm/sec^2
M205 X8.00 Y8.00 Z0.40 E4.50 ; sets the jerk limits, mm/sec
M205 S0 T0 ; sets the minimum extruding and travel feed rate, mm/sec
M107
;TYPE:Custom
M862.3 P "MK3S" ; printer model check
M862.1 P0.4 ; nozzle diameter check
M115 U3.10.0 ; tell printer latest fw version
G90 ; use absolute coordinates
M83 ; extruder relative mode
M104 S215 ; set extruder temp
M140 S60 ; set bed temp
M190 S60 ; wait for bed temp
M109 S215 ; wait for extruder temp
G28 W ; home all without mesh bed level
G80 ; mesh bed leveling
G1 Y-3.0 F1000.0 ; go outside print area
G92 E0.0
G1 X60.0 E9.0 F1000.0 ; intro line
G1 X100.0 E12.5 F1000.0 ; intro line
G92 E0.0
M221 S95

; Don't change E values below. Excessive value can damage the printer.
M907 E430 ; set extruder motor current
G21 ; set units to millimeters
G90 ; use absolute coordinates
M83 ; use relative distances for extrusion
M900 K0.05 ; Filament gcode LA 1.5
M900 K30 ; Filament gcode LA 1.0
;LAYER_CHANGE
;Z:0.2
;HEIGHT:0.2
;BEFORE_LAYER_CHANGE
G92 E0.0
;0.2


G1 E-0.80000 F2100.000
G1 Z0.400 F10800.000
;AFTER_LAYER_CHANGE
;0.2
G1 X66.740 Y76.645
G1 Z0.200
G1 E0.80000 F2100.000
M204 S1000
;TYPE:Skirt
;WIDTH:0.42
G1 F1200.000
G1 X67.251 Y75.825 E0.03031
G1 X67.661 Y75.454 E0.01733
G1 X68.136 Y75.172 E0.01733
G1 X68.658 Y74.990 E0.01733
G1 X69.206 Y74.917 E0.01733
G1 X94.301 Y74.915 E0.78684
M73 P1 R13
M73 Q1 S13
G1 X95.309 Y75.108 E0.03221
G1 X96.177 Y75.658 E0.03221
G1 X96.784 Y76.487 E0.03221
G1 X97.044 Y77.480 E0.03221
G1 X97.050 Y102.739 E0.79197
G1 X96.855 Y103.690 E0.03044
G1 X96.342 Y104.514 E0.03044
G1 X95.919 Y104.895 E0.01784
G1 X95.423 Y105.183 E0.01796
G1 X94.883 Y105.361 E0.01784
G1 X94.314 Y105.424 E0.01796
G1 X69.223 Y105.423 E0.78671
G1 X68.272 Y105.226 E0.03044
G1 X67.452 Y104.715 E0.03031
G1 X67.071 Y104.292 E0.01784
G1 X66.783 Y103.797 E0.01796
G1 X66.606 Y103.256 E0.01784
G1 X66.542 Y102.687 E0.01796
G1 X66.543 Y77.596 E0.78671
G1 X66.728 Y76.704 E0.02855
;WIPE_START
G1 F8640.000
G1 X67.251 Y75.825 E-0.23625
G1 X67.661 Y75.454 E-0.12759
G1 X68.136 Y75.172 E-0.12759
G1 X68.658 Y74.990 E-0.12759
G1 X69.206 Y74.917 E-0.12759
G1 X69.264 Y74.917 E-0.01339
;WIPE_END
G1 E-0.04000 F2100.000
G1 Z0.600 F10800.000
G1 X68.306 Y75.509
G1 Z0.200
G1 E0.80000 F2100.000
G1 F1200.000
G1 X69.227 Y75.294 E0.02966
G1 X94.300 Y75.293 E0.78616
G1 X95.174 Y75.460 E0.02790
G1 X95.928 Y75.941 E0.02802
G1 X96.451 Y76.665 E0.02802
G1 X96.669 Y77.528 E0.02790
G1 X96.673 Y102.723 E0.78998
M73 P2 R13
M73 Q2 S13
G1 X96.503 Y103.554 E0.02661
G1 X96.051 Y104.273 E0.02661
G1 X95.685 Y104.599 E0.01538
G1 X95.263 Y104.841 E0.01526
G1 X94.797 Y104.993 E0.01538
G1 X94.309 Y105.047 E0.01538
G1 X69.239 Y105.046 E0.78604
G1 X68.408 Y104.874 E0.02661
G1 X67.693 Y104.425 E0.02649
G1 X67.367 Y104.058 E0.01538
G1 X67.125 Y103.636 E0.01526
G1 X66.973 Y103.170 E0.01538
G1 X66.919 Y102.682 E0.01538
G1 X66.920 Y77.612 E0.78604
G1 X67.092 Y76.781 E0.02661
G1 X67.542 Y76.066 E0.02649
G1 X68.257 Y75.544 E0.02778
; printing object Merged id:0 copy 0
;WIPE_START
G1 F8640.000
G1 X69.227 Y75.294 E-0.23123
G1 X71.517 Y75.293 E-0.52877
;WIPE_END
G1 E-0.04000 F2100.000
G1 Z0.600 F10800.000
G1 X70.084 Y78.457
G1 Z0.200
G1 E0.80000 F2100.000
;TYPE:Perimeter
G1 F1200.000
G1 X93.509 Y78.457 E0.73450
G1 X93.509 Y101.883 E0.73450
G1 X70.084 Y101.883 E0.73450
G1 X70.084 Y78.517 E0.73262
M73 P3 R13
M73 Q3 S13
G1 X69.707 Y78.080 F10800.000
;TYPE:External perimeter
G1 F1200.000
G1 X93.887 Y78.080 E0.75815
M73 P3 R12
G1 X93.887 Y102.260 E0.75815
G1 X69.707 Y102.260 E0.75815
M73 Q3 S12
G1 X69.707 Y78.140 E0.75627
G1 X70.093 Y78.183 F10800.000
;WIPE_START
G1 F8640.000
G1 X72.998 Y78.131 E-0.76000
;WIPE_END
G1 E-0.04000 F2100.000
G1 Z0.600 F10800.000
G1 X93.396 Y79.333
G1 Z0.200
G1 E0.80000 F2100.000
;TYPE:Solid infill
;WIDTH:0.42065
G1 F1200.000
G1 X92.802 Y78.739 E0.02638
G1 X92.268 Y78.739 E0.01678
G1 X93.227 Y79.698 E0.04257
G1 X93.227 Y80.232 E0.01678
G1 X91.734 Y78.739 E0.06630
G1 X91.200 Y78.739 E0.01678
G1 X93.227 Y80.766 E0.09003
G1 X93.227 Y81.301 E0.01678
G1 X90.666 Y78.739 E0.11376
G1 X90.131 Y78.739 E0.01678
G1 X93.227 Y81.835 E0.13748
G1 X93.227 Y82.369 E0.01678
G1 X89.597 Y78.739 E0.16121
M73 Q4 S12
G1 X89.063 Y78.739 E0.01678
G1 X93.227 Y82.903 E0.18494
M73 P4 R12
G1 X93.227 Y83.437 E0.01678
G1 X88.529 Y78.739 E0.20867
G1 X87.995 Y78.739 E0.01678
G1 X93.227 Y83.971 E0.23240
G1 X93.227 Y84.506 E0.01678
G1 X87.460 Y78.739 E0.25612
G1 X86.926 Y78.739 E0.01678
G1 X93.227 Y85.040 E0.27985
G1 X93.227 Y85.574 E0.01678
G1 X86.392 Y78.739 E0.30358
G1 X85.858 Y78.739 E0.01678
G1 X93.227 Y86.108 E0.32731
G1 X93.227 Y86.642 E0.01678
G1 X85.324 Y78.739 E0.35103
G1 X84.790 Y78.739 E0.01678
G1 X93.227 Y87.177 E0.37476
G1 X93.227 Y87.711 E0.01678
G1 X84.255 Y78.739 E0.39849
G1 X83.721 Y78.739 E0.01678
G1 X93.227 Y88.245 E0.42222
G1 X93.227 Y88.779 E0.01678
G1 X83.187 Y78.739 E0.44595
G1 X82.653 Y78.739 E0.01678
G1 X93.227 Y89.313 E0.46967
G1 X93.227 Y89.848 E0.01678
G1 X82.119 Y78.739 E0.49340
M73 P5 R12
M73 Q5 S12
G1 X81.584 Y78.739 E0.01678
G1 X93.227 Y90.382 E0.51713
G1 X93.227 Y90.916 E0.01678
G1 X81.050 Y78.739 E0.54086
G1 X80.516 Y78.739 E0.01678
G1 X93.227 Y91.450 E0.56458
G1 X93.227 Y91.984 E0.01678
G1 X79.982 Y78.739 E0.58831
G1 X79.448 Y78.739 E0.01678
G1 X93.227 Y92.519 E0.61204
G1 X93.227 Y93.053 E0.01678
G1 X78.913 Y78.739 E0.63577
G1 X78.379 Y78.739 E0.01678
G1 X93.227 Y93.587 E0.65950
G1 X93.227 Y94.121 E0.01678
G1 X77.845 Y78.739 E0.68322
M73 P6 R12
M73 Q6 S12
G1 X77.311 Y78.739 E0.01678
G1 X93.227 Y94.655 E0.70695
G1 X93.227 Y95.189 E0.01678
G1 X76.777 Y78.739 E0.73068
G1 X76.242 Y78.739 E0.01678
G1 X93.227 Y95.724 E0.75441
G1 X93.227 Y96.258 E0.01678
G1 X75.708 Y78.739 E0.77813
G1 X75.174 Y78.739 E0.01678
G1 X93.227 Y96.792 E0.80186
G1 X93.227 Y97.326 E0.01678
G1 X74.640 Y78.739 E0.82559
M73 P7 R12
M73 Q7 S12
G1 X74.106 Y78.739 E0.01678
G1 X93.227 Y97.860 E0.84932
G1 X93.227 Y98.395 E0.01678
G1 X73.571 Y78.739 E0.87305
G1 X73.037 Y78.739 E0.01678
G1 X93.227 Y98.929 E0.89677
G1 X93.227 Y99.463 E0.01678
G1 X72.503 Y78.739 E0.92050
G1 X71.969 Y78.739 E0.01678
G1 X93.227 Y99.997 E0.94423
G1 X93.227 Y100.531 E0.01678
G1 X71.435 Y78.739 E0.96796
M73 P8 R12
M73 Q8 S12
G1 X70.901 Y78.739 E0.01678
G1 X93.227 Y101.066 E0.99168
G1 X93.227 Y101.600 E0.01678
G1 X70.366 Y78.740 E1.01541
G1 X70.366 Y79.274 E0.01678
G1 X92.692 Y101.600 E0.99168
G1 X92.158 Y101.600 E0.01678
G1 X70.366 Y79.808 E0.96795
M73 P9 R12
M73 Q9 S12
G1 X70.366 Y80.342 E0.01678
G1 X91.624 Y101.600 E0.94422
G1 X91.090 Y101.600 E0.01678
G1 X70.366 Y80.876 E0.92050
G1 X70.366 Y81.410 E0.01678
G1 X90.556 Y101.600 E0.89677
G1 X90.021 Y101.600 E0.01678
G1 X70.366 Y81.945 E0.87304
G1 X70.366 Y82.479 E0.01678
G1 X89.487 Y101.600 E0.84931
G1 X88.953 Y101.600 E0.01678
G1 X70.366 Y83.013 E0.82559
M73 P10 R12
M73 Q10 S12
G1 X70.366 Y83.547 E0.01678
G1 X88.419 Y101.600 E0.80186
G1 X87.885 Y101.600 E0.01678
G1 X70.366 Y84.081 E0.77813
G1 X70.366 Y84.616 E0.01678
G1 X87.350 Y101.600 E0.75440
G1 X86.816 Y101.600 E0.01678
G1 X70.366 Y85.150 E0.73067
G1 X70.366 Y85.684 E0.01678
G1 X86.282 Y101.600 E0.70695
G1 X85.748 Y101.600 E0.01678
G1 X70.366 Y86.218 E0.68322
M73 P11 R11
M73 Q11 S12
G1 X70.366 Y86.752 E0.01678
G1 X85.214 Y101.600 E0.65949
G1 X84.680 Y101.600 E0.01678
G1 X70.366 Y87.287 E0.63576
M73 Q11 S11
G1 X70.366 Y87.821 E0.01678
G1 X84.145 Y101.600 E0.61204
G1 X83.611 Y101.600 E0.01678
G1 X70.366 Y88.355 E0.58831
G1 X70.366 Y88.889 E0.01678
G1 X83.077 Y101.600 E0.56458
G1 X82.543 Y101.600 E0.01678
G1 X70.366 Y89.423 E0.54085
G1 X70.366 Y89.958 E0.01678
G1 X82.009 Y101.600 E0.51712
G1 X81.474 Y101.600 E0.01678
G1 X70.366 Y90.492 E0.49340
M73 P12 R11
M73 Q12 S11
G1 X70.366 Y91.026 E0.01678
G1 X80.940 Y101.600 E0.46967
G1 X80.406 Y101.600 E0.01678
G1 X70.366 Y91.560 E0.44594
G1 X70.366 Y92.094 E0.01678
G1 X79.872 Y101.600 E0.42221
G1 X79.338 Y101.600 E0.01678
G1 X70.366 Y92.628 E0.39849
G1 X70.366 Y93.163 E0.01678
G1 X78.803 Y101.600 E0.37476
G1 X78.269 Y101.600 E0.01678
G1 X70.366 Y93.697 E0.35103
G1 X70.366 Y94.231 E0.01678
G1 X77.735 Y101.600 E0.32730
G1 X77.201 Y101.600 E0.01678
G1 X70.366 Y94.765 E0.30357
G1 X70.366 Y95.299 E0.01678
G1 X76.667 Y101.600 E0.27985
G1 X76.132 Y101.600 E0.01678
G1 X70.366 Y95.834 E0.25612
G1 X70.366 Y96.368 E0.01678
G1 X75.598 Y101.600 E0.23239
G1 X75.064 Y101.600 E0.01678
G1 X70.366 Y96.902 E0.20866
G1 X70.366 Y97.436 E0.01678
G1 X74.530 Y101.600 E0.18494
G1 X73.996 Y101.600 E0.01678
M73 P13 R11
G1 X70.366 Y97.970 E0.16121
M73 Q13 S11
G1 X70.366 Y98.505 E0.01678
G1 X73.462 Y101.600 E0.13748
G1 X72.927 Y101.600 E0.01678
G1 X70.366 Y99.039 E0.11375
G1 X70.366 Y99.573 E0.01678
G1 X72.393 Y101.600 E0.09002
G1 X71.859 Y101.600 E0.01678
G1 X70.366 Y100.107 E0.06630
G1 X70.366 Y100.641 E0.01678
G1 X71.325 Y101.600 E0.04257
G1 X70.791 Y101.600 E0.01678
G1 X70.197 Y101.006 E0.02638
; stop printing object Merged id:0 copy 0
M106 S84.15
;LAYER_CHANGE
;Z:0.4
;HEIGHT:0.2
;BEFORE_LAYER_CHANGE
G92 E0.0
;0.4


;WIPE_START
G1 F8640.000
G1 X70.791 Y101.600 E-0.19392
G1 X71.325 Y101.600 E-0.12335
G1 X70.366 Y100.641 E-0.31295
G1 X70.366 Y100.107 E-0.12335
G1 X70.386 Y100.127 E-0.00643
;WIPE_END
G1 E-0.04000 F2100.000
G1 Z0.600 F10800.000
;AFTER_LAYER_CHANGE
;0.4
; printing object Merged id:0 copy 0
G1 X86.037 Y97.881
G1 Z0.400
G1 E0.80000 F2100.000
M204 S800
;TYPE:Perimeter
;WIDTH:0.45
G1 F900
G1 X86.092 Y96.845 E0.03510
G1 X89.937 Y97.059 E0.13035
G1 X89.937 Y95.879 E0.03996
G1 X90.980 Y95.881 E0.03530
G1 X90.980 Y96.118 E0.00801
G1 X90.682 Y96.118 E0.01009
G1 X90.674 Y97.838 E0.05822
G1 X86.294 Y97.594 E0.14851
G1 X86.277 Y97.894 E0.01017
G1 X86.096 Y97.884 E0.00613
M204 S1000
;WIPE_START
G1 F8640.000
G1 X86.092 Y96.845 E-0.23988
G1 X88.341 Y96.970 E-0.52012
;WIPE_END
G1 E-0.04000 F2100.000
G1 Z0.800 F10800.000
G1 X91.087 Y96.525
G1 Z0.400
G1 E0.80000 F2100.000
M204 S800
;TYPE:External perimeter
G1 F900
G1 X91.080 Y98.025 E0.05077
G1 X91.033 Y98.138 E0.00416
G1 X90.985 Y98.189 E0.00235
G1 X90.861 Y98.246 E0.00463
G1 X86.678 Y98.023 E0.14179
G1 X86.662 Y98.323 E0.01017
G1 X85.608 Y98.265 E0.03571
G1 X85.707 Y96.416 E0.06266
G1 X89.530 Y96.629 E0.12959
G1 X89.530 Y95.471 E0.03921
G1 X91.387 Y95.475 E0.06286
G1 X91.387 Y96.525 E0.03553
G1 X91.147 Y96.525 E0.00812
M204 S1000
G1 X90.723 Y96.691 F10800.000
G1 X90.309 Y96.083
;TYPE:Gap fill
;WIDTH:0.380021
G1 F900
G1 X90.307 Y97.274 E0.03339
G1 X90.276 Y97.416 E0.00405
G1 X90.131 Y97.439 E0.00412
;WIDTH:0.372394
G1
G1 X86.276 Y97.224 E0.10580
;WIPE_START
G1 F8640.000
G1 X89.562 Y97.407 E-0.76000
;WIPE_END
G1 E-0.04000 F2100.000
G1 Z0.800 F10800.000
G1 X89.937 Y84.123
G1 Z0.400
G1 E0.80000 F2100.000
M204 S800
;TYPE:Perimeter
;WIDTH:0.45
G1 F900
G1 X89.937 Y82.940 E0.04001
G1 X86.092 Y83.154 E0.13035
G1 X86.037 Y82.120 E0.03508
G1 X86.277 Y82.107 E0.00816
G1 X86.294 Y82.405 E0.01013
G1 X90.676 Y82.163 E0.14856
G1 X90.681 Y83.882 E0.05819
G1 X90.980 Y83.882 E0.01013
G1 X90.980 Y84.123 E0.00815
G1 X89.997 Y84.123 E0.03327
M204 S1000
;WIPE_START
G1 F8640.000
G1 X89.937 Y82.940 E-0.27329
G1 X87.832 Y83.058 E-0.48671
;WIPE_END
G1 E-0.04000 F2100.000
G1 Z0.800 F10800.000
G1 X86.678 Y81.976
G1 Z0.400
G1 E0.80000 F2100.000
M204 S800
;TYPE:External perimeter
G1 F900
G1 X90.802 Y81.748 E0.13982
G1 X90.949 Y81.787 E0.00512
G1 X91.040 Y81.879 E0.00441
G1 X91.083 Y81.998 E0.00427
G1 X91.087 Y83.475 E0.04999
G1 X91.387 Y83.475 E0.01016
G1 X91.387 Y84.530 E0.03570
G1 X89.530 Y84.530 E0.06286
G1 X89.530 Y83.371 E0.03922
G1 X85.707 Y83.583 E0.12959
M73 P14 R11
G1 X85.608 Y81.735 E0.06266
M73 Q14 S11
G1 X86.662 Y81.676 E0.03571
G1 X86.675 Y81.917 E0.00814
M204 S1000
G1 X86.865 Y82.330 F10800.000
;WIPE_START
G1 F8640.000
G1 X89.963 Y81.782 E-0.76000
;WIPE_END
G1 E-0.04000 F2100.000
G1 Z0.800 F10800.000
G1 X90.309 Y83.919
G1 Z0.400
G1 E0.80000 F2100.000
;TYPE:Gap fill
;WIDTH:0.379167
G1 F900
G1 X90.307 Y82.725 E0.03337
G1 X90.278 Y82.585 E0.00401
G1 X90.131 Y82.561 E0.00414
G1 X86.276 Y82.775 E0.10797
;WIPE_START
G1 F8640.000
G1 X89.562 Y82.593 E-0.76000
;WIPE_END
G1 E-0.04000 F2100.000
G1 Z0.800 F10800.000
G1 X72.945 Y83.884
G1 Z0.400
G1 E0.80000 F2100.000
M204 S800
;TYPE:Perimeter
;WIDTH:0.45
G1 F900
G1 X72.944 Y85.460 E0.05334
G1 X71.908 Y85.445 E0.03509
G1 X71.907 Y85.052 E0.01331
G1 X72.206 Y85.055 E0.01009
G1 X72.211 Y83.188 E0.06322
G1 X75.806 Y82.988 E0.12187
G1 X75.789 Y82.688 E0.01018
G1 X76.024 Y82.675 E0.00797
G1 X76.083 Y83.710 E0.03510
G1 X73.005 Y83.881 E0.10434
M204 S1000
G1 X73.352 Y84.270 F10800.000
M204 S800
;TYPE:External perimeter
G1 F900
G1 X73.351 Y85.873 E0.05428
G1 X71.501 Y85.847 E0.06265
G1 X71.500 Y84.641 E0.04082
G1 X71.800 Y84.644 E0.01014
G1 X71.805 Y83.036 E0.05442
G1 X71.838 Y82.934 E0.00364
G1 X71.916 Y82.844 E0.00405
G1 X72.074 Y82.788 E0.00567
G1 X75.376 Y82.605 E0.11195
G1 X75.359 Y82.304 E0.01018
G1 X76.408 Y82.246 E0.03554
G1 X76.512 Y84.094 E0.06266
G1 X73.412 Y84.266 E0.10510
M204 S1000
G1 X72.959 Y84.347 F10800.000
;WIPE_START
G1 F8640.000
G1 X73.351 Y85.873 E-0.37132
G1 X71.668 Y85.849 E-0.38868
;WIPE_END
G1 E-0.04000 F2100.000
G1 Z0.800 F10800.000
G1 X75.859 Y83.354
G1 Z0.400
G1 E0.80000 F2100.000
;TYPE:Gap fill
;WIDTH:0.372058
G1 F900
G1 X72.732 Y83.528 E0.08569
G1 X72.604 Y83.560 E0.00363
G1 X72.577 Y83.692 E0.00367
G1 X72.575 Y85.251 E0.04268
;WIPE_START
G1 F8640.000
G1 X72.577 Y83.692 E-0.36011
G1 X72.604 Y83.560 E-0.03095
G1 X72.732 Y83.528 E-0.03059
G1 X74.195 Y83.446 E-0.33834
;WIPE_END
G1 E-0.04000 F2100.000
G1 Z0.800 F10800.000
G1 X72.944 Y96.115
G1 Z0.400
G1 E0.80000 F2100.000
M204 S800
;TYPE:Perimeter
;WIDTH:0.45
G1 F900
G1 X76.083 Y96.289 E0.10638
G1 X76.024 Y97.324 E0.03510
G1 X75.789 Y97.311 E0.00797
G1 X75.806 Y97.011 E0.01017
G1 X72.210 Y96.811 E0.12193
G1 X72.206 Y94.944 E0.06319
G1 X71.907 Y94.948 E0.01012
G1 X71.908 Y94.554 E0.01331
G1 X72.945 Y94.539 E0.03511
G1 X72.944 Y96.055 E0.05131
M204 S1000
G1 X73.352 Y95.730 F10800.000
M204 S800
;TYPE:External perimeter
G1 F900
G1 X76.512 Y95.905 E0.10714
G1 X76.408 Y97.753 E0.06266
G1 X75.359 Y97.695 E0.03554
G1 X75.376 Y97.395 E0.01018
G1 X72.056 Y97.210 E0.11256
G1 X71.937 Y97.171 E0.00426
G1 X71.851 Y97.091 E0.00396
G1 X71.803 Y96.953 E0.00495
G1 X71.800 Y95.356 E0.05407
G1 X71.500 Y95.359 E0.01015
G1 X71.501 Y94.153 E0.04082
G1 X73.352 Y94.126 E0.06267
G1 X73.352 Y95.670 E0.05225
M204 S1000
G1 X73.451 Y96.117 F10800.000
;WIPE_START
G1 F8640.000
G1 X76.512 Y95.905 E-0.73174
G1 X76.505 Y96.027 E-0.02826
;WIPE_END
G1 E-0.04000 F2100.000
G1 Z0.800 F10800.000
G1 X75.859 Y96.645
G1 Z0.400
G1 E0.80000 F2100.000
;TYPE:Gap fill
;WIDTH:0.374101
G1 F900
G1 X72.732 Y96.472 E0.08624
G1 X72.603 Y96.439 E0.00367
G1 X72.577 Y96.308 E0.00367
G1 X72.575 Y94.748 E0.04294
; stop printing object Merged id:0 copy 0
M106 S170.85
;LAYER_CHANGE
;Z:0.6
;HEIGHT:0.2
;BEFORE_LAYER_CHANGE
G92 E0.0
;0.6


;WIPE_START
M73 P15 R11
M73 Q15 S11
G1 F8640.000
G1 X72.577 Y96.308 E-0.36008
G1 X72.603 Y96.439 E-0.03081
G1 X72.732 Y96.472 E-0.03077
G1 X74.195 Y96.553 E-0.33834
;WIPE_END
G1 E-0.04000 F2100.000
G1 Z0.800 F10800.000
;AFTER_LAYER_CHANGE
;0.6
; printing object Merged id:0 copy 0
G1 X90.700 Y96.118
G1 Z0.600
G1 E0.80000 F2100.000
M204 S800
;TYPE:Perimeter
;WIDTH:0.45
G1 F900
G1 X90.685 Y97.844 E0.05842
G1 X86.309 Y97.600 E0.14834
G1 X86.293 Y97.900 E0.01017
G1 X86.052 Y97.887 E0.00816
G1 X86.108 Y96.851 E0.03510
G1 X89.953 Y97.065 E0.13034
G1 X89.953 Y95.882 E0.04006
G1 X90.996 Y95.882 E0.03530
G1 X90.996 Y96.118 E0.00798
G1 X90.760 Y96.118 E0.00797
M204 S1000
G1 X91.104 Y96.525 F10800.000
M204 S800
