; generated by PrusaSlicer 2.4.0-beta4+win64 on 2021-12-19 at 23:13:59 UTC

; 

; external perimeters extrusion width = 0.45mm
; perimeters extrusion width = 0.45mm
; infill extrusion width = 0.45mm
; solid infill extrusion width = 0.45mm
; top infill extrusion width = 0.40mm
; first layer extrusion width = 0.42mm

M73 P0 R8
M73 Q0 S8
M201 X1000 Y1000 Z200 E5000 ; sets maximum accelerations, mm/sec^2
M203 X200 Y200 Z12 E120 ; sets maximum feedrates, mm/sec
M204 P1250 R1250 T1250 ; sets acceleration (P, T) and retract acceleration (R), mm/sec^2
M205 X8.00 Y8.00 Z0.40 E4.50 ; sets the jerk limits, mm/sec
M205 S0 T0 ; sets the minimum extruding and travel feed rate, mm/sec
M107
;TYPE:Custom
M862.3 P "MK3S" ; printer model check
M862.1 P0.4 ; nozzle diameter check
M115 U3.10.0 ; tell printer latest fw version
G90 ; use absolute coordinates
M83 ; extruder relative mode
M104 S215 ; set extruder temp
M140 S60 ; set bed temp
M190 S60 ; wait for bed temp
M109 S215 ; wait for extruder temp
G28 W ; home all without mesh bed level
G80 ; mesh bed leveling
G1 Y-3.0 F1000.0 ; go outside print area
G92 E0.0
G1 X60.0 E9.0 F1000.0 ; intro line
G1 X100.0 E12.5 F1000.0 ; intro line
G92 E0.0
M221 S95

; Don't change E values below. Excessive value can damage the printer.
M907 E430 ; set extruder motor current
G21 ; set units to millimeters
G90 ; use absolute coordinates
M83 ; use relative distances for extrusion
M900 K0.05 ; Filament gcode LA 1.5
M900 K30 ; Filament gcode LA 1.0
M107
;LAYER_CHANGE
;Z:0.2
;HEIGHT:0.2
;BEFORE_LAYER_CHANGE
G92 E0.0
;0.2


G1 E-.8 F2100
M73 P1 R8
M73 Q1 S8
G1 Z.4 F10800
;AFTER_LAYER_CHANGE
;0.2
G1 X82.595 Y82.372
G1 Z.2
G1 E.8 F2100
M204 S1000
;TYPE:Skirt/Brim
;WIDTH:0.42
G1 F1185
G1 X83.331 Y81.721 E.03079
G1 X84.233 Y81.069 E.03489
G1 X86.043 Y80.133 E.06389
G1 X87.998 Y79.559 E.0639
G1 X89.101 Y79.407 E.03489
G1 X90.158 Y79.37 E.03318
G1 X91.138 Y79.43 E.03079
G1 X92.237 Y79.607 E.03489
G1 X94.179 Y80.225 E.0639
G1 X95.13 Y80.689 E.03318
G1 X96.075 Y81.276 E.03489
G1 X97.628 Y82.595 E.0639
G1 X98.901 Y84.187 E.0639
G1 X99.46 Y85.149 E.03489
G1 X99.867 Y86.043 E.03079
G1 X100.441 Y87.998 E.0639
G1 X100.588 Y89.046 E.03318
G1 X100.63 Y90.158 E.03489
G1 X100.404 Y92.184 E.0639
G1 X100.159 Y93.134 E.03079
G1 X99.775 Y94.179 E.03489
G1 X99.311 Y95.13 E.03318
G1 X98.724 Y96.075 E.03489
G1 X97.405 Y97.628 E.0639
G1 X96.669 Y98.279 E.03079
G1 X95.767 Y98.931 E.03489
G1 X93.957 Y99.867 E.0639
G1 X92.002 Y100.441 E.0639
G1 X90.899 Y100.593 E.03489
G1 X89.842 Y100.63 E.03318
G1 X88.862 Y100.57 E.03079
G1 X87.763 Y100.393 E.03489
G1 X85.821 Y99.775 E.0639
G1 X84.033 Y98.798 E.0639
G1 X83.146 Y98.126 E.03489
G1 X82.372 Y97.405 E.03318
G1 X81.099 Y95.813 E.0639
G1 X80.6 Y94.967 E.03079
M73 Q2 S8
G1 X80.133 Y93.957 E.03489
G1 X79.559 Y92.002 E.0639
G1 X79.407 Y90.899 E.03489
M73 P2 R8
G1 X79.37 Y89.842 E.03318
G1 X79.43 Y88.862 E.03079
G1 X79.607 Y87.763 E.03489
G1 X80.225 Y85.821 E.0639
G1 X81.202 Y84.033 E.0639
G1 X81.839 Y83.187 E.03318
G1 X82.555 Y82.416 E.03301
G1 X82.831 Y82.672 F10800
G1 F1185
G1 X84.395 Y81.413 E.06295
G1 X86.181 Y80.484 E.06313
G1 X88.067 Y79.93 E.06163
G1 X89.13 Y79.783 E.03365
G1 X90.155 Y79.747 E.03215
G1 X92.155 Y79.975 E.06313
G1 X94.029 Y80.57 E.06163
G1 X94.992 Y81.043 E.03365
G1 X95.862 Y81.587 E.03215
G1 X97.359 Y82.86 E.06163
G1 X98.613 Y84.435 E.06314
G1 X99.516 Y86.181 E.06163
G1 X100.07 Y88.067 E.06163
G1 X100.213 Y89.082 E.03215
G1 X100.253 Y90.155 E.03365
G1 X100.035 Y92.108 E.06163
G1 X99.43 Y94.029 E.06313
G1 X98.98 Y94.95 E.03215
G1 X98.413 Y95.862 E.03365
G1 X97.14 Y97.359 E.06163
G1 X95.565 Y98.613 E.06313
G1 X93.819 Y99.516 E.06163
G1 X91.933 Y100.07 E.06163
G1 X90.87 Y100.217 E.03365
G1 X89.845 Y100.253 E.03215
G1 X87.892 Y100.035 E.06163
G1 X85.971 Y99.43 E.06313
G1 X84.246 Y98.488 E.06163
G1 X83.427 Y97.871 E.03215
G1 X82.641 Y97.14 E.03365
G1 X81.387 Y95.565 E.06313
G1 X80.484 Y93.819 E.06163
G1 X79.93 Y91.933 E.06163
G1 X79.783 Y90.87 E.03365
G1 X79.747 Y89.845 E.03215
G1 X79.975 Y87.845 E.06313
G1 X80.57 Y85.971 E.06163
G1 X81.512 Y84.246 E.06163
G1 X82.129 Y83.427 E.03215
G1 X82.79 Y82.716 E.03043
G1 X83.065 Y82.973 F10800
G1 F1185
G1 X84.603 Y81.728 E.06204
G1 X86.319 Y80.834 E.06066
G1 X88.136 Y80.301 E.05937
G1 X89.16 Y80.159 E.03241
G1 X90.152 Y80.124 E.03112
G1 X92.074 Y80.343 E.06066
G1 X93.878 Y80.916 E.05937
G1 X94.807 Y81.371 E.03242
M73 P2 R7
G1 X95.648 Y81.897 E.03112
G1 X97.09 Y83.124 E.05936
G1 X98.295 Y84.638 E.06066
G1 X99.166 Y86.319 E.05936
M73 Q3 S8
G1 X99.699 Y88.136 E.05936
G1 X99.838 Y89.118 E.03112
M73 Q3 S7
G1 X99.876 Y90.152 E.03242
M73 P3 R7
G1 X99.665 Y92.033 E.05936
G1 X99.084 Y93.878 E.06066
G1 X98.649 Y94.77 E.03112
G1 X98.103 Y95.648 E.03242
G1 X96.876 Y97.09 E.05936
G1 X95.362 Y98.295 E.06066
G1 X93.681 Y99.166 E.05936
G1 X91.864 Y99.699 E.05937
G1 X90.84 Y99.841 E.03241
G1 X89.848 Y99.876 E.03112
G1 X87.967 Y99.665 E.05936
G1 X86.122 Y99.084 E.06066
G1 X84.46 Y98.177 E.05936
G1 X83.635 Y97.553 E.03241
G1 X82.91 Y96.876 E.03112
G1 X81.705 Y95.362 E.06066
G1 X80.834 Y93.681 E.05936
G1 X80.301 Y91.864 E.05936
G1 X80.162 Y90.882 E.03111
G1 X80.124 Y89.848 E.03242
G1 X80.343 Y87.926 E.06066
G1 X80.916 Y86.122 E.05937
G1 X81.823 Y84.46 E.05936
G1 X82.447 Y83.635 E.03242
G1 X83.024 Y83.016 E.02653
; printing object Shape-Cylinder id:0 copy 0
;WIPE_START
G1 F8640
G1 X84.603 Y81.728 E-.4706
G1 X85.715 Y81.149 E-.2894
;WIPE_END
G1 E-.04 F2100
G1 Z.6 F10800
G1 X85.615 Y84.926
G1 Z.2
G1 E.8 F2100
;TYPE:Perimeter
G1 F1185
G1 X85.774 Y84.785 E.00665
G1 X86.344 Y84.371 E.02211
G1 X86.953 Y84.019 E.02203
G1 X87.595 Y83.734 E.02203
G1 X88.265 Y83.516 E.02211
G1 X88.835 Y83.389 E.01831
G1 X89.412 Y83.314 E.01825
G1 X90.12 Y83.289 E.02219
G1 X90.699 Y83.324 E.0182
G1 X91.398 Y83.435 E.02219
G1 X91.961 Y83.581 E.01823
G1 X92.625 Y83.822 E.02216
G1 X93.15 Y84.073 E.01823
G1 X93.753 Y84.435 E.02208
G1 X94.315 Y84.859 E.02206
G1 X94.828 Y85.337 E.022
G1 X95.291 Y85.87 E.02211
G1 X95.628 Y86.343 E.01822
G1 X95.981 Y86.953 E.02208
G1 X96.267 Y87.597 E.02211
G1 X96.452 Y88.147 E.0182
G1 X96.61 Y88.834 E.02211
G1 X96.696 Y89.534 E.02211
G1 X96.711 Y90.117 E.01828
G1 X96.676 Y90.699 E.01828
G1 X96.565 Y91.395 E.02211
G1 X96.383 Y92.075 E.02206
G1 X96.132 Y92.73 E.022
G1 X95.812 Y93.358 E.02211
G1 X95.498 Y93.85 E.01828
G1 X95.143 Y94.313 E.01828
G1 X94.661 Y94.83 E.02219
G1 X94.226 Y95.215 E.0182
G1 X93.656 Y95.629 E.02211
G1 X93.047 Y95.981 E.02203
G1 X92.405 Y96.266 E.02203
G1 X91.735 Y96.484 E.02211
G1 X91.168 Y96.61 E.0182
G1 X90.466 Y96.696 E.02219
G1 X89.883 Y96.711 E.01828
G1 X89.301 Y96.676 E.01828
G1 X88.604 Y96.565 E.02211
G1 X87.925 Y96.383 E.02205
G1 X87.27 Y96.132 E.022
G1 X86.642 Y95.812 E.02211
G1 X86.152 Y95.5 E.0182
G1 X85.594 Y95.064 E.02219
G1 X85.173 Y94.664 E.01823
G1 X84.711 Y94.132 E.02208
G1 X84.306 Y93.555 E.02211
G1 X84.02 Y93.05 E.0182
G1 X83.734 Y92.405 E.02211
G1 X83.516 Y91.735 E.02211
G1 X83.39 Y91.167 E.01823
G1 X83.304 Y90.466 E.02216
G1 X83.289 Y89.885 E.01823
G1 X83.338 Y89.182 E.02208
G1 X83.46 Y88.488 E.02211
G1 X83.616 Y87.927 E.01823
G1 X83.868 Y87.27 E.02208
G1 X84.188 Y86.642 E.02211
G1 X84.501 Y86.151 E.01823
G1 X84.936 Y85.594 E.02216
G1 X85.337 Y85.172 E.01828
G1 X85.57 Y84.965 E.00975
G1 X85.044 Y84.933 F10800
;TYPE:External perimeter
G1 F1185
G1 X85.538 Y84.491 E.02078
G1 X86.139 Y84.054 E.02329
M73 Q4 S7
G1 X86.781 Y83.683 E.02327
G1 X87.459 Y83.381 E.02327
G1 X88.166 Y83.152 E.0233
G1 X88.77 Y83.018 E.01939
G1 X89.381 Y82.937 E.01933
G1 X90.125 Y82.911 E.02333
G1 X90.74 Y82.949 E.01933
G1 X91.475 Y83.065 E.02332
M73 P4 R7
G1 X92.073 Y83.22 E.01936
G1 X92.771 Y83.474 E.0233
G1 X93.328 Y83.74 E.01936
G1 X93.964 Y84.122 E.02327
G1 X94.558 Y84.569 E.0233
G1 X95.1 Y85.075 E.02324
G1 X95.587 Y85.636 E.0233
G1 X95.946 Y86.139 E.01936
G1 X96.317 Y86.781 E.02327
G1 X96.619 Y87.46 E.0233
G1 X96.815 Y88.045 E.01934
G1 X96.982 Y88.769 E.0233
G1 X97.073 Y89.506 E.0233
G1 X97.089 Y90.124 E.01937
G1 X97.051 Y90.74 E.01936
G1 X96.935 Y91.474 E.0233
G1 X96.742 Y92.192 E.0233
G1 X96.477 Y92.884 E.02324
G1 X96.139 Y93.546 E.0233
G1 X95.808 Y94.067 E.01936
G1 X95.432 Y94.557 E.01937
G1 X94.924 Y95.101 E.02332
G1 X94.462 Y95.509 E.01934
G1 X93.861 Y95.946 E.0233
G1 X93.219 Y96.317 E.02327
G1 X92.541 Y96.619 E.02327
G1 X91.834 Y96.848 E.0233
G1 X91.232 Y96.982 E.01934
G1 X90.494 Y97.073 E.02332
G1 X89.876 Y97.089 E.01936
G1 X89.26 Y97.051 E.01936
G1 X88.526 Y96.935 E.0233
G1 X87.808 Y96.742 E.02329
G1 X87.116 Y96.477 E.02324
G1 X86.454 Y96.139 E.0233
G1 X85.934 Y95.808 E.01934
G1 X85.348 Y95.35 E.02332
G1 X84.9 Y94.925 E.01936
G1 X84.413 Y94.365 E.02327
G1 X83.987 Y93.756 E.0233
G1 X83.683 Y93.219 E.01934
G1 X83.381 Y92.541 E.02329
G1 X83.152 Y91.834 E.02329
G1 X83.018 Y91.231 E.01937
G1 X82.927 Y90.494 E.0233
G1 X82.911 Y89.876 E.01936
G1 X82.963 Y89.136 E.02327
G1 X83.092 Y88.404 E.02329
G1 X83.257 Y87.809 E.01936
G1 X83.523 Y87.116 E.02327
G1 X83.861 Y86.454 E.0233
G1 X84.192 Y85.934 E.01936
G1 X84.65 Y85.348 E.0233
G1 X85.002 Y84.976 E.01606
G1 X85.429 Y85.04 F10800
; stop printing object Shape-Cylinder id:0 copy 0
M106 S84.15
;LAYER_CHANGE
;Z:0.4
;HEIGHT:0.2
;BEFORE_LAYER_CHANGE
G92 E0.0
;0.4


;WIPE_START
G1 F8640
G1 X85.538 Y84.491 E-.16687
G1 X86.139 Y84.054 E-.17155
G1 X86.781 Y83.683 E-.17136
G1 X87.459 Y83.381 E-.17135
G1 X87.784 Y83.276 E-.07887
;WIPE_END
G1 E-.04 F2100
G1 Z.6 F10800
;AFTER_LAYER_CHANGE
;0.4
; printing object Shape-Cylinder id:0 copy 0
G1 X88.241 Y83.371
G1 Z.4
G1 E.8 F2100
M204 S800
;TYPE:Perimeter
;WIDTH:0.45
G1 F900
G1 X88.69 Y83.259 E.01565
G1 X89.404 Y83.159 E.02442
G1 X90 Y83.133 E.02018
G1 X90.718 Y83.171 E.02434
G1 X91.428 Y83.283 E.02433
G1 X92.125 Y83.47 E.02442
G1 X92.683 Y83.679 E.02019
G1 X93.221 Y83.935 E.02018
G1 X93.842 Y84.308 E.02452
G1 X94.32 Y84.661 E.02009
G1 X94.856 Y85.144 E.02442
G1 X95.339 Y85.68 E.02442
G1 X95.693 Y86.16 E.02018
G1 X96.063 Y86.776 E.02434
G1 X96.368 Y87.43 E.02442
G1 X96.567 Y87.992 E.02018
G1 X96.742 Y88.692 E.02443
G1 X96.829 Y89.279 E.02009
G1 X96.867 Y90 E.02442
G1 X96.829 Y90.72 E.02442
G1 X96.741 Y91.31 E.02018
G1 X96.567 Y92.008 E.02434
G1 X96.32 Y92.686 E.02443
G1 X96.065 Y93.222 E.02009
G1 X95.692 Y93.842 E.02452
G1 X95.339 Y94.32 E.02009
G1 X94.856 Y94.856 E.02442
G1 X94.32 Y95.339 E.02442
G1 X93.842 Y95.692 E.02009
G1 X93.222 Y96.065 E.02452
G1 X92.686 Y96.32 E.02009
G1 X92.008 Y96.567 E.02442
G1 X91.308 Y96.742 E.02442
G1 X90.721 Y96.829 E.02009
G1 X90 Y96.867 E.02442
G1 X89.279 Y96.829 E.02442
G1 X88.692 Y96.742 E.02009
G1 X87.99 Y96.566 E.02452
G1 X87.43 Y96.368 E.02009
G1 X86.776 Y96.063 E.02442
G1 X86.158 Y95.692 E.02442
G1 X85.68 Y95.339 E.02009
G1 X85.144 Y94.856 E.02442
G1 X84.663 Y94.322 E.02433
G1 X84.241 Y93.74 E.02433
G1 X83.88 Y93.115 E.02442
G1 X83.633 Y92.573 E.02018
G1 X83.433 Y92.008 E.02027
G1 X83.259 Y91.31 E.02434
G1 X83.159 Y90.596 E.02443
G1 X83.133 Y90.003 E.02009
G1 X83.171 Y89.279 E.02452
G1 X83.259 Y88.69 E.02018
G1 X83.399 Y88.107 E.02027
G1 X83.633 Y87.428 E.02434
M73 Q5 S7
G1 X83.937 Y86.776 E.02433
G1 X84.308 Y86.158 E.02442
G1 X84.663 Y85.679 E.02018
G1 X85.144 Y85.144 E.02434
G1 X85.678 Y84.663 E.02433
M73 P5 R7
G1 X86.262 Y84.239 E.02442
G1 X86.776 Y83.937 E.02018
G1 X87.43 Y83.632 E.02443
G1 X87.992 Y83.433 E.02018
G1 X88.183 Y83.385 E.00665
M204 S1000
G1 X87.721 Y83.097 F10800
M204 S800
;TYPE:External perimeter
G1 F900
G1 X87.875 Y83.043 E.00552
G1 X88.612 Y82.859 E.02572
G1 X89.367 Y82.753 E.02581
G1 X90.002 Y82.725 E.0215
G1 X90.76 Y82.765 E.02572
G1 X91.512 Y82.884 E.02578
G1 X92.249 Y83.082 E.02581
G1 X92.843 Y83.304 E.02145
G1 X93.414 Y83.576 E.02145
G1 X94.069 Y83.97 E.02584
G1 X94.577 Y84.346 E.02142
G1 X95.144 Y84.856 E.02581
G1 X95.654 Y85.423 E.02581
G1 X96.032 Y85.933 E.0215
G1 X96.423 Y86.585 E.02572
G1 X96.745 Y87.276 E.02581
G1 X96.957 Y87.875 E.0215
G1 X97.141 Y88.613 E.02575
G1 X97.235 Y89.239 E.02142
G1 X97.275 Y90 E.02581
G1 X97.235 Y90.761 E.02581
G1 X97.141 Y91.39 E.0215
G1 X96.957 Y92.127 E.02572
G1 X96.696 Y92.843 E.02581
G1 X96.424 Y93.414 E.02141
G1 X96.03 Y94.069 E.02584
G1 X95.654 Y94.577 E.02142
G1 X95.144 Y95.144 E.02581
G1 X94.577 Y95.654 E.02581
G1 X94.069 Y96.03 E.02141
G1 X93.414 Y96.424 E.02584
G1 X92.843 Y96.696 E.02142
G1 X92.127 Y96.957 E.02581
G1 X91.387 Y97.141 E.02581
G1 X90.761 Y97.235 E.02142
G1 X90 Y97.275 E.02581
G1 X89.239 Y97.235 E.02581
G1 X88.613 Y97.141 E.02142
G1 X87.872 Y96.957 E.02584
G1 X87.276 Y96.745 E.02142
G1 X86.585 Y96.423 E.02581
G1 X85.931 Y96.03 E.02581
G1 X85.423 Y95.654 E.02141
G1 X84.856 Y95.144 E.02581
G1 X84.346 Y94.578 E.02578
G1 X83.899 Y93.962 E.02577
G1 X83.518 Y93.302 E.02581
G1 X83.255 Y92.725 E.02145
G1 X83.043 Y92.125 E.02154
G1 X82.859 Y91.388 E.02572
G1 X82.753 Y90.633 E.02581
G1 X82.725 Y90.001 E.02142
G1 X82.765 Y89.239 E.02584
G1 X82.859 Y88.612 E.02145
G1 X83.008 Y87.993 E.02154
G1 X83.255 Y87.275 E.02572
G1 X83.577 Y86.585 E.02577
G1 X83.969 Y85.931 E.02581
G1 X84.347 Y85.421 E.0215
G1 X84.856 Y84.856 E.02572
G1 X85.422 Y84.346 E.02578
G1 X86.039 Y83.898 E.0258
G1 X86.586 Y83.576 E.02151
G1 X87.276 Y83.255 E.02575
G1 X87.664 Y83.117 E.01396
M204 S1000
G1 X87.847 Y83.2 F10800
; stop printing object Shape-Cylinder id:0 copy 0
M106 S170.85
;LAYER_CHANGE
;Z:0.6
;HEIGHT:0.2
;BEFORE_LAYER_CHANGE
G92 E0.0
;0.6


;WIPE_START
G1 F8640
G1 X87.875 Y83.043 E-.05149
G1 X88.612 Y82.859 E-.17545
G1 X89.367 Y82.753 E-.17605
G1 X90.002 Y82.725 E-.14669
G1 X90.76 Y82.765 E-.17544
G1 X90.91 Y82.789 E-.03489
;WIPE_END
G1 E-.04 F2100
G1 Z.8 F10800
;AFTER_LAYER_CHANGE
;0.6
; printing object Shape-Cylinder id:0 copy 0
G1 X91.241 Y83.253
G1 Z.6
G1 E.8 F2100
M204 S800
;TYPE:Perimeter
G1 F900
G1 X91.428 Y83.283 E.0064
G1 X92.125 Y83.47 E.02442
G1 X92.683 Y83.679 E.02018
G1 X93.221 Y83.935 E.02019
G1 X93.842 Y84.308 E.02452
G1 X94.32 Y84.661 E.02009
G1 X94.858 Y85.146 E.02451
G1 X95.261 Y85.587 E.02024
G1 X95.693 Y86.16 E.02428
G1 X96.063 Y86.776 E.02433
G1 X96.368 Y87.43 E.02442
G1 X96.568 Y87.994 E.02024
G1 X96.742 Y88.692 E.02437
G1 X96.829 Y89.279 E.0201
G1 X96.867 Y90 E.02442
G1 X96.829 Y90.718 E.02433
G1 X96.717 Y91.428 E.02433
G1 X96.53 Y92.125 E.02442
G1 X96.321 Y92.683 E.02018
G1 X96.063 Y93.225 E.02033
G1 X95.692 Y93.842 E.02437
G1 X95.339 Y94.32 E.02009
G1 X94.856 Y94.856 E.02442
G1 X94.322 Y95.337 E.02433
G1 X93.74 Y95.759 E.02433
M73 Q6 S7
G1 X93.115 Y96.12 E.02442
G1 X92.573 Y96.367 E.02018
G1 X92.01 Y96.566 E.02019
G1 X91.308 Y96.742 E.02452
G1 X90.721 Y96.829 E.02009
G1 X90 Y96.867 E.02442
M73 P6 R7
G1 X89.279 Y96.829 E.02442
G1 X88.692 Y96.742 E.02009
G1 X87.992 Y96.567 E.02442
G1 X87.317 Y96.321 E.02433
G1 X86.668 Y96.005 E.02442
G1 X86.16 Y95.693 E.02018
G1 X85.677 Y95.336 E.02033
G1 X85.144 Y94.856 E.02428
G1 X84.663 Y94.322 E.02433
G1 X84.239 Y93.738 E.02442
G1 X83.936 Y93.223 E.02024
G1 X83.632 Y92.57 E.02437
G1 X83.434 Y92.01 E.0201
G1 X83.258 Y91.308 E.02451
G1 X83.17 Y90.716 E.02024
G1 X83.133 Y90 E.02428
G1 X83.171 Y89.28 E.02442
G1 X83.259 Y88.688 E.02024
G1 X83.433 Y87.992 E.02428
G1 X83.68 Y87.314 E.02442
G1 X83.937 Y86.775 E.02024
G1 X84.308 Y86.158 E.02437
G1 X84.664 Y85.677 E.02024
G1 X85.144 Y85.144 E.02428
G1 X85.68 Y84.661 E.02443
G1 X86.158 Y84.308 E.02009
G1 X86.776 Y83.937 E.02442
G1 X87.43 Y83.632 E.02442
G1 X87.994 Y83.432 E.02024
G1 X88.69 Y83.259 E.02428
G1 X89.404 Y83.159 E.02442
G1 X90.001 Y83.133 E.02024
G1 X90.718 Y83.171 E.02428
G1 X91.182 Y83.244 E.0159
M204 S1000
G1 X90.91 Y82.789 F10800
M204 S800
;TYPE:External perimeter
G1 F900
G1 X91.512 Y82.884 E.02066
G1 X92.249 Y83.082 E.02581
G1 X92.842 Y83.304 E.02145
G1 X93.414 Y83.576 E.02145
G1 X94.069 Y83.97 E.02584
G1 X94.577 Y84.346 E.02142
G1 X95.145 Y84.857 E.02584
G1 X95.575 Y85.326 E.02156
G1 X96.031 Y85.932 E.02566
G1 X96.423 Y86.585 E.02577
G1 X96.745 Y87.276 E.02581
G1 X96.958 Y87.876 E.02156
G1 X97.141 Y88.613 E.02569
G1 X97.235 Y89.239 E.02142
G1 X97.275 Y90 E.02581
G1 X97.235 Y90.76 E.02577
G1 X97.116 Y91.512 E.02578
G1 X96.918 Y92.249 E.02581
G1 X96.696 Y92.842 E.02145
G1 X96.422 Y93.418 E.0216
G1 X96.03 Y94.069 E.0257
