; generated by PrusaSlicer 2.4.0-beta4+win64 on 2021-12-20 at 22:31:51 UTC

; 

; external perimeters extrusion width = 0.45mm
; perimeters extrusion width = 0.45mm
; infill extrusion width = 0.45mm
; solid infill extrusion width = 0.45mm
; top infill extrusion width = 0.40mm
; first layer extrusion width = 0.42mm

M73 P0 R10
M73 Q0 S10
M201 X1000 Y1000 Z200 E5000 ; sets maximum accelerations, mm/sec^2
M203 X200 Y200 Z12 E120 ; sets maximum feedrates, mm/sec
M204 P1250 R1250 T1250 ; sets acceleration (P, T) and retract acceleration (R), mm/sec^2
M205 X8.00 Y8.00 Z0.40 E4.50 ; sets the jerk limits, mm/sec
M205 S0 T0 ; sets the minimum extruding and travel feed rate, mm/sec
M107
;TYPE:Custom
M862.3 P "MK3S" ; printer model check
M862.1 P0.4 ; nozzle diameter check
M115 U3.10.0 ; tell printer latest fw version
G90 ; use absolute coordinates
M83 ; extruder relative mode
M104 S215 ; set extruder temp
M140 S60 ; set bed temp
M190 S60 ; wait for bed temp
M109 S215 ; wait for extruder temp
G28 W ; home all without mesh bed level
G80 ; mesh bed leveling
G1 Y-3.0 F1000.0 ; go outside print area
G92 E0.0
G1 X60.0 E9.0 F1000.0 ; intro line
G1 X100.0 E12.5 F1000.0 ; intro line
G92 E0.0
M221 S95

; Don't change E values below. Excessive value can damage the printer.
M907 E430 ; set extruder motor current
G21 ; set units to millimeters
G90 ; use absolute coordinates
M83 ; use relative distances for extrusion
M900 K0.05 ; Filament gcode LA 1.5
M900 K30 ; Filament gcode LA 1.0
M107
;LAYER_CHANGE
;Z:0.2
;HEIGHT:0.2
;BEFORE_LAYER_CHANGE
G92 E0.0
;0.2


G1 E-.8 F2100
G1 Z.4 F10800
;AFTER_LAYER_CHANGE
;0.2
G1 X81.123 Y80.842
G1 Z.2
M73 P1 R10
M73 Q1 S10
G1 E.8 F2100
M204 S1000
;TYPE:Skirt/Brim
;WIDTH:0.42
G1 F1168
G1 X81.992 Y80.073 E.03639
G1 X83.074 Y79.29 E.04186
G1 X84.188 Y78.647 E.04035
G1 X85.245 Y78.166 E.03639
G1 X86.461 Y77.747 E.04035
G1 X87.762 Y77.444 E.04186
G1 X88.912 Y77.292 E.03639
G1 X90.199 Y77.247 E.04035
G1 X91.357 Y77.318 E.03639
G1 X92.628 Y77.52 E.04035
G1 X93.752 Y77.81 E.03639
G1 X95.006 Y78.269 E.04186
G1 X96.204 Y78.857 E.04186
G1 X97.296 Y79.539 E.04035
G1 X98.217 Y80.245 E.03639
G1 X99.158 Y81.123 E.04035
G1 X99.927 Y81.992 E.03639
G1 X100.683 Y83.033 E.04035
G1 X101.272 Y84.034 E.03639
G1 X101.834 Y85.245 E.04186
G1 X102.253 Y86.461 E.04035
G1 X102.524 Y87.59 E.03639
G1 X102.708 Y88.912 E.04186
G1 X102.753 Y90.199 E.04035
G1 X102.682 Y91.357 E.03639
G1 X102.47 Y92.675 E.04186
G1 X102.137 Y93.918 E.04035
G1 X101.731 Y95.006 E.03639
G1 X101.167 Y96.162 E.04035
G1 X100.56 Y97.152 E.03639
G1 X99.755 Y98.217 E.04186
G1 X98.877 Y99.158 E.04035
G1 X98.008 Y99.927 E.03639
G1 X96.926 Y100.71 E.04186
G1 X95.812 Y101.353 E.04035
G1 X94.755 Y101.834 E.03639
G1 X93.539 Y102.253 E.04035
G1 X92.41 Y102.524 E.03639
G1 X91.136 Y102.703 E.04035
G1 X89.802 Y102.753 E.04185
G1 X88.643 Y102.682 E.0364
G1 X87.372 Y102.48 E.04035
G1 X86.248 Y102.19 E.03639
G1 X84.994 Y101.731 E.04186
G1 X83.838 Y101.167 E.04035
G1 X82.848 Y100.56 E.03639
G1 X81.783 Y99.755 E.04186
G1 X80.842 Y98.877 E.04035
G1 X80.073 Y98.008 E.03639
G1 X79.317 Y96.967 E.04035
G1 X78.647 Y95.812 E.04186
G1 X78.166 Y94.755 E.03639
G1 X77.733 Y93.492 E.04186
G1 X77.444 Y92.238 E.04035
G1 X77.292 Y91.088 E.03639
G1 X77.247 Y89.801 E.04035
G1 X77.318 Y88.643 E.03639
G1 X77.52 Y87.372 E.04035
G1 X77.863 Y86.082 E.04186
G1 X78.269 Y84.994 E.03639
G1 X78.833 Y83.838 E.04035
G1 X79.44 Y82.848 E.03639
G1 X80.245 Y81.783 E.04186
G1 X81.082 Y80.886 E.03847
G1 X81.358 Y81.143 F10800
G1 F1168
G1 X82.227 Y80.368 E.0365
G1 X83.242 Y79.631 E.03932
G1 X84.362 Y78.981 E.04062
G1 X85.383 Y78.516 E.03516
G1 X86.608 Y78.097 E.04062
G1 X87.83 Y77.815 E.03932
G1 X88.942 Y77.668 E.03515
G1 X90.195 Y77.625 E.03932
G1 X91.314 Y77.693 E.03515
G1 X92.553 Y77.889 E.03932
G1 X93.638 Y78.17 E.03515
G1 X94.855 Y78.615 E.04062
G1 X96.019 Y79.185 E.04062
G1 X97.082 Y79.849 E.03932
G1 X97.972 Y80.532 E.03515
G1 X98.889 Y81.387 E.03932
G1 X99.632 Y82.227 E.03516
G1 X100.369 Y83.242 E.03932
G1 X100.938 Y84.208 E.03516
G1 X101.484 Y85.383 E.04062
G1 X101.892 Y86.568 E.03932
G1 X102.154 Y87.659 E.03515
G1 X102.332 Y88.942 E.04062
G1 X102.375 Y90.195 E.03932
G1 X102.307 Y91.314 E.03515
G1 X102.111 Y92.553 E.03932
M73 Q2 S10
G1 X101.778 Y93.805 E.04062
G1 X101.385 Y94.855 E.03516
G1 X100.835 Y95.982 E.03932
G1 X100.249 Y96.938 E.03516
M73 P2 R10
G1 X99.468 Y97.972 E.04062
G1 X98.613 Y98.889 E.03932
G1 X97.773 Y99.632 E.03516
G1 X96.724 Y100.392 E.04062
G1 X95.638 Y101.019 E.03932
G1 X94.617 Y101.484 E.03516
G1 X93.432 Y101.892 E.03932
G1 X92.341 Y102.154 E.03515
G1 X91.099 Y102.328 E.03932
G1 X89.805 Y102.375 E.04061
G1 X88.686 Y102.307 E.03516
G1 X87.406 Y102.102 E.04062
G1 X86.195 Y101.778 E.03932
G1 X85.145 Y101.385 E.03515
G1 X84.018 Y100.835 E.03932
G1 X83.062 Y100.249 E.03516
G1 X82.028 Y99.468 E.04062
G1 X81.111 Y98.613 E.03932
G1 X80.26 Y97.636 E.04062
G1 X79.609 Y96.724 E.03515
G1 X78.981 Y95.638 E.03932
G1 X78.516 Y94.617 E.03516
G1 X78.097 Y93.392 E.04062
G1 X77.815 Y92.17 E.03932
G1 X77.668 Y91.058 E.03515
G1 X77.625 Y89.805 E.03932
G1 X77.693 Y88.686 E.03515
G1 X77.889 Y87.447 E.03932
G1 X78.222 Y86.195 E.04062
G1 X78.615 Y85.145 E.03516
G1 X79.165 Y84.018 E.03932
G1 X79.751 Y83.062 E.03515
G1 X80.505 Y82.06 E.03932
G1 X81.317 Y81.187 E.03739
; printing object Shape-Cylinder id:0 copy 0
;WIPE_START
G1 F8640
G1 X82.227 Y80.368 E-.28256
G1 X83.242 Y79.631 E-.28956
G1 X83.946 Y79.223 E-.18789
;WIPE_END
G1 E-.04 F2100
G1 Z.6 F10800
G1 X83.9 Y83.099
G1 Z.2
G1 E.8 F2100
;TYPE:Perimeter
G1 F1168
G1 X84.329 Y82.74 E.01754
G1 X84.716 Y82.453 E.01508
G1 X85.118 Y82.187 E.01513
G1 X85.534 Y81.942 E.01512
G1 X85.957 Y81.722 E.01496
G1 X86.703 Y81.397 E.02552
G1 X87.611 Y81.103 E.02991
G1 X88.406 Y80.926 E.02556
G1 X89.352 Y80.81 E.02988
G1 X90.161 Y80.789 E.02536
G1 X90.968 Y80.838 E.02536
G1 X91.91 Y80.988 E.02991
G1 X92.698 Y81.191 E.02552
G1 X93.151 Y81.343 E.01496
G1 X93.6 Y81.52 E.01512
G1 X94.039 Y81.72 E.01513
G1 X94.466 Y81.942 E.01512
G1 X94.882 Y82.187 E.01512
G1 X95.284 Y82.453 E.01512
G1 X95.672 Y82.74 E.01512
G1 X96.04 Y83.044 E.01496
G1 X96.631 Y83.604 E.02552
G1 X97.256 Y84.324 E.02991
G1 X97.73 Y84.988 E.02556
G1 X98.206 Y85.813 E.02988
G1 X98.542 Y86.549 E.02536
G1 X98.812 Y87.311 E.02536
G1 X98.939 Y87.771 E.01496
G1 X99.043 Y88.242 E.01512
G1 X99.123 Y88.718 E.01512
G1 X99.178 Y89.197 E.01512
G1 X99.207 Y89.679 E.01512
G1 X99.211 Y90.156 E.01496
G1 X99.162 Y90.968 E.02552
G1 X99.012 Y91.91 E.02992
G1 X98.809 Y92.698 E.02552
G1 X98.482 Y93.595 E.02991
G1 X98.132 Y94.33 E.02552
G1 X97.897 Y94.745 E.01496
G1 X97.638 Y95.152 E.01512
G1 X97.358 Y95.544 E.01512
G1 X97.057 Y95.922 E.01512
G1 X96.738 Y96.283 E.01512
G1 X96.403 Y96.623 E.01496
G1 X95.794 Y97.163 E.02552
G1 X95.022 Y97.724 E.02991
G1 X94.321 Y98.137 E.02552
G1 X93.456 Y98.54 E.02991
G1 X92.689 Y98.812 E.02552
G1 X92.229 Y98.939 E.01496
G1 X91.758 Y99.043 E.01512
G1 X91.282 Y99.123 E.01512
G1 X90.803 Y99.178 E.01512
G1 X90.321 Y99.207 E.01512
G1 X89.844 Y99.211 E.01496
G1 X89.032 Y99.162 E.02552
G1 X88.09 Y99.012 E.02991
G1 X87.302 Y98.809 E.02552
G1 X86.849 Y98.657 E.01496
G1 X86.4 Y98.48 E.01512
G1 X85.961 Y98.28 E.01512
G1 X85.538 Y98.06 E.01497
G1 X84.844 Y97.635 E.02552
G1 X84.456 Y97.358 E.01496
G1 X84.078 Y97.057 E.01512
G1 X83.717 Y96.738 E.01512
G1 X83.373 Y96.4 E.01512
G1 X83.047 Y96.044 E.01512
G1 X82.744 Y95.676 E.01496
G1 X82.271 Y95.013 E.02552
G1 X81.794 Y94.187 E.02991
G1 X81.456 Y93.446 E.02552
G1 X81.289 Y92.999 E.01496
G1 X81.144 Y92.539 E.01512
G1 X81.023 Y92.072 E.01512
G1 X80.928 Y91.605 E.01496
G1 X80.822 Y90.798 E.02552
G1 X80.793 Y90.321 E.01496
G1 X80.789 Y89.839 E.01512
G1 X80.81 Y89.357 E.01512
G1 X80.856 Y88.877 E.01512
G1 X80.927 Y88.4 E.01512
G1 X81.023 Y87.928 E.01512
G1 X81.144 Y87.461 E.01512
G1 X81.288 Y87.006 E.01496
G1 X81.586 Y86.248 E.02552
G1 X82.019 Y85.398 E.02991
G1 X82.457 Y84.711 E.02555
G1 X83.044 Y83.96 E.02988
G1 X83.605 Y83.369 E.02556
G1 X83.856 Y83.139 E.01066
G1 X83.337 Y83.103 F10800
;TYPE:External perimeter
G1 F1168
G1 X83.709 Y82.762 E.01585
G1 X84.097 Y82.442 E.01574
G1 X84.499 Y82.144 E.0157
G1 X84.918 Y81.867 E.01574
G1 X85.351 Y81.612 E.01574
G1 X85.794 Y81.381 E.01568
G1 X86.565 Y81.046 E.02635
G1 X87.037 Y80.879 E.01568
G1 X87.516 Y80.737 E.01569
G1 X88.338 Y80.555 E.02638
G1 X88.831 Y80.482 E.01565
G1 X89.329 Y80.434 E.01568
G1 X90.167 Y80.412 E.02629
G1 X91.004 Y80.463 E.02629
G1 X91.5 Y80.528 E.01569
G1 X91.992 Y80.619 E.01568
G1 X92.806 Y80.83 E.02635
G1 X93.28 Y80.988 E.01569
G1 X93.747 Y81.172 E.01574
G1 X94.204 Y81.381 E.01574
G1 X94.649 Y81.612 E.01574
G1 X95.082 Y81.867 E.01574
M73 Q3 S10
G1 X95.501 Y82.144 E.01574
G1 X95.904 Y82.443 E.01574
G1 X96.29 Y82.761 E.01569
G1 X96.9 Y83.34 E.02635
G1 X97.238 Y83.708 E.01569
G1 X97.556 Y84.094 E.01568
G1 X98.044 Y84.779 E.02638
G1 X98.305 Y85.205 E.01565
M73 P3 R10
G1 X98.544 Y85.645 E.01568
G1 X98.891 Y86.408 E.02629
G1 X99.171 Y87.198 E.02629
G1 X99.305 Y87.68 E.01569
G1 X99.414 Y88.17 E.01574
G1 X99.497 Y88.665 E.01574
G1 X99.553 Y89.164 E.01574
G1 X99.584 Y89.665 E.01574
G1 X99.588 Y90.165 E.01568
G1 X99.537 Y91.004 E.02635
G1 X99.472 Y91.5 E.01569
G1 X99.381 Y91.992 E.01568
G1 X99.17 Y92.806 E.02634
G1 X99.012 Y93.28 E.01569
G1 X98.828 Y93.745 E.01568
G1 X98.466 Y94.504 E.02635
G1 X98.22 Y94.939 E.01568
G1 X97.95 Y95.363 E.01574
G1 X97.659 Y95.771 E.01574
G1 X97.346 Y96.164 E.01574
G1 X97.014 Y96.54 E.01574
G1 X96.663 Y96.897 E.01568
G1 X96.034 Y97.454 E.02635
G1 X95.637 Y97.758 E.01568
G1 X95.225 Y98.042 E.01569
G1 X94.501 Y98.468 E.02635
G1 X94.053 Y98.691 E.01569
G1 X93.594 Y98.891 E.01568
G1 X92.802 Y99.171 E.02635
G1 X92.32 Y99.305 E.01568
G1 X91.83 Y99.414 E.01574
G1 X91.335 Y99.497 E.01574
G1 X90.836 Y99.553 E.01574
G1 X90.335 Y99.584 E.01574
G1 X89.835 Y99.588 E.01568
G1 X88.996 Y99.537 E.02635
G1 X88.5 Y99.472 E.01569
G1 X88.008 Y99.381 E.01568
G1 X87.194 Y99.17 E.02634
G1 X86.72 Y99.012 E.01569
G1 X86.253 Y98.828 E.01574
G1 X85.796 Y98.619 E.01574
G1 X85.352 Y98.388 E.01569
G1 X84.636 Y97.949 E.02634
G1 X84.229 Y97.659 E.01568
G1 X83.836 Y97.346 E.01574
G1 X83.46 Y97.014 E.01574
G1 X83.102 Y96.662 E.01574
G1 X82.762 Y96.292 E.01574
G1 X82.444 Y95.906 E.01568
G1 X81.956 Y95.222 E.02635
G1 X81.695 Y94.795 E.01568
G1 X81.456 Y94.355 E.01569
G1 X81.108 Y93.591 E.02635
G1 X80.933 Y93.122 E.01568
G1 X80.782 Y92.643 E.01574
G1 X80.656 Y92.157 E.01574
G1 X80.556 Y91.667 E.01568
G1 X80.446 Y90.834 E.02635
G1 X80.416 Y90.335 E.01569
G1 X80.412 Y89.833 E.01574
G1 X80.433 Y89.331 E.01574
G1 X80.482 Y88.831 E.01574
G1 X80.556 Y88.335 E.01574
G1 X80.656 Y87.843 E.01574
G1 X80.782 Y87.357 E.01574
G1 X80.932 Y86.88 E.01568
G1 X81.24 Y86.098 E.02635
G1 X81.455 Y85.646 E.01568
G1 X81.694 Y85.207 E.01569
G1 X82.146 Y84.497 E.02638
G1 X82.443 Y84.096 E.01565
G1 X82.761 Y83.71 E.01568
G1 X83.296 Y83.147 E.02434
G1 X83.722 Y83.211 F10800
; stop printing object Shape-Cylinder id:0 copy 0
M106 S84.15
;LAYER_CHANGE
;Z:0.4
;HEIGHT:0.2
;BEFORE_LAYER_CHANGE
G92 E0.0
;0.4


;WIPE_START
G1 F8640
G1 X83.709 Y82.762 E-.13054
G1 X84.097 Y82.442 E-.11593
G1 X84.499 Y82.144 E-.11564
G1 X84.918 Y81.867 E-.11594
G1 X85.351 Y81.612 E-.11593
G1 X85.794 Y81.381 E-.11551
G1 X85.995 Y81.294 E-.0505
;WIPE_END
G1 E-.04 F2100
G1 Z.6 F10800
;AFTER_LAYER_CHANGE
;0.4
; printing object Shape-Cylinder id:0 copy 0
G1 X86.448 Y81.333
G1 Z.4
G1 E.8 F2100
M204 S800
;TYPE:Perimeter
;WIDTH:0.45
G1 F900
G1 X87.266 Y81.04 E.02942
G1 X87.734 Y80.911 E.01642
G1 X88.213 Y80.804 E.0166
G1 X88.696 Y80.723 E.0166
G1 X89.178 Y80.669 E.01641
G1 X90.009 Y80.632 E.02815
G1 X90.49 Y80.645 E.0163
G1 X90.979 Y80.684 E.0166
G1 X91.465 Y80.748 E.0166
G1 X91.948 Y80.837 E.0166
G1 X92.425 Y80.951 E.0166
G1 X92.889 Y81.089 E.01641
G1 X93.66 Y81.377 E.02785
G1 X94.406 Y81.733 E.02796
G1 X94.825 Y81.97 E.0163
G1 X95.234 Y82.231 E.01641
G1 X95.9 Y82.724 E.02804
G1 X96.268 Y83.038 E.01641
G1 X96.624 Y83.376 E.0166
G1 X96.962 Y83.732 E.0166
G1 X97.28 Y84.105 E.0166
G1 X97.579 Y84.494 E.0166
G1 X97.853 Y84.893 E.01641
G1 X98.275 Y85.61 E.02815
G1 X98.49 Y86.041 E.0163
G1 X98.683 Y86.486 E.01641
G1 X98.96 Y87.266 E.02803
G1 X99.089 Y87.734 E.01641
G1 X99.194 Y88.207 E.01641
G1 X99.317 Y89.03 E.02815
G1 X99.355 Y89.51 E.0163
G1 X99.368 Y90 E.0166
G1 X99.355 Y90.49 E.0166
G1 X99.317 Y90.974 E.01641
G1 X99.194 Y91.796 E.02815
G1 X99.089 Y92.266 E.0163
G1 X98.958 Y92.739 E.0166
G1 X98.803 Y93.204 E.0166
G1 X98.623 Y93.66 E.0166
G1 X98.42 Y94.107 E.0166
G1 X98.196 Y94.537 E.01641
G1 X97.766 Y95.238 E.02785
G1 X97.276 Y95.899 E.02785
G1 X96.962 Y96.268 E.01641
G1 X96.628 Y96.62 E.01641
G1 X96.017 Y97.18 E.02803
G1 X95.638 Y97.481 E.01641
G1 X95.238 Y97.766 E.0166
G1 X94.825 Y98.03 E.0166
G1 X94.403 Y98.268 E.01641
G1 X93.652 Y98.626 E.02815
G1 X93.204 Y98.803 E.0163
G1 X92.739 Y98.958 E.0166
G1 X92.266 Y99.089 E.0166
G1 X91.793 Y99.194 E.01641
G1 X90.974 Y99.317 E.02804
G1 X90.49 Y99.355 E.01642
G1 X90 Y99.368 E.0166
G1 X89.51 Y99.355 E.0166
G1 X89.026 Y99.317 E.01641
G1 X88.207 Y99.194 E.02804
G1 X87.734 Y99.089 E.01641
G1 X87.261 Y98.958 E.0166
G1 X86.796 Y98.803 E.0166
G1 X86.345 Y98.625 E.01641
G1 X85.594 Y98.267 E.02815
G1 X85.175 Y98.03 E.0163
G1 X84.766 Y97.769 E.01641
G1 X84.098 Y97.274 E.02815
G1 X83.732 Y96.962 E.0163
G1 X83.376 Y96.624 E.0166
G1 X83.038 Y96.268 E.0166
G1 X82.724 Y95.899 E.01641
G1 X82.231 Y95.234 E.02803
G1 X81.97 Y94.825 E.01642
G1 X81.732 Y94.403 E.01641
G1 X81.374 Y93.652 E.02815
G1 X81.197 Y93.204 E.0163
G1 X81.042 Y92.739 E.0166
G1 X80.911 Y92.266 E.0166
G1 X80.806 Y91.793 E.01641
G1 X80.683 Y90.97 E.02815
G1 X80.645 Y90.49 E.0163
G1 X80.632 Y90 E.0166
G1 X80.645 Y89.51 E.0166
G1 X80.683 Y89.026 E.01641
G1 X80.806 Y88.207 E.02804
G1 X80.911 Y87.734 E.01641
G1 X81.042 Y87.261 E.0166
G1 X81.197 Y86.796 E.0166
G1 X81.375 Y86.345 E.01641
G1 X81.733 Y85.594 E.02815
G1 X81.97 Y85.175 E.0163
G1 X82.231 Y84.766 E.01641
G1 X82.724 Y84.1 E.02804
G1 X83.038 Y83.732 E.01641
G1 X83.376 Y83.376 E.0166
G1 X83.732 Y83.038 E.0166
M73 Q4 S10
G1 X84.101 Y82.724 E.01641
G1 X84.766 Y82.231 E.02803
G1 X85.175 Y81.97 E.01641
G1 X85.602 Y81.729 E.0166
G1 X86.393 Y81.357 E.02958
M204 S1000
G1 X85.919 Y81.119 F10800
M204 S800
;TYPE:External perimeter
M73 P4 R10
G1 F900
G1 X86.336 Y80.938 E.01541
G1 X87.144 Y80.652 E.029
G1 X87.635 Y80.515 E.01726
G1 X88.135 Y80.405 E.01732
G1 X88.64 Y80.32 E.01732
G1 X89.146 Y80.262 E.01726
G1 X90.005 Y80.225 E.02911
G1 X90.512 Y80.238 E.01714
G1 X91.022 Y80.279 E.01732
G1 X91.529 Y80.345 E.01732
G1 X92.032 Y80.439 E.01732
G1 X92.53 Y80.558 E.01732
G1 X93.019 Y80.703 E.01726
G1 X93.819 Y81.002 E.02893
G1 X94.594 Y81.372 E.02905
G1 X95.034 Y81.621 E.01714
G1 X95.464 Y81.895 E.01725
G1 X96.153 Y82.405 E.029
G1 X96.541 Y82.736 E.01725
G1 X96.912 Y83.088 E.01732
G1 X97.264 Y83.459 E.01732
G1 X97.597 Y83.848 E.01732
G1 X97.908 Y84.254 E.01732
G1 X98.197 Y84.675 E.01725
G1 X98.633 Y85.416 E.02912
G1 X98.859 Y85.869 E.01714
G1 X99.062 Y86.336 E.01726
G1 X99.348 Y87.144 E.029
G1 X99.485 Y87.635 E.01726
G1 X99.595 Y88.133 E.01725
G1 X99.722 Y88.984 E.02912
G1 X99.762 Y89.488 E.01714
G1 X99.775 Y90 E.01732
G1 X99.762 Y90.512 E.01732
G1 X99.722 Y91.02 E.01726
G1 X99.594 Y91.87 E.02912
G1 X99.485 Y92.365 E.01714
G1 X99.348 Y92.858 E.01732
G1 X99.185 Y93.343 E.01732
G1 X98.998 Y93.819 E.01732
G1 X98.786 Y94.285 E.01732
G1 X98.55 Y94.737 E.01726
G1 X98.104 Y95.466 E.02893
G1 X97.595 Y96.153 E.02893
G1 X97.264 Y96.541 E.01726
G1 X96.913 Y96.91 E.01726
G1 X96.282 Y97.489 E.029
G1 X95.883 Y97.807 E.01726
G1 X95.466 Y98.104 E.01732
G1 X95.034 Y98.379 E.01732
G1 X94.591 Y98.63 E.01726
G1 X93.814 Y99 E.02912
G1 X93.343 Y99.185 E.01714
G1 X92.858 Y99.348 E.01732
G1 X92.365 Y99.485 E.01732
G1 X91.867 Y99.595 E.01725
G1 X91.02 Y99.722 E.029
G1 X90.512 Y99.762 E.01726
G1 X90 Y99.775 E.01732
G1 X89.488 Y99.762 E.01732
G1 X88.98 Y99.722 E.01726
G1 X88.133 Y99.595 E.029
G1 X87.635 Y99.485 E.01726
G1 X87.142 Y99.348 E.01732
G1 X86.657 Y99.185 E.01732
G1 X86.183 Y98.999 E.01725
G1 X85.406 Y98.628 E.02912
G1 X84.966 Y98.379 E.01714
