; generated by PrusaSlicer 2.4.0+win64 on 2022-01-16 at 19:44:44 UTC

; 

; external perimeters extrusion width = 0.45mm
; perimeters extrusion width = 0.45mm
; infill extrusion width = 0.45mm
; solid infill extrusion width = 0.45mm
; top infill extrusion width = 0.40mm
; first layer extrusion width = 0.42mm

M73 P0 R11
M73 Q0 S11
M201 X1000 Y1000 Z200 E5000 ; sets maximum accelerations, mm/sec^2
M203 X200 Y200 Z12 E120 ; sets maximum feedrates, mm/sec
M204 P1250 R1250 T1250 ; sets acceleration (P, T) and retract acceleration (R), mm/sec^2
M205 X8.00 Y8.00 Z0.40 E4.50 ; sets the jerk limits, mm/sec
M205 S0 T0 ; sets the minimum extruding and travel feed rate, mm/sec
M107
;TYPE:Custom
M862.3 P "MK3S" ; printer model check
M862.1 P0.4 ; nozzle diameter check
M115 U3.10.1 ; tell printer latest fw version
G90 ; use absolute coordinates
M83 ; extruder relative mode
M104 S215 ; set extruder temp
M140 S60 ; set bed temp
M190 S60 ; wait for bed temp
M109 S215 ; wait for extruder temp
G28 W ; home all without mesh bed level
G80 ; mesh bed leveling
G1 Z0.2 F720
G1 Y-3 F1000 ; go outside print area
G92 E0
G1 X60 E9 F1000 ; intro line
G1 X100 E12.5 F1000 ; intro line
G92 E0
M221 S95

; Don't change E values below. Excessive value can damage the printer.
M907 E430 ; set extruder motor current
G21 ; set units to millimeters
G90 ; use absolute coordinates
M83 ; use relative distances for extrusion
M900 K0.05 ; Filament gcode LA 1.5
M900 K30 ; Filament gcode LA 1.0
M107
;LAYER_CHANGE
;Z:0.2
;HEIGHT:0.2
;BEFORE_LAYER_CHANGE
G92 E0.0
;0.2


G1 E-.8 F2100
G1 Z.4 F720
;AFTER_LAYER_CHANGE
;0.2
G1 X68.001 Y75.239 F10800
G1 Z.2 F720
M73 P1 R11
M73 Q1 S11
G1 E.8 F2100
M204 S800
;TYPE:Skirt/Brim
;WIDTH:0.42
G1 F1200
G1 X69.297 Y74.915 E.04186
G1 X94.297 Y74.915 E.78386
G1 X95.714 Y75.308 E.04612
G1 X96.727 Y76.374 E.04612
G1 X97.051 Y77.67 E.04186
G1 X97.051 Y102.67 E.78386
G1 X96.658 Y104.087 E.04612
G1 X95.592 Y105.1 E.04612
G1 X94.297 Y105.424 E.04186
G1 X69.297 Y105.424 E.78386
G1 X67.879 Y105.031 E.04612
G1 X66.866 Y103.965 E.04612
G1 X66.542 Y102.67 E.04186
G1 X66.542 Y77.67 E.78386
G1 X66.935 Y76.252 E.04612
G1 X67.958 Y75.28 E.04424
M204 S1000
G1 X68.224 Y75.598 F10800
M204 S800
G1 F1200
G1 X68.357 Y75.486 E.00544
G1 X69.297 Y75.293 E.03008
G1 X94.297 Y75.293 E.78386
G1 X95.604 Y75.684 E.04278
M73 P2 R11
M73 Q2 S11
G1 X96.48 Y76.73 E.04278
G1 X96.674 Y77.67 E.03008
G1 X96.674 Y102.67 E.78386
G1 X96.282 Y103.977 E.04278
G1 X95.236 Y104.853 E.04278
G1 X94.297 Y105.047 E.03008
G1 X69.297 Y105.047 E.78386
G1 X67.989 Y104.655 E.04278
G1 X67.113 Y103.609 E.04278
G1 X66.919 Y102.67 E.03008
G1 X66.919 Y77.67 E.78386
G1 X67.311 Y76.363 E.04278
M73 P2 R10
G1 X68.178 Y75.636 E.03546
M204 S1000
; printing object Merged id:0 copy 0
G1 E-.8 F2100
G1 Z.6 F720
G1 X70.484 Y78.457 F10800
G1 Z.2 F720
G1 E.8 F2100
M204 S800
;TYPE:Perimeter
G1 F1200
G1 X93.509 Y78.457 E.72196
G1 X93.509 Y101.883 E.7345
M73 Q3 S10
G1 X70.084 Y101.883 E.7345
M73 P3 R10
G1 X70.084 Y78.457 E.7345
G1 X70.424 Y78.457 E.01066
M204 S1000
G1 X69.707 Y78.08 F10800
M204 S800
;TYPE:External perimeter
G1 F1200
G1 X93.887 Y78.08 E.75815
G1 X93.887 Y102.26 E.75815
G1 X69.707 Y102.26 E.75815
G1 X69.707 Y78.14 E.75627
M204 S1000
M73 P4 R10
M73 Q4 S10
G1 X70.093 Y78.183 F10800
G1 E-.8 F2100
G1 Z.6 F720
G1 X92.633 Y78.57 F10800
G1 Z.2 F720
G1 E.8 F2100
M204 S800
;TYPE:Solid infill
;WIDTH:0.42065
G1 F1200
G1 X93.227 Y79.164 E.02638
G1 X93.227 Y79.698 E.01678
G1 X92.268 Y78.739 E.04257
G1 X91.734 Y78.739 E.01678
G1 X93.227 Y80.232 E.0663
G1 X93.227 Y80.766 E.01678
G1 X91.2 Y78.739 E.09003
G1 X90.666 Y78.739 E.01678
G1 X93.227 Y81.301 E.11376
G1 X93.227 Y81.835 E.01678
G1 X90.131 Y78.739 E.13748
G1 X89.597 Y78.739 E.01678
G1 X93.227 Y82.369 E.16121
G1 X93.227 Y82.903 E.01678
G1 X89.063 Y78.739 E.18494
G1 X88.529 Y78.739 E.01678
G1 X93.227 Y83.437 E.20867
G1 X93.227 Y83.971 E.01678
G1 X87.995 Y78.739 E.2324
G1 X87.46 Y78.739 E.01678
G1 X93.227 Y84.506 E.25612
G1 X93.227 Y85.04 E.01678
G1 X86.926 Y78.739 E.27985
G1 X86.392 Y78.739 E.01678
G1 X93.227 Y85.574 E.30358
G1 X93.227 Y86.108 E.01678
G1 X85.858 Y78.739 E.32731
G1 X85.324 Y78.739 E.01678
G1 X93.227 Y86.642 E.35103
G1 X93.227 Y87.177 E.01678
M73 P5 R10
M73 Q5 S10
G1 X84.789 Y78.739 E.37476
G1 X84.255 Y78.739 E.01678
G1 X93.227 Y87.711 E.39849
G1 X93.227 Y88.245 E.01678
G1 X83.721 Y78.739 E.42222
G1 X83.187 Y78.739 E.01678
G1 X93.227 Y88.779 E.44595
G1 X93.227 Y89.313 E.01678
G1 X82.653 Y78.739 E.46967
G1 X82.119 Y78.739 E.01678
G1 X93.227 Y89.848 E.4934
G1 X93.227 Y90.382 E.01678
G1 X81.584 Y78.739 E.51713
G1 X81.05 Y78.739 E.01678
G1 X93.227 Y90.916 E.54086
G1 X93.227 Y91.45 E.01678
G1 X80.516 Y78.739 E.56458
G1 X79.982 Y78.739 E.01678
M73 P6 R10
M73 Q6 S10
G1 X93.227 Y91.984 E.58831
G1 X93.227 Y92.519 E.01678
G1 X79.448 Y78.739 E.61204
G1 X78.913 Y78.739 E.01678
G1 X93.227 Y93.053 E.63577
G1 X93.227 Y93.587 E.01678
G1 X78.379 Y78.739 E.6595
G1 X77.845 Y78.739 E.01678
G1 X93.227 Y94.121 E.68322
G1 X93.227 Y94.655 E.01678
G1 X77.311 Y78.739 E.70695
G1 X76.777 Y78.739 E.01678
M73 P7 R10
M73 Q7 S10
G1 X93.227 Y95.189 E.73068
G1 X93.227 Y95.724 E.01678
G1 X76.242 Y78.739 E.75441
G1 X75.708 Y78.739 E.01678
G1 X93.227 Y96.258 E.77813
G1 X93.227 Y96.792 E.01678
G1 X75.174 Y78.739 E.80186
G1 X74.64 Y78.739 E.01678
G1 X93.227 Y97.326 E.82559
G1 X93.227 Y97.86 E.01678
M73 Q8 S10
G1 X74.106 Y78.739 E.84932
G1 X73.571 Y78.739 E.01678
M73 P8 R10
G1 X93.227 Y98.395 E.87305
G1 X93.227 Y98.929 E.01678
G1 X73.037 Y78.739 E.89677
G1 X72.503 Y78.739 E.01678
G1 X93.227 Y99.463 E.9205
G1 X93.227 Y99.997 E.01678
G1 X71.969 Y78.739 E.94423
G1 X71.435 Y78.739 E.01678
M73 P9 R10
M73 Q9 S10
G1 X93.227 Y100.531 E.96796
G1 X93.227 Y101.066 E.01678
G1 X70.901 Y78.739 E.99168
G1 X70.366 Y78.74 E.01678
G1 X93.227 Y101.6 E1.01541
G1 X92.692 Y101.6 E.01678
G1 X70.366 Y79.274 E.99168
G1 X70.366 Y79.808 E.01678
M73 P10 R10
M73 Q10 S10
G1 X92.158 Y101.6 E.96795
G1 X91.624 Y101.6 E.01678
G1 X70.366 Y80.342 E.94422
G1 X70.366 Y80.876 E.01678
G1 X91.09 Y101.6 E.9205
G1 X90.556 Y101.6 E.01678
G1 X70.366 Y81.41 E.89677
G1 X70.366 Y81.945 E.01678
G1 X90.021 Y101.6 E.87304
G1 X89.487 Y101.6 E.01678
M73 P11 R10
M73 Q11 S10
G1 X70.366 Y82.479 E.84931
G1 X70.366 Y83.013 E.01678
G1 X88.953 Y101.6 E.82559
G1 X88.419 Y101.6 E.01678
G1 X70.366 Y83.547 E.80186
G1 X70.366 Y84.081 E.01678
M73 P11 R9
G1 X87.885 Y101.6 E.77813
M73 Q11 S9
G1 X87.35 Y101.6 E.01678
G1 X70.366 Y84.616 E.7544
G1 X70.366 Y85.15 E.01678
M73 P12 R9
M73 Q12 S9
G1 X86.816 Y101.6 E.73067
G1 X86.282 Y101.6 E.01678
G1 X70.366 Y85.684 E.70695
G1 X70.366 Y86.218 E.01678
G1 X85.748 Y101.6 E.68322
G1 X85.214 Y101.6 E.01678
G1 X70.366 Y86.752 E.65949
G1 X70.366 Y87.287 E.01678
G1 X84.68 Y101.6 E.63576
G1 X84.145 Y101.6 E.01678
G1 X70.366 Y87.821 E.61204
G1 X70.366 Y88.355 E.01678
M73 P13 R9
M73 Q13 S9
G1 X83.611 Y101.6 E.58831
G1 X83.077 Y101.6 E.01678
G1 X70.366 Y88.889 E.56458
G1 X70.366 Y89.423 E.01678
G1 X82.543 Y101.6 E.54085
G1 X82.009 Y101.6 E.01678
G1 X70.366 Y89.958 E.51712
G1 X70.366 Y90.492 E.01678
G1 X81.474 Y101.6 E.4934
G1 X80.94 Y101.6 E.01678
G1 X70.366 Y91.026 E.46967
G1 X70.366 Y91.56 E.01678
G1 X80.406 Y101.6 E.44594
G1 X79.872 Y101.6 E.01678
G1 X70.366 Y92.094 E.42221
G1 X70.366 Y92.628 E.01678
M73 P14 R9
M73 Q14 S9
G1 X79.338 Y101.6 E.39849
G1 X78.803 Y101.6 E.01678
G1 X70.366 Y93.163 E.37476
G1 X70.366 Y93.697 E.01678
G1 X78.269 Y101.6 E.35103
G1 X77.735 Y101.6 E.01678
G1 X70.366 Y94.231 E.3273
G1 X70.366 Y94.765 E.01678
G1 X77.201 Y101.6 E.30357
G1 X76.667 Y101.6 E.01678
G1 X70.366 Y95.299 E.27985
G1 X70.366 Y95.834 E.01678
G1 X76.132 Y101.6 E.25612
G1 X75.598 Y101.6 E.01678
G1 X70.366 Y96.368 E.23239
G1 X70.366 Y96.902 E.01678
G1 X75.064 Y101.6 E.20866
G1 X74.53 Y101.6 E.01678
G1 X70.366 Y97.436 E.18494
G1 X70.366 Y97.97 E.01678
G1 X73.996 Y101.6 E.16121
G1 X73.462 Y101.6 E.01678
G1 X70.366 Y98.505 E.13748
G1 X70.366 Y99.039 E.01678
G1 X72.927 Y101.6 E.11375
G1 X72.393 Y101.6 E.01678
G1 X70.366 Y99.573 E.09002
G1 X70.366 Y100.107 E.01678
G1 X71.859 Y101.6 E.0663
G1 X71.325 Y101.6 E.01678
M73 Q15 S9
G1 X70.366 Y100.641 E.04257
G1 X70.366 Y101.176 E.01678
M73 P15 R9
G1 X70.96 Y101.769 E.02638
M204 S1000
; stop printing object Merged id:0 copy 0
M106 S84.15
;LAYER_CHANGE
;Z:0.4
;HEIGHT:0.2
;BEFORE_LAYER_CHANGE
G92 E0.0
;0.4


G1 E-.8 F2100
G1 Z.6 F720
;AFTER_LAYER_CHANGE
;0.4
G1 X70.96 Y105.424 F10800
G1 Z.4 F720
G1 E.8 F2100
;TYPE:Skirt/Brim
;WIDTH:0.42
G1 F1826
G1 X69.297 Y105.424 E.05217
G1 X67.879 Y105.031 E.04612
G1 X66.866 Y103.965 E.04612
G1 X66.542 Y102.67 E.04186
G1 X66.542 Y77.67 E.78386
G1 X66.935 Y76.252 E.04612
G1 X68.001 Y75.239 E.04612
G1 X69.297 Y74.915 E.04186
G1 X94.297 Y74.915 E.78386
G1 X95.714 Y75.308 E.04612
G1 X96.727 Y76.374 E.04612
G1 X97.051 Y77.67 E.04186
G1 X97.051 Y102.67 E.78386
G1 X96.658 Y104.087 E.04612
G1 X95.592 Y105.1 E.04612
G1 X94.297 Y105.424 E.04186
G1 X71.02 Y105.424 E.72981
G1 X71.02 Y105.047 F10800
G1 F1826
G1 X69.297 Y105.047 E.05405
G1 X67.989 Y104.655 E.04278
G1 X67.113 Y103.609 E.04278
G1 X66.919 Y102.67 E.03008
G1 X66.919 Y77.67 E.78386
G1 X67.311 Y76.363 E.04278
G1 X68.357 Y75.486 E.04278
G1 X69.297 Y75.293 E.03008
G1 X94.297 Y75.293 E.78386
G1 X95.604 Y75.684 E.04278
G1 X96.48 Y76.73 E.04278
G1 X96.674 Y77.67 E.03008
G1 X96.674 Y102.67 E.78386
G1 X96.282 Y103.977 E.04278
M73 P16 R9
M73 Q16 S9
G1 X95.236 Y104.853 E.04278
G1 X94.297 Y105.047 E.03008
G1 X71.08 Y105.047 E.72793
; printing object Merged id:0 copy 0
G1 E-.8 F2100
G1 Z.8 F720
G1 X86.058 Y97.481 F10800
G1 Z.4 F720
G1 E.8 F2100
M204 S800
;TYPE:Perimeter
;WIDTH:0.45
G1 F1500
G1 X86.092 Y96.845 E.02156
G1 X89.937 Y97.059 E.13035
G1 X89.937 Y95.879 E.03996
G1 X90.98 Y95.881 E.0353
G1 X90.98 Y96.118 E.00801
G1 X90.682 Y96.118 E.01009
G1 X90.674 Y97.838 E.05822
G1 X86.294 Y97.594 E.14851
G1 X86.277 Y97.894 E.01017
G1 X86.037 Y97.881 E.00816
G1 X86.055 Y97.541 E.01151
M204 S1000
G1 X85.608 Y98.265 F10800
M204 S800
;TYPE:External perimeter
G1 F1500
G1 X85.707 Y96.416 E.06266
G1 X89.53 Y96.629 E.12959
G1 X89.53 Y95.471 E.03921
G1 X91.387 Y95.475 E.06286
G1 X91.387 Y96.525 E.03553
G1 X91.087 Y96.525 E.01015
G1 X91.08 Y98.025 E.05077
G1 X91.033 Y98.138 E.00416
G1 X90.941 Y98.218 E.00412
G1 X90.781 Y98.252 E.00551
G1 X86.678 Y98.023 E.13911
G1 X86.662 Y98.323 E.01017
G1 X85.668 Y98.268 E.03368
M204 S1000
G1 X85.795 Y97.911 F10800
G1 E-.8 F2100
G1 Z.8 F720
G1 X89.675 Y97.66 F10800
G1 Z.4 F720
G1 E.8 F2100
;TYPE:Solid infill
;WIDTH:0.499218
G1 F1826
G1 X90.373 Y96.962 E.03743
G1 X90.376 Y96.314 E.02459
G1 X90.059 Y96.631 E.01698
G1 X89.531 Y97.159 F10800
G1 F1826
G1 X89.238 Y97.452 E.01574
G1 X88.626 Y97.418 E.02323
G1 X88.746 Y97.299 E.00641
G1 X88.135 Y97.265 E.02323
G1 X88.015 Y97.384 E.00641
G1 X87.404 Y97.35 E.02323
G1 X87.523 Y97.231 E.00641
G1 X86.912 Y97.197 E.02323
G1 X86.619 Y97.49 E.01573
G1 E-.8 F2100
G1 Z.8 F720
G1 X89.937 Y83.723 F10800
G1 Z.4 F720
G1 E.8 F2100
M204 S800
;TYPE:Perimeter
;WIDTH:0.45
G1 F1500
G1 X89.937 Y82.94 E.02647
G1 X86.092 Y83.154 E.13035
G1 X86.037 Y82.12 E.03508
G1 X86.277 Y82.107 E.00816
G1 X86.294 Y82.405 E.01013
G1 X90.676 Y82.163 E.14856
G1 X90.681 Y83.882 E.05819
G1 X90.98 Y83.882 E.01013
G1 X90.98 Y84.123 E.00815
G1 X89.937 Y84.123 E.0353
G1 X89.937 Y83.783 E.01151
M204 S1000
G1 X89.53 Y84.53 F10800
M204 S800
;TYPE:External perimeter
G1 F1500
G1 X89.53 Y83.371 E.03922
G1 X85.707 Y83.583 E.12959
G1 X85.608 Y81.735 E.06266
G1 X86.662 Y81.676 E.03571
G1 X86.678 Y81.976 E.01017
G1 X90.802 Y81.748 E.13982
G1 X90.949 Y81.787 E.00512
G1 X91.04 Y81.879 E.00441
G1 X91.083 Y81.998 E.00427
G1 X91.087 Y83.475 E.04999
G1 X91.387 Y83.475 E.01016
G1 X91.387 Y84.53 E.0357
G1 X89.59 Y84.53 E.06083
M204 S1000
G1 X89.668 Y84.154 F10800
G1 X90.059 Y83.652
;TYPE:Solid infill
;WIDTH:0.461924
G1 F1826
G1 X90.374 Y83.337 E.01551
G1 X90.372 Y82.746 E.02059
G1 X90.242 Y82.876 E.00641
G1 X90.242 Y82.618 E.00901
G1 X89.889 Y82.637 E.01234
G1 X90.021 Y82.505 E.00654
G1 X89.394 Y82.539 E.02189
G1 X89.261 Y82.672 E.00655
G1 X88.634 Y82.707 E.02189
G1 X88.767 Y82.574 E.00655
G1 X88.139 Y82.609 E.02189
G1 X88.006 Y82.742 E.00656
G1 X87.379 Y82.777 E.02189
G1 X87.512 Y82.644 E.00657
G1 X86.885 Y82.678 E.02189
G1 X86.557 Y83.006 E.01615
G1 E-.8 F2100
G1 Z.8 F720
M73 Q17 S9
G1 X72.945 Y83.899 F10800
M73 P17 R9
G1 Z.4 F720
G1 E.8 F2100
M204 S800
;TYPE:Perimeter
;WIDTH:0.45
G1 F1500
G1 X72.944 Y85.46 E.05283
G1 X71.908 Y85.445 E.03509
G1 X71.907 Y85.052 E.01331
G1 X72.206 Y85.055 E.01009
G1 X72.211 Y83.188 E.06322
G1 X75.806 Y82.988 E.12187
G1 X75.789 Y82.688 E.01018
G1 X76.024 Y82.675 E.00797
G1 X76.083 Y83.71 E.0351
G1 X72.99 Y83.882 E.10485
M204 S1000
G1 X73.352 Y84.27 F10800
M204 S800
;TYPE:External perimeter
G1 F1500
G1 X73.351 Y85.873 E.05428
G1 X71.501 Y85.847 E.06265
G1 X71.5 Y84.641 E.04082
G1 X71.8 Y84.644 E.01014
G1 X71.805 Y83.036 E.05442
G1 X71.838 Y82.934 E.00364
G1 X71.916 Y82.844 E.00405
G1 X72.074 Y82.788 E.00567
G1 X75.376 Y82.605 E.11195
G1 X75.359 Y82.304 E.01018
G1 X76.408 Y82.246 E.03554
G1 X76.512 Y84.094 E.06266
G1 X73.412 Y84.266 E.1051
M204 S1000
G1 X72.959 Y84.347 F10800
G1 E-.8 F2100
G1 Z.8 F720
G1 X75.462 Y83.13 F10800
G1 Z.4 F720
G1 E.8 F2100
;TYPE:Solid infill
;WIDTH:0.513492
G1 F1826
G1 X75.134 Y83.457 E.01812
G1 X74.43 Y83.496 E.02761
G1 X74.563 Y83.363 E.00737
G1 X73.858 Y83.402 E.02761
G1 X73.531 Y83.73 E.01812
G1 E-.8 F2100
G1 Z.8 F720
G1 X72.822 Y84.438 F10800
G1 Z.4 F720
G1 E.8 F2100
G1 F1826
G1 X72.512 Y84.749 E.01719
G1 X72.514 Y84.081 E.02612
G1 X72.639 Y83.955 E.00695
G1 X72.64 Y83.596 E.01408
G1 X73.021 Y83.574 E.01493
G1 X73.348 Y83.247 E.01811
G1 E-.8 F2100
G1 Z.8 F720
G1 X72.945 Y94.939 F10800
G1 Z.4 F720
G1 E.8 F2100
M204 S800
;TYPE:Perimeter
;WIDTH:0.45
G1 F1500
G1 X72.944 Y96.115 E.0398
G1 X76.083 Y96.289 E.10638
G1 X76.024 Y97.324 E.0351
G1 X75.789 Y97.311 E.00797
G1 X75.806 Y97.011 E.01017
G1 X72.21 Y96.811 E.12193
G1 X72.206 Y94.944 E.06319
G1 X71.907 Y94.947 E.01012
G1 X71.908 Y94.554 E.01331
G1 X72.945 Y94.539 E.03511
G1 X72.945 Y94.879 E.01151
M204 S1000
G1 X73.352 Y94.126 F10800
M204 S800
;TYPE:External perimeter
G1 F1500
G1 X73.352 Y95.73 E.05428
G1 X76.512 Y95.905 E.10714
G1 X76.408 Y97.753 E.06266
G1 X75.359 Y97.695 E.03554
G1 X75.376 Y97.395 E.01018
G1 X72.056 Y97.21 E.11256
G1 X71.937 Y97.171 E.00426
G1 X71.851 Y97.091 E.00396
G1 X71.803 Y96.953 E.00495
G1 X71.8 Y95.356 E.05407
G1 X71.5 Y95.359 E.01015
G1 X71.501 Y94.153 E.04082
G1 X73.292 Y94.127 E.06064
M204 S1000
G1 X73.223 Y94.505 F10800
G1 E-.8 F2100
G1 Z.8 F720
G1 X75.592 Y96.384 F10800
G1 Z.4 F720
G1 E.8 F2100
;TYPE:Solid infill
;WIDTH:0.460413
G1 F1826
G1 X75.299 Y96.677 E.01439
G1 X74.74 Y96.646 E.01945
G1 X74.859 Y96.527 E.00585
G1 X74.3 Y96.496 E.01945
G1 X74.181 Y96.615 E.00584
G1 X73.621 Y96.584 E.01945
G1 X73.74 Y96.465 E.00583
G1 X73.181 Y96.434 E.01945
G1 X73.062 Y96.553 E.00583
G1 X72.514 Y96.522 E.01905
G1 X72.639 Y96.385 E.00643
G1 X72.639 Y95.795 E.0205
G1 X72.513 Y95.921 E.00618
G1 X72.512 Y95.331 E.02046
G1 X72.823 Y95.021 E.01523
; stop printing object Merged id:0 copy 0
M106 S170.85
;LAYER_CHANGE
;Z:0.6
;HEIGHT:0.2
;BEFORE_LAYER_CHANGE
G92 E0.0
;0.6


G1 E-.8 F2100
G1 Z.8 F720
;AFTER_LAYER_CHANGE
;0.6
G1 X66.542 Y95.021 F10800
G1 Z.6 F720
G1 E.8 F2100
;TYPE:Skirt/Brim
;WIDTH:0.42
G1 F1883
G1 X66.542 Y77.67 E.54404
G1 X66.935 Y76.252 E.04612
G1 X68.001 Y75.239 E.04612
G1 X69.297 Y74.915 E.04186
G1 X94.297 Y74.915 E.78386
G1 X95.714 Y75.308 E.04612
M73 P18 R9
M73 Q18 S9
G1 X96.727 Y76.374 E.04612
G1 X97.051 Y77.67 E.04186
G1 X97.051 Y102.67 E.78386
G1 X96.658 Y104.087 E.04612
G1 X95.592 Y105.1 E.04612
G1 X94.297 Y105.424 E.04186
G1 X69.297 Y105.424 E.78386
G1 X67.879 Y105.031 E.04612
G1 X66.866 Y103.965 E.04612
G1 X66.542 Y102.67 E.04186
G1 X66.542 Y95.081 E.23793
G1 X66.919 Y95.081 F10800
G1 F1883
G1 X66.919 Y77.67 E.54593
G1 X67.311 Y76.363 E.04278
G1 X68.357 Y75.486 E.04278
G1 X69.297 Y75.293 E.03008
G1 X94.297 Y75.293 E.78386
G1 X95.604 Y75.684 E.04278
G1 X96.48 Y76.73 E.04278
G1 X96.674 Y77.67 E.03008
G1 X96.674 Y102.67 E.78386
