; generated by PrusaSlicer 2.4.0-beta4+win64 on 2021-12-21 at 07:04:25 UTC

; 

; external perimeters extrusion width = 0.45mm
; perimeters extrusion width = 0.45mm
; infill extrusion width = 0.45mm
; solid infill extrusion width = 0.45mm
; top infill extrusion width = 0.40mm
; first layer extrusion width = 0.42mm

M73 P0 R6
M73 Q0 S6
M201 X1000 Y1000 Z200 E5000 ; sets maximum accelerations, mm/sec^2
M203 X200 Y200 Z12 E120 ; sets maximum feedrates, mm/sec
M204 P1250 R1250 T1250 ; sets acceleration (P, T) and retract acceleration (R), mm/sec^2
M205 X8.00 Y8.00 Z0.40 E4.50 ; sets the jerk limits, mm/sec
M205 S0 T0 ; sets the minimum extruding and travel feed rate, mm/sec
M107
;TYPE:Custom
M862.3 P "MK3S" ; printer model check
M862.1 P0.4 ; nozzle diameter check
M115 U3.10.0 ; tell printer latest fw version
G90 ; use absolute coordinates
M83 ; extruder relative mode
M104 S215 ; set extruder temp
M140 S60 ; set bed temp
M190 S60 ; wait for bed temp
M109 S215 ; wait for extruder temp
G28 W ; home all without mesh bed level
G80 ; mesh bed leveling
G1 Y-3.0 F1000.0 ; go outside print area
G92 E0.0
G1 X60.0 E9.0 F1000.0 ; intro line
G1 X100.0 E12.5 F1000.0 ; intro line
G92 E0.0
M221 S95

; Don't change E values below. Excessive value can damage the printer.
M907 E430 ; set extruder motor current
G21 ; set units to millimeters
G90 ; use absolute coordinates
M83 ; use relative distances for extrusion
M900 K0.05 ; Filament gcode LA 1.5
M900 K30 ; Filament gcode LA 1.0
M107
;LAYER_CHANGE
;Z:0.2
;HEIGHT:0.2
;BEFORE_LAYER_CHANGE
G92 E0.0
;0.2


M73 P1 R5
M73 Q1 S6
G1 E-.8 F2100
M73 Q1 S5
G1 Z.4 F10800
;AFTER_LAYER_CHANGE
;0.2
G1 X107.639 Y98.583
G1 Z.2
M73 Q2 S5
G1 E.8 F2100
M204 S1000
;TYPE:Skirt/Brim
;WIDTH:0.42
G1 F1200
G1 X108.705 Y97.569 E.04612
G1 X110 Y97.246 E.04186
G1 X140 Y97.246 E.94063
G1 X141.417 Y97.639 E.04612
M73 P2 R5
G1 X142.431 Y98.705 E.04612
G1 X142.754 Y100 E.04186
G1 X142.754 Y110 E.31354
G1 X142.361 Y111.417 E.04612
G1 X141.295 Y112.431 E.04612
G1 X140 Y112.754 E.04186
G1 X110 Y112.754 E.94063
G1 X108.583 Y112.361 E.04612
M73 P3 R5
M73 Q3 S5
G1 X107.569 Y111.295 E.04612
G1 X107.246 Y110 E.04186
G1 X107.246 Y100 E.31354
G1 X107.623 Y98.64 E.04424
G1 X107.997 Y98.752 F10800
G1 F1200
G1 X108.015 Y98.693 E.00195
G1 X109.06 Y97.817 E.04278
G1 X110 Y97.623 E.03008
G1 X140 Y97.623 E.94063
G1 X141.307 Y98.015 E.04278
G1 X142.183 Y99.06 E.04278
G1 X142.377 Y100 E.03008
G1 X142.377 Y110 E.31354
G1 X141.985 Y111.307 E.04278
M73 Q4 S5
G1 X140.94 Y112.183 E.04278
G1 X140 Y112.377 E.03008
G1 X110 Y112.377 E.94063
G1 X108.693 Y111.985 E.04278
M73 P4 R5
G1 X107.817 Y110.94 E.04278
G1 X107.623 Y110 E.03008
G1 X107.623 Y100 E.31354
G1 X107.979 Y98.81 E.03895
; printing object RetractionTest.stl id:0 copy 0
;WIPE_START
G1 F8640
G1 X108.015 Y98.693 E-.0282
G1 X109.06 Y97.817 E-.31505
G1 X110 Y97.623 E-.22155
G1 X110.845 Y97.623 E-.1952
;WIPE_END
G1 E-.04 F2100
G1 Z.6 F10800
G1 X111.187 Y100.787
G1 Z.2
G1 E.8 F2100
;TYPE:Perimeter
G1 F1200
G1 X139.213 Y100.787 E.87873
G1 X139.213 Y109.213 E.26419
M73 P5 R5
M73 Q5 S5
G1 X110.787 Y109.213 E.89127
G1 X110.787 Y100.787 E.26419
G1 X111.127 Y100.787 E.01066
G1 X110.41 Y100.41 F10800
;TYPE:External perimeter
G1 F1200
G1 X139.59 Y100.41 E.91492
G1 X139.59 Y109.59 E.28783
M73 P6 R5
M73 Q6 S5
G1 X110.41 Y109.59 E.91492
G1 X110.41 Y100.47 E.28595
G1 X110.808 Y100.451 F10800
;WIPE_START
G1 F8640
G1 X113.701 Y100.463 E-.76
;WIPE_END
G1 E-.04 F2100
G1 Z.6 F10800
G1 X138.333 Y100.9
G1 Z.2
M73 Q7 S5
G1 E.8 F2100
;TYPE:Solid infill
;WIDTH:0.422206
G1 F1200
G1 X138.93 Y101.497 E.02664
G1 X138.93 Y102.034 E.01692
M73 P7 R5
G1 X137.966 Y101.07 E.04299
G1 X137.43 Y101.07 E.01692
G1 X138.93 Y102.57 E.06692
G1 X138.93 Y103.107 E.01692
G1 X136.893 Y101.07 E.09084
G1 X136.357 Y101.07 E.01692
G1 X138.93 Y103.643 E.11477
G1 X138.93 Y104.179 E.01692
G1 X135.821 Y101.07 E.13869
G1 X135.284 Y101.07 E.01692
G1 X138.93 Y104.716 E.16261
G1 X138.93 Y105.252 E.01692
G1 X134.748 Y101.07 E.18654
G1 X134.211 Y101.07 E.01692
G1 X138.93 Y105.789 E.21046
G1 X138.93 Y106.325 E.01692
G1 X133.675 Y101.07 E.23438
G1 X133.139 Y101.07 E.01692
G1 X138.93 Y106.861 E.25831
G1 X138.93 Y107.398 E.01692
G1 X132.602 Y101.07 E.28223
G1 X132.066 Y101.07 E.01692
G1 X138.93 Y107.934 E.30615
G1 X138.93 Y108.471 E.01692
M73 P8 R5
M73 Q8 S5
G1 X131.529 Y101.07 E.33008
G1 X130.993 Y101.07 E.01692
G1 X138.853 Y108.93 E.35058
G1 X138.317 Y108.93 E.01692
G1 X130.457 Y101.07 E.35058
G1 X129.92 Y101.07 E.01692
G1 X137.781 Y108.93 E.35058
G1 X137.244 Y108.93 E.01692
G1 X129.384 Y101.07 E.35058
G1 X128.847 Y101.07 E.01692
G1 X136.708 Y108.93 E.35058
G1 X136.171 Y108.93 E.01692
M73 P9 R5
M73 Q9 S5
G1 X128.311 Y101.07 E.35058
G1 X127.775 Y101.07 E.01692
G1 X135.635 Y108.93 E.35058
G1 X135.099 Y108.93 E.01692
G1 X127.238 Y101.07 E.35058
G1 X126.702 Y101.07 E.01692
G1 X134.562 Y108.93 E.35058
G1 X134.026 Y108.93 E.01692
G1 X126.166 Y101.07 E.35058
G1 X125.629 Y101.07 E.01692
G1 X133.489 Y108.93 E.35058
G1 X132.953 Y108.93 E.01692
M73 Q10 S5
G1 X125.093 Y101.07 E.35058
M73 P10 R5
G1 X124.556 Y101.07 E.01692
G1 X132.417 Y108.93 E.35058
G1 X131.88 Y108.93 E.01692
G1 X124.02 Y101.07 E.35058
G1 X123.484 Y101.07 E.01692
G1 X131.344 Y108.93 E.35058
G1 X130.807 Y108.93 E.01692
G1 X122.947 Y101.07 E.35058
G1 X122.411 Y101.07 E.01692
G1 X130.271 Y108.93 E.35058
G1 X129.735 Y108.93 E.01692
M73 Q11 S5
G1 X121.874 Y101.07 E.35058
G1 X121.338 Y101.07 E.01692
M73 P11 R5
G1 X129.198 Y108.93 E.35058
G1 X128.662 Y108.93 E.01692
G1 X120.802 Y101.07 E.35058
G1 X120.265 Y101.07 E.01692
G1 X128.125 Y108.93 E.35058
G1 X127.589 Y108.93 E.01692
G1 X119.729 Y101.07 E.35058
G1 X119.192 Y101.07 E.01692
G1 X127.053 Y108.93 E.35058
G1 X126.516 Y108.93 E.01692
M73 Q12 S5
G1 X118.656 Y101.07 E.35058
G1 X118.12 Y101.07 E.01692
M73 P12 R5
G1 X125.98 Y108.93 E.35058
G1 X125.444 Y108.93 E.01692
G1 X117.583 Y101.07 E.35058
G1 X117.047 Y101.07 E.01692
G1 X124.907 Y108.93 E.35058
G1 X124.371 Y108.93 E.01692
G1 X116.51 Y101.07 E.35058
G1 X115.974 Y101.07 E.01692
G1 X123.834 Y108.93 E.35058
G1 X123.298 Y108.93 E.01692
G1 X115.438 Y101.07 E.35058
G1 X114.901 Y101.07 E.01692
M73 P13 R5
M73 Q13 S5
G1 X122.762 Y108.93 E.35058
G1 X122.225 Y108.93 E.01692
G1 X114.365 Y101.07 E.35058
G1 X113.829 Y101.07 E.01692
G1 X121.689 Y108.93 E.35058
G1 X121.152 Y108.93 E.01692
G1 X113.292 Y101.07 E.35058
G1 X112.756 Y101.07 E.01692
G1 X120.616 Y108.93 E.35058
G1 X120.08 Y108.93 E.01692
G1 X112.219 Y101.07 E.35058
G1 X111.683 Y101.07 E.01692
M73 P14 R5
M73 Q14 S5
G1 X119.543 Y108.93 E.35058
G1 X119.007 Y108.93 E.01692
G1 X111.147 Y101.07 E.35058
G1 X111.07 Y101.07 E.00242
G1 X111.07 Y101.53 E.0145
G1 X118.47 Y108.93 E.33007
G1 X117.934 Y108.93 E.01692
G1 X111.07 Y102.066 E.30615
G1 X111.07 Y102.602 E.01692
G1 X117.398 Y108.93 E.28223
G1 X116.861 Y108.93 E.01692
G1 X111.07 Y103.139 E.2583
G1 X111.07 Y103.675 E.01692
M73 Q15 S5
G1 X116.325 Y108.93 E.23438
G1 X115.788 Y108.93 E.01692
M73 P15 R5
G1 X111.07 Y104.212 E.21046
G1 X111.07 Y104.748 E.01692
G1 X115.252 Y108.93 E.18653
G1 X114.716 Y108.93 E.01692
G1 X111.07 Y105.284 E.16261
G1 X111.07 Y105.821 E.01692
G1 X114.179 Y108.93 E.13868
G1 X113.643 Y108.93 E.01692
G1 X111.07 Y106.357 E.11476
G1 X111.07 Y106.893 E.01692
G1 X113.107 Y108.93 E.09084
G1 X112.57 Y108.93 E.01692
G1 X111.07 Y107.43 E.06691
G1 X111.07 Y107.966 E.01692
G1 X112.034 Y108.93 E.04299
G1 X111.497 Y108.93 E.01692
G1 X110.9 Y108.333 E.02663
; stop printing object RetractionTest.stl id:0 copy 0
M106 S84.15
;LAYER_CHANGE
;Z:0.4
;HEIGHT:0.2
;BEFORE_LAYER_CHANGE
G92 E0.0
;0.4


;WIPE_START
G1 F8640
G1 X111.497 Y108.93 E-.195
G1 X112.034 Y108.93 E-.12385
G1 X111.07 Y107.966 E-.31475
G1 X111.07 Y107.43 E-.12385
G1 X111.078 Y107.438 E-.00254
;WIPE_END
G1 E-.04 F2100
G1 Z.6 F10800
;AFTER_LAYER_CHANGE
;0.4
; printing object RetractionTest.stl id:0 copy 0
G1 X112.214 Y101.651
G1 Z.4
G1 E.8 F2100
M204 S800
;TYPE:Perimeter
;WIDTH:0.45
G1 F1500
G1 X112.49 Y101.426 E.01205
G1 X112.73 Y101.268 E.00972
G1 X112.985 Y101.126 E.00989
G1 X113.547 Y100.881 E.02074
G1 X113.816 Y100.797 E.00952
G1 X114.405 Y100.674 E.02036
G1 X115.005 Y100.634 E.02035
G1 X115.605 Y100.675 E.02037
G1 X115.878 Y100.722 E.00938
G1 X116.472 Y100.888 E.02089
G1 X116.74 Y100.994 E.00974
G1 X117.003 Y101.12 E.00989
G1 X117.527 Y101.438 E.02074
G1 X117.751 Y101.608 E.00953
G1 X118.199 Y102.027 E.02075
G1 X118.381 Y102.236 E.00936
G1 X118.737 Y102.74 E.0209
G1 X118.874 Y102.985 E.00952
G1 X119.119 Y103.548 E.02075
G1 X119.202 Y103.811 E.00937
G1 X119.326 Y104.405 E.02054
G1 X119.367 Y105.011 E.02054
G1 X119.358 Y105.287 E.00936
G1 X119.274 Y105.899 E.02091
G1 X119.208 Y106.168 E.00936
G1 X119.001 Y106.75 E.02089
G1 X118.88 Y107.003 E.00952
G1 X118.562 Y107.527 E.02074
G1 X118.392 Y107.751 E.00953
G1 X117.98 Y108.191 E.02039
G1 X117.51 Y108.574 E.02054
G1 X117.278 Y108.726 E.00936
G1 X116.73 Y109.01 E.02091
G1 X116.473 Y109.111 E.00936
G1 X115.878 Y109.278 E.02089
G1 X115.605 Y109.325 E.00938
G1 X114.989 Y109.367 E.02091
G1 X114.713 Y109.358 E.00936
G1 X114.112 Y109.275 E.02054
G1 X113.528 Y109.112 E.02052
G1 X113.27 Y109.01 E.00938
G1 X112.722 Y108.726 E.0209
G1 X112.481 Y108.568 E.00973
M73 Q16 S5
G1 X112.252 Y108.394 E.00973
G1 X111.809 Y107.98 E.02054
G1 X111.426 Y107.51 E.02054
G1 X111.268 Y107.269 E.00973
G1 X111.127 Y107.019 E.00973
G1 X110.881 Y106.452 E.02091
G1 X110.798 Y106.189 E.00936
M73 P16 R5
G1 X110.674 Y105.595 E.02052
G1 X110.634 Y105 E.02019
G1 X110.675 Y104.395 E.02052
G1 X110.722 Y104.122 E.00938
G1 X110.888 Y103.528 E.02089
G1 X110.994 Y103.26 E.00974
G1 X111.12 Y102.997 E.00989
G1 X111.433 Y102.482 E.02039
G1 X111.816 Y102.011 E.02054
G1 X112.168 Y101.688 E.01617
M204 S1000
G1 X111.626 Y101.626 F10800
M204 S800
;TYPE:External perimeter
G1 F1500
G1 X111.738 Y101.513 E.00539
G1 X112.25 Y101.097 E.02232
G1 X112.519 Y100.92 E.0109
G1 X112.804 Y100.76 E.01107
G1 X113.405 Y100.5 E.02216
G1 X113.713 Y100.402 E.01094
G1 X114.349 Y100.27 E.02201
G1 X115.005 Y100.226 E.02224
G1 X115.653 Y100.27 E.02201
G1 X115.968 Y100.324 E.0108
G1 X116.602 Y100.502 E.0223
G1 X116.902 Y100.62 E.01092
G1 X117.197 Y100.761 E.01107
G1 X117.757 Y101.101 E.02216
G1 X118.014 Y101.297 E.01094
G1 X118.492 Y101.744 E.02216
G1 X118.701 Y101.984 E.01078
G1 X119.082 Y102.522 E.02231
G1 X119.24 Y102.804 E.01094
G1 X119.5 Y103.405 E.02216
G1 X119.597 Y103.708 E.01078
G1 X119.73 Y104.35 E.02219
G1 X119.775 Y105.004 E.02219
G1 X119.764 Y105.322 E.01078
G1 X119.674 Y105.975 E.02232
G1 X119.599 Y106.285 E.01078
G1 X119.378 Y106.906 E.02231
G1 X119.239 Y107.197 E.01094
G1 X118.899 Y107.757 E.02216
G1 X118.703 Y108.014 E.01094
G1 X118.259 Y108.489 E.02203
G1 X117.75 Y108.903 E.02219
G1 X117.484 Y109.078 E.01078
G1 X116.899 Y109.381 E.02232
G1 X116.603 Y109.498 E.01078
G1 X115.968 Y109.676 E.0223
G1 X115.654 Y109.73 E.01079
G1 X114.996 Y109.775 E.02232
G1 X114.678 Y109.764 E.01078
G1 X114.029 Y109.675 E.02219
G1 X113.398 Y109.498 E.02217
G1 X113.101 Y109.381 E.01079
G1 X112.516 Y109.078 E.02232
G1 X112.246 Y108.901 E.01091
G1 X111.99 Y108.706 E.01091
G1 X111.511 Y108.259 E.02219
G1 X111.097 Y107.75 E.02219
G1 X110.92 Y107.481 E.01091
G1 X110.762 Y107.2 E.01091
G1 X110.5 Y106.595 E.02232
G1 X110.403 Y106.292 E.01078
G1 X110.27 Y105.651 E.02217
G1 X110.226 Y105 E.02208
G1 X110.27 Y104.347 E.02217
G1 X110.324 Y104.032 E.0108
G1 X110.502 Y103.398 E.0223
G1 X110.62 Y103.098 E.01092
G1 X110.761 Y102.803 E.01107
G1 X111.099 Y102.247 E.02203
G1 X111.583 Y101.668 E.02553
M204 S1000
G1 X111.781 Y101.659 F10800
;WIPE_START
G1 F8640
G1 X114.405 Y100.674 E-.7500
;WIPE_END
G1 E-.04 F2100
G1 Z.8 F10800
G1 X118.761 Y106.965
G1 Z.4
G1 E.8 F2100
;TYPE:Solid infill
;WIDTH:0.46918
G1 F1645
G1 X117.701 Y108.025 E.05312
G1 X117.329 Y108.327 E.017
G1 X117.124 Y108.462 E.00869
G1 X116.603 Y108.732 E.02078
G1 X116.273 Y108.85 E.01246
G1 X118.845 Y106.278 E.12894
G1 X118.973 Y105.842 E.01611
G1 X119.02 Y105.5 E.01224
G1 X115.494 Y109.027 E.17678
G1 X114.86 Y109.057 E.02248
G1 X119.051 Y104.866 E.21008
G1 X119.023 Y104.447 E.01489
G1 X118.996 Y104.319 E.00465
G1 X114.319 Y108.995 E.23443
G1 X114.174 Y108.976 E.0052
G1 X113.832 Y108.88 E.01258
G1 X118.886 Y103.825 E.25335
G1 X118.718 Y103.391 E.01651
G1 X113.384 Y108.725 E.26737
G1 X112.987 Y108.519 E.01585
M73 Q17 S5
G1 X118.523 Y102.983 E.27751
M73 P17 R5
G1 X118.28 Y102.623 E.01539
G1 X112.616 Y108.287 E.28393
G1 X112.289 Y108.011 E.01516
G1 X118.017 Y102.283 E.28712
G1 X117.71 Y101.988 E.01511
G1 X111.985 Y107.713 E.28697
G1 X111.714 Y107.38 E.01519
G1 X117.383 Y101.712 E.28413
G1 X117.011 Y101.481 E.01552
G1 X111.48 Y107.012 E.2772
G1 X111.399 Y106.878 E.00554
G1 X111.282 Y106.608 E.01045
G1 X116.616 Y101.273 E.26738
G1 X116.166 Y101.12 E.01683
M73 P17 R4
G1 X111.113 Y106.173 E.2533
G1 X111.004 Y105.68 E.01791
G1 X115.685 Y100.999 E.23465
G1 X115.132 Y100.948 E.01967
G1 X110.949 Y105.132 E.2097
G1 X110.94 Y105 E.00469
G1 X110.973 Y104.504 E.0176
G1 X114.504 Y100.974 E.17698
G1 X113.893 Y101.092 E.02207
G1 X113.732 Y101.143 E.006
G1 X111.15 Y103.725 E.12939
G1 X111.274 Y103.382 E.01291
M73 Q17 S4
G1 X111.389 Y103.142 E.00943
G1 X111.683 Y102.659 E.02006
M73 Q18 S4
G1 X111.984 Y102.289 E.0169
G1 X113.033 Y101.24 E.05258
;WIPE_START
G1 F8640
M73 P18 R4
G1 X111.984 Y102.289 E-.34256
G1 X111.683 Y102.659 E-.11011
G1 X111.389 Y103.142 E-.13067
G1 X111.274 Y103.382 E-.06141
G1 X111.15 Y103.725 E-.08413
G1 X111.246 Y103.629 E-.03112
;WIPE_END
G1 E-.04 F2100
G1 Z.8 F10800
G1 X130.833 Y103.727
G1 Z.4
G1 E.8 F2100
M204 S800
;TYPE:Perimeter
;WIDTH:0.45
G1 F1500
G1 X130.99 Y103.27 E.01634
G1 X131.274 Y102.722 E.0209
G1 X131.608 Y102.249 E.01959
G1 X132.027 Y101.801 E.02075
G1 X132.236 Y101.619 E.00936
G1 X132.74 Y101.263 E.0209
G1 X132.985 Y101.126 E.00952
G1 X133.547 Y100.882 E.02073
G1 X133.816 Y100.797 E.00954
G1 X134.405 Y100.674 E.02036
G1 X135.005 Y100.634 E.02035
G1 X135.605 Y100.675 E.02037
G1 X135.878 Y100.722 E.00938
G1 X136.472 Y100.888 E.02089
G1 X137.003 Y101.12 E.01961
G1 X137.527 Y101.438 E.02074
G1 X137.751 Y101.608 E.00952
G1 X138.191 Y102.02 E.02039
G1 X138.574 Y102.49 E.02054
G1 X138.726 Y102.721 E.00936
G1 X139.007 Y103.265 E.0207
G1 X139.208 Y103.832 E.02038
G1 X139.274 Y104.101 E.00937
G1 X139.358 Y104.713 E.02091
G1 X139.368 Y105 E.00973
G1 X139.358 Y105.287 E.00973
G1 X139.274 Y105.899 E.02091
G1 X139.208 Y106.168 E.00936
G1 X139.005 Y106.74 E.02054
G1 X138.726 Y107.278 E.02054
G1 X138.574 Y107.509 E.00935
G1 X138.188 Y107.984 E.0207
G1 X137.748 Y108.394 E.02038
G1 X137.527 Y108.562 E.00937
G1 X137 Y108.882 E.02089
G1 X136.75 Y109.001 E.00938
G1 X136.168 Y109.208 E.02089
G1 X135.605 Y109.325 E.01946
G1 X134.989 Y109.367 E.02091
G1 X134.713 Y109.358 E.00936
G1 X134.101 Y109.274 E.02091
G1 X133.832 Y109.208 E.00936
G1 X133.26 Y109.005 E.02054
G1 X132.722 Y108.726 E.02054
G1 X132.481 Y108.568 E.00973
G1 X132.252 Y108.394 E.00973
G1 X131.809 Y107.98 E.02054
G1 X131.426 Y107.51 E.02052
G1 X131.274 Y107.279 E.00937
G1 X130.993 Y106.735 E.0207
G1 X130.792 Y106.168 E.02037
G1 X130.726 Y105.899 E.00938
G1 X130.642 Y105.288 E.02089
G1 X130.643 Y104.708 E.01961
G1 X130.725 Y104.112 E.02039
G1 X130.817 Y103.784 E.01151
M204 S1000
G1 X130.325 Y104.029 F10800
M204 S800
;TYPE:External perimeter
G1 F1500
G1 X130.502 Y103.398 E.02217
G1 X130.619 Y103.101 E.0108
G1 X130.922 Y102.516 E.02232
G1 X131.099 Y102.247 E.0109
G1 X131.297 Y101.986 E.01107
G1 X131.744 Y101.508 E.02216
G1 X131.984 Y101.299 E.01078
G1 X132.522 Y100.918 E.02231
G1 X132.804 Y100.76 E.01094
G1 X133.404 Y100.5 E.02214
G1 X133.713 Y100.402 E.01095
G1 X134.349 Y100.27 E.02201
G1 X135.005 Y100.226 E.02224
G1 X135.653 Y100.27 E.02201
G1 X135.968 Y100.324 E.0108
G1 X136.602 Y100.502 E.0223
G1 X136.902 Y100.62 E.01092
G1 X137.197 Y100.761 E.01107
G1 X137.757 Y101.101 E.02216
G1 X138.014 Y101.297 E.01094
G1 X138.489 Y101.741 E.02203
G1 X138.903 Y102.25 E.02219
G1 X139.078 Y102.516 E.01077
G1 X139.381 Y103.102 E.02235
G1 X139.599 Y103.715 E.02203
G1 X139.674 Y104.025 E.01078
G1 X139.764 Y104.678 E.02232
G1 X139.775 Y105 E.01091
G1 X139.764 Y105.322 E.01091
