; generated by PrusaSlicer 2.4.0+win64 on 2022-01-16 at 23:51:14 UTC

; 

; external perimeters extrusion width = 0.45mm
; perimeters extrusion width = 0.45mm
; infill extrusion width = 0.45mm
; solid infill extrusion width = 0.45mm
; top infill extrusion width = 0.40mm
; first layer extrusion width = 0.42mm

M73 P0 R11
M73 Q0 S11
M201 X1000 Y1000 Z200 E5000 ; sets maximum accelerations, mm/sec^2
M203 X200 Y200 Z12 E120 ; sets maximum feedrates, mm/sec
M204 P1250 R1250 T1250 ; sets acceleration (P, T) and retract acceleration (R), mm/sec^2
M205 X8.00 Y8.00 Z0.40 E4.50 ; sets the jerk limits, mm/sec
M205 S0 T0 ; sets the minimum extruding and travel feed rate, mm/sec
M107
;TYPE:Custom
M862.3 P "MK3S" ; printer model check
M862.1 P0.4 ; nozzle diameter check
M115 U3.10.1 ; tell printer latest fw version
G90 ; use absolute coordinates
M83 ; extruder relative mode
M104 S215 ; set extruder temp
M140 S60 ; set bed temp
M190 S60 ; wait for bed temp
M109 S215 ; wait for extruder temp
G28 W ; home all without mesh bed level
G80 ; mesh bed leveling
G1 Z0.2 F720
G1 Y-3 F1000 ; go outside print area
G92 E0
G1 X60 E9 F1000 ; intro line
G1 X100 E12.5 F1000 ; intro line
G92 E0
M221 S95

; Don't change E values below. Excessive value can damage the printer.
M907 E430 ; set extruder motor current
G21 ; set units to millimeters
G90 ; use absolute coordinates
M83 ; use relative distances for extrusion
M900 K0.05 ; Filament gcode LA 1.5
M900 K30 ; Filament gcode LA 1.0
M107
;LAYER_CHANGE
;Z:0.2
;HEIGHT:0.2
;BEFORE_LAYER_CHANGE
G92 E0.0
;0.2


G1 E-.8 F2100
G1 Z.4 F720
;AFTER_LAYER_CHANGE
;0.2
G1 X75.139 Y76.083 F10800
G1 Z.2 F720
M73 P1 R11
M73 Q1 S11
G1 E.8 F2100
M204 S800
;TYPE:Skirt/Brim
;WIDTH:0.42
G1 F1200
G1 X76.205 Y75.069 E.04612
G1 X77.5 Y74.746 E.04186
G1 X102.5 Y74.746 E.78386
G1 X103.917 Y75.139 E.04612
G1 X104.931 Y76.205 E.04612
G1 X105.254 Y77.5 E.04186
G1 X105.254 Y102.5 E.78386
G1 X104.861 Y103.917 E.04612
G1 X103.795 Y104.931 E.04612
G1 X102.5 Y105.254 E.04186
G1 X77.5 Y105.254 E.78386
G1 X76.083 Y104.861 E.04612
G1 X75.069 Y103.795 E.04612
G1 X74.746 Y102.5 E.04186
G1 X74.746 Y77.5 E.78386
G1 X75.123 Y76.14 E.04424
M204 S1000
G1 X75.497 Y76.252 F10800
M204 S800
G1 F1200
G1 X75.515 Y76.193 E.00195
G1 X76.56 Y75.317 E.04278
G1 X77.5 Y75.123 E.03008
G1 X102.5 Y75.123 E.78386
G1 X103.807 Y75.515 E.04278
M73 P2 R11
M73 Q2 S11
G1 X104.683 Y76.56 E.04278
G1 X104.877 Y77.5 E.03008
G1 X104.877 Y102.5 E.78386
G1 X104.485 Y103.807 E.04278
G1 X103.44 Y104.683 E.04278
G1 X102.5 Y104.877 E.03008
G1 X77.5 Y104.877 E.78386
G1 X76.193 Y104.485 E.04278
G1 X75.317 Y103.44 E.04278
G1 X75.123 Y102.5 E.03008
G1 X75.123 Y77.5 E.78386
G1 X75.479 Y76.31 E.03895
M204 S1000
; printing object 3dbArches.stl id:0 copy 0
;WIPE_START
M73 P2 R10
G1 F8640
G1 X75.515 Y76.193 E-.0282
G1 X76.56 Y75.317 E-.31505
G1 X77.5 Y75.123 E-.22155
G1 X78.345 Y75.123 E-.1952
;WIPE_END
G1 E-.04 F2100
G1 Z.6 F720
G1 X78.687 Y78.287 F10800
G1 Z.2 F720
G1 E.8 F2100
M204 S800
;TYPE:Perimeter
G1 F1200
G1 X101.713 Y78.287 E.72196
G1 X101.713 Y101.713 E.7345
M73 Q3 S10
G1 X78.287 Y101.713 E.7345
M73 P3 R10
G1 X78.287 Y78.287 E.7345
G1 X78.627 Y78.287 E.01066
M204 S1000
G1 X77.91 Y77.91 F10800
M204 S800
;TYPE:External perimeter
G1 F1200
G1 X102.09 Y77.91 E.75815
G1 X102.09 Y102.09 E.75815
G1 X77.91 Y102.09 E.75815
G1 X77.91 Y77.97 E.75627
M204 S1000
M73 P4 R10
M73 Q4 S10
G1 X78.296 Y78.014 F10800
;WIPE_START
G1 F8640
G1 X81.201 Y77.962 E-.76
;WIPE_END
G1 E-.04 F2100
G1 Z.6 F720
G1 X100.836 Y78.4 F10800
G1 Z.2 F720
G1 E.8 F2100
M204 S800
;TYPE:Solid infill
;WIDTH:0.42065
G1 F1200
G1 X101.43 Y78.994 E.02638
G1 X101.43 Y79.528 E.01678
G1 X100.472 Y78.57 E.04257
G1 X99.937 Y78.57 E.01678
G1 X101.43 Y80.063 E.0663
G1 X101.43 Y80.597 E.01678
G1 X99.403 Y78.57 E.09003
G1 X98.869 Y78.57 E.01678
G1 X101.43 Y81.131 E.11376
G1 X101.43 Y81.665 E.01678
G1 X98.335 Y78.57 E.13748
G1 X97.801 Y78.57 E.01678
G1 X101.43 Y82.199 E.16121
G1 X101.43 Y82.733 E.01678
G1 X97.267 Y78.57 E.18494
G1 X96.732 Y78.57 E.01678
G1 X101.43 Y83.268 E.20867
G1 X101.43 Y83.802 E.01678
G1 X96.198 Y78.57 E.2324
G1 X95.664 Y78.57 E.01678
G1 X101.43 Y84.336 E.25612
G1 X101.43 Y84.87 E.01678
G1 X95.13 Y78.57 E.27985
G1 X94.596 Y78.57 E.01678
G1 X101.43 Y85.404 E.30358
G1 X101.43 Y85.939 E.01678
G1 X94.061 Y78.57 E.32731
G1 X93.527 Y78.57 E.01678
M73 Q5 S10
G1 X101.43 Y86.473 E.35103
G1 X101.43 Y87.007 E.01678
M73 P5 R10
G1 X92.993 Y78.57 E.37476
G1 X92.459 Y78.57 E.01678
G1 X101.43 Y87.541 E.39849
G1 X101.43 Y88.075 E.01678
G1 X91.925 Y78.57 E.42222
G1 X91.39 Y78.57 E.01678
G1 X101.43 Y88.61 E.44595
G1 X101.43 Y89.144 E.01678
G1 X90.856 Y78.57 E.46967
G1 X90.322 Y78.57 E.01678
G1 X101.43 Y89.678 E.4934
G1 X101.43 Y90.212 E.01678
G1 X89.788 Y78.57 E.51713
G1 X89.254 Y78.57 E.01678
G1 X101.43 Y90.746 E.54086
G1 X101.43 Y91.281 E.01678
M73 Q6 S10
G1 X88.719 Y78.57 E.56458
G1 X88.185 Y78.57 E.01678
M73 P6 R10
G1 X101.43 Y91.815 E.58831
G1 X101.43 Y92.349 E.01678
G1 X87.651 Y78.57 E.61204
G1 X87.117 Y78.57 E.01678
G1 X101.43 Y92.883 E.63577
G1 X101.43 Y93.417 E.01678
G1 X86.583 Y78.57 E.6595
G1 X86.049 Y78.57 E.01678
G1 X101.43 Y93.952 E.68322
G1 X101.43 Y94.486 E.01678
G1 X85.514 Y78.57 E.70695
G1 X84.98 Y78.57 E.01678
M73 P7 R10
M73 Q7 S10
G1 X101.43 Y95.02 E.73068
G1 X101.43 Y95.554 E.01678
G1 X84.446 Y78.57 E.75441
G1 X83.912 Y78.57 E.01678
G1 X101.43 Y96.088 E.77813
G1 X101.43 Y96.622 E.01678
G1 X83.378 Y78.57 E.80186
G1 X82.843 Y78.57 E.01678
G1 X101.43 Y97.157 E.82559
G1 X101.43 Y97.691 E.01678
M73 P8 R10
M73 Q8 S10
G1 X82.309 Y78.57 E.84932
G1 X81.775 Y78.57 E.01678
G1 X101.43 Y98.225 E.87305
G1 X101.43 Y98.759 E.01678
G1 X81.241 Y78.57 E.89677
G1 X80.707 Y78.57 E.01678
G1 X101.43 Y99.293 E.9205
G1 X101.43 Y99.828 E.01678
G1 X80.172 Y78.57 E.94423
G1 X79.638 Y78.57 E.01678
M73 P9 R10
M73 Q9 S10
G1 X101.43 Y100.362 E.96796
G1 X101.43 Y100.896 E.01678
G1 X79.104 Y78.57 E.99168
G1 X78.57 Y78.57 E.01678
G1 X101.43 Y101.43 E1.01541
G1 X100.896 Y101.43 E.01678
G1 X78.57 Y79.104 E.99168
G1 X78.57 Y79.638 E.01678
M73 P10 R10
M73 Q10 S10
G1 X100.362 Y101.43 E.96795
G1 X99.828 Y101.43 E.01678
G1 X78.57 Y80.172 E.94422
G1 X78.57 Y80.707 E.01678
G1 X99.293 Y101.43 E.9205
G1 X98.759 Y101.43 E.01678
G1 X78.57 Y81.241 E.89677
G1 X78.57 Y81.775 E.01678
G1 X98.225 Y101.43 E.87304
G1 X97.691 Y101.43 E.01678
M73 P11 R10
M73 Q11 S10
G1 X78.57 Y82.309 E.84931
G1 X78.57 Y82.843 E.01678
G1 X97.157 Y101.43 E.82559
G1 X96.622 Y101.43 E.01678
M73 P11 R9
G1 X78.57 Y83.378 E.80186
G1 X78.57 Y83.912 E.01678
M73 Q11 S9
G1 X96.088 Y101.43 E.77813
G1 X95.554 Y101.43 E.01678
G1 X78.57 Y84.446 E.7544
G1 X78.57 Y84.98 E.01678
M73 P12 R9
M73 Q12 S9
G1 X95.02 Y101.43 E.73067
G1 X94.486 Y101.43 E.01678
G1 X78.57 Y85.514 E.70695
G1 X78.57 Y86.049 E.01678
G1 X93.951 Y101.43 E.68322
G1 X93.417 Y101.43 E.01678
G1 X78.57 Y86.583 E.65949
G1 X78.57 Y87.117 E.01678
G1 X92.883 Y101.43 E.63576
G1 X92.349 Y101.43 E.01678
G1 X78.57 Y87.651 E.61204
G1 X78.57 Y88.185 E.01678
M73 P13 R9
M73 Q13 S9
G1 X91.815 Y101.43 E.58831
G1 X91.28 Y101.43 E.01678
G1 X78.57 Y88.72 E.56458
G1 X78.57 Y89.254 E.01678
G1 X90.746 Y101.43 E.54085
G1 X90.212 Y101.43 E.01678
G1 X78.57 Y89.788 E.51712
G1 X78.57 Y90.322 E.01678
G1 X89.678 Y101.43 E.4934
G1 X89.144 Y101.43 E.01678
G1 X78.57 Y90.856 E.46967
G1 X78.57 Y91.391 E.01678
G1 X88.609 Y101.43 E.44594
G1 X88.075 Y101.43 E.01678
M73 P14 R9
M73 Q14 S9
G1 X78.57 Y91.925 E.42221
G1 X78.57 Y92.459 E.01678
G1 X87.541 Y101.43 E.39849
G1 X87.007 Y101.43 E.01678
G1 X78.57 Y92.993 E.37476
G1 X78.57 Y93.527 E.01678
G1 X86.473 Y101.43 E.35103
G1 X85.939 Y101.43 E.01678
G1 X78.57 Y94.061 E.3273
G1 X78.57 Y94.596 E.01678
G1 X85.404 Y101.43 E.30357
G1 X84.87 Y101.43 E.01678
G1 X78.57 Y95.13 E.27985
G1 X78.57 Y95.664 E.01678
G1 X84.336 Y101.43 E.25612
G1 X83.802 Y101.43 E.01678
G1 X78.57 Y96.198 E.23239
G1 X78.57 Y96.732 E.01678
G1 X83.268 Y101.43 E.20866
G1 X82.733 Y101.43 E.01678
G1 X78.57 Y97.267 E.18494
G1 X78.57 Y97.801 E.01678
G1 X82.199 Y101.43 E.16121
G1 X81.665 Y101.43 E.01678
G1 X78.57 Y98.335 E.13748
G1 X78.57 Y98.869 E.01678
G1 X81.131 Y101.43 E.11375
G1 X80.597 Y101.43 E.01678
G1 X78.57 Y99.403 E.09002
G1 X78.57 Y99.938 E.01678
M73 Q15 S9
G1 X80.062 Y101.43 E.0663
G1 X79.528 Y101.43 E.01678
M73 P15 R9
G1 X78.57 Y100.472 E.04257
G1 X78.57 Y101.006 E.01678
G1 X79.164 Y101.6 E.02638
M204 S1000
; stop printing object 3dbArches.stl id:0 copy 0
M106 S84.15
;LAYER_CHANGE
;Z:0.4
;HEIGHT:0.2
;BEFORE_LAYER_CHANGE
G92 E0.0
;0.4


;WIPE_START
G1 F8640
G1 X78.57 Y101.006 E-.19393
G1 X78.57 Y100.472 E-.12335
G1 X79.528 Y101.43 E-.31295
G1 X80.062 Y101.43 E-.12335
G1 X80.043 Y101.41 E-.00643
;WIPE_END
G1 E-.04 F2100
G1 Z.6 F720
;AFTER_LAYER_CHANGE
;0.4
; printing object 3dbArches.stl id:0 copy 0
G1 X94.261 Y97.312 F10800
G1 Z.4 F720
G1 E.8 F2100
M204 S800
;TYPE:Perimeter
;WIDTH:0.45
G1 F900
G1 X94.296 Y96.676 E.02156
G1 X98.14 Y96.89 E.13035
G1 X98.14 Y95.709 E.03996
G1 X99.183 Y95.711 E.0353
G1 X99.183 Y95.948 E.00801
G1 X98.885 Y95.948 E.01009
G1 X98.878 Y97.668 E.05822
G1 X94.497 Y97.424 E.14851
G1 X94.481 Y97.725 E.01017
G1 X94.24 Y97.711 E.00816
G1 X94.258 Y97.372 E.01151
M204 S1000
G1 X93.812 Y98.095 F10800
M204 S800
;TYPE:External perimeter
G1 F900
G1 X93.911 Y96.247 E.06266
G1 X97.733 Y96.459 E.12959
G1 X97.733 Y95.301 E.03921
G1 X99.59 Y95.305 E.06286
G1 X99.59 Y96.355 E.03553
G1 X99.29 Y96.355 E.01015
G1 X99.284 Y97.855 E.05077
G1 X99.236 Y97.969 E.00416
G1 X99.144 Y98.048 E.00412
G1 X98.985 Y98.082 E.00551
G1 X94.881 Y97.854 E.13911
G1 X94.865 Y98.154 E.01017
G1 X93.872 Y98.098 E.03368
M204 S1000
G1 X93.998 Y97.741 F10800
;WIPE_START
G1 F8640
G1 X93.911 Y96.247 E-.42769
G1 X95.348 Y96.326 E-.33231
;WIPE_END
G1 E-.04 F2100
G1 Z.8 F720
G1 X97.879 Y97.49 F10800
G1 Z.4 F720
G1 E.8 F2100
;TYPE:Solid infill
;WIDTH:0.499218
G1 F900
G1 X98.576 Y96.793 E.03743
G1 X98.579 Y96.145 E.02459
G1 X98.263 Y96.461 E.01698
G1 X97.734 Y96.989 F10800
G1 F900
G1 X97.441 Y97.283 E.01574
G1 X96.83 Y97.248 E.02323
G1 X96.949 Y97.129 E.00641
G1 X96.338 Y97.095 E.02323
G1 X96.219 Y97.214 E.00641
G1 X95.607 Y97.18 E.02323
G1 X95.727 Y97.061 E.00641
G1 X95.115 Y97.027 E.02323
G1 X94.822 Y97.32 E.01573
;WIPE_START
G1 F8640
G1 X95.115 Y97.027 E-.09575
G1 X95.727 Y97.061 E-.14137
G1 X95.607 Y97.18 E-.039
G1 X96.219 Y97.214 E-.14136
G1 X96.338 Y97.095 E-.039
G1 X96.949 Y97.129 E-.14137
G1 X96.83 Y97.248 E-.03901
G1 X97.362 Y97.278 E-.12314
;WIPE_END
G1 E-.04 F2100
G1 Z.8 F720
G1 X98.14 Y83.553 F10800
G1 Z.4 F720
G1 E.8 F2100
M204 S800
;TYPE:Perimeter
;WIDTH:0.45
G1 F900
G1 X98.14 Y82.771 E.02647
G1 X94.296 Y82.985 E.13035
G1 X94.24 Y81.95 E.03508
G1 X94.481 Y81.937 E.00816
G1 X94.497 Y82.236 E.01013
G1 X98.88 Y81.993 E.14856
G1 X98.884 Y83.712 E.05819
G1 X99.183 Y83.712 E.01013
G1 X99.183 Y83.953 E.00815
G1 X98.14 Y83.953 E.0353
G1 X98.14 Y83.613 E.01151
M204 S1000
G1 X97.733 Y84.36 F10800
M204 S800
;TYPE:External perimeter
G1 F900
G1 X97.733 Y83.201 E.03922
G1 X93.911 Y83.414 E.12959
G1 X93.812 Y81.565 E.06266
G1 X94.865 Y81.507 E.03571
G1 X94.881 Y81.807 E.01017
G1 X99.006 Y81.578 E.13982
G1 X99.152 Y81.617 E.00512
G1 X99.244 Y81.71 E.00441
G1 X99.286 Y81.828 E.00427
G1 X99.29 Y83.305 E.04999
G1 X99.59 Y83.305 E.01016
G1 X99.59 Y84.36 E.0357
G1 X97.793 Y84.36 E.06083
M204 S1000
G1 X97.871 Y83.984 F10800
M73 P16 R9
M73 Q16 S9
G1 X98.263 Y83.482
;TYPE:Solid infill
;WIDTH:0.461924
G1 F900
G1 X98.577 Y83.168 E.01551
G1 X98.576 Y82.577 E.02059
G1 X98.446 Y82.707 E.00641
G1 X98.446 Y82.448 E.00901
G1 X98.092 Y82.468 E.01234
G1 X98.225 Y82.335 E.00654
G1 X97.597 Y82.37 E.02189
G1 X97.465 Y82.503 E.00655
G1 X96.837 Y82.538 E.02189
G1 X96.97 Y82.405 E.00655
G1 X96.343 Y82.439 E.02189
G1 X96.21 Y82.573 E.00656
G1 X95.582 Y82.607 E.02189
G1 X95.716 Y82.474 E.00657
G1 X95.088 Y82.509 E.02189
G1 X94.76 Y82.837 E.01615
;WIPE_START
G1 F8640
G1 X95.088 Y82.509 E-.10703
G1 X95.716 Y82.474 E-.14507
G1 X95.582 Y82.607 E-.04354
G1 X96.21 Y82.573 E-.14511
G1 X96.343 Y82.439 E-.04348
G1 X96.97 Y82.405 E-.14507
G1 X96.837 Y82.538 E-.04343
G1 X97.215 Y82.517 E-.08727
;WIPE_END
G1 E-.04 F2100
G1 Z.8 F720
G1 X81.148 Y83.73 F10800
G1 Z.4 F720
G1 E.8 F2100
M204 S800
;TYPE:Perimeter
;WIDTH:0.45
G1 F900
G1 X81.148 Y85.291 E.05283
G1 X80.111 Y85.276 E.03509
G1 X80.111 Y84.883 E.01331
G1 X80.409 Y84.886 E.01009
G1 X80.415 Y83.018 E.06322
G1 X84.01 Y82.819 E.12187
G1 X83.993 Y82.519 E.01018
G1 X84.228 Y82.506 E.00797
G1 X84.286 Y83.541 E.0351
G1 X81.193 Y83.712 E.10485
M204 S1000
G1 X81.555 Y84.1 F10800
M204 S800
;TYPE:External perimeter
G1 F900
G1 X81.555 Y85.704 E.05428
G1 X79.704 Y85.677 E.06265
G1 X79.704 Y84.471 E.04082
G1 X80.003 Y84.474 E.01014
G1 X80.008 Y82.866 E.05442
G1 X80.041 Y82.764 E.00364
G1 X80.12 Y82.674 E.00405
G1 X80.278 Y82.618 E.00567
G1 X83.58 Y82.435 E.11195
G1 X83.563 Y82.135 E.01018
G1 X84.611 Y82.077 E.03554
G1 X84.715 Y83.925 E.06266
G1 X81.615 Y84.097 E.1051
M204 S1000
G1 X81.163 Y84.177 F10800
;WIPE_START
G1 F8640
G1 X81.555 Y85.704 E-.37132
G1 X79.871 Y85.679 E-.38868
;WIPE_END
G1 E-.04 F2100
G1 Z.8 F720
G1 X83.665 Y82.96 F10800
G1 Z.4 F720
G1 E.8 F2100
;TYPE:Solid infill
;WIDTH:0.513492
G1 F900
G1 X83.338 Y83.288 E.01812
G1 X82.633 Y83.327 E.02761
G1 X82.766 Y83.194 E.00737
G1 X82.062 Y83.233 E.02761
G1 X81.734 Y83.56 E.01812
;WIPE_START
G1 F8640
G1 X82.062 Y83.233 E-.1069
G1 X82.766 Y83.194 E-.16293
G1 X82.633 Y83.327 E-.04348
G1 X83.338 Y83.288 E-.16293
G1 X83.665 Y82.96 E-.10692
;WIPE_END
G1 E-.21683 F2100
G1 Z.8 F720
G1 X81.026 Y84.268 F10800
G1 Z.4 F720
G1 E.8 F2100
G1 F900
G1 X80.715 Y84.579 E.01719
G1 X80.717 Y83.911 E.02612
G1 X80.843 Y83.786 E.00695
G1 X80.843 Y83.426 E.01408
G1 X81.224 Y83.405 E.01493
G1 X81.551 Y83.077 E.01811
;WIPE_START
G1 F8640
G1 X81.224 Y83.405 E-.1069
G1 X80.843 Y83.426 E-.0881
G1 X80.843 Y83.786 E-.08312
G1 X80.717 Y83.911 E-.04101
G1 X80.715 Y84.579 E-.15412
G1 X81.026 Y84.268 E-.10143
;WIPE_END
G1 E-.22532 F2100
G1 Z.8 F720
G1 X81.148 Y94.77 F10800
G1 Z.4 F720
G1 E.8 F2100
M204 S800
;TYPE:Perimeter
;WIDTH:0.45
G1 F900
G1 X81.148 Y95.946 E.0398
G1 X84.286 Y96.12 E.10638
G1 X84.228 Y97.155 E.0351
G1 X83.992 Y97.142 E.00797
G1 X84.01 Y96.842 E.01017
G1 X80.413 Y96.641 E.12193
G1 X80.41 Y94.775 E.06319
G1 X80.111 Y94.778 E.01012
G1 X80.111 Y94.385 E.01331
G1 X81.148 Y94.37 E.03511
G1 X81.148 Y94.71 E.01151
M204 S1000
G1 X81.555 Y93.957 F10800
M204 S800
;TYPE:External perimeter
G1 F900
G1 X81.555 Y95.56 E.05428
G1 X84.715 Y95.736 E.10714
G1 X84.611 Y97.584 E.06266
G1 X83.563 Y97.526 E.03554
G1 X83.58 Y97.225 E.01018
G1 X80.26 Y97.041 E.11256
G1 X80.14 Y97.002 E.00426
M73 P17 R9
M73 Q17 S9
G1 X80.055 Y96.922 E.00396
G1 X80.006 Y96.784 E.00495
G1 X80.004 Y95.186 E.05407
G1 X79.704 Y95.189 E.01015
G1 X79.704 Y93.983 E.04082
G1 X81.495 Y93.958 E.06064
M204 S1000
G1 X81.427 Y94.336 F10800
;WIPE_START
G1 F8640
G1 X81.555 Y95.56 E-.37034
G1 X83.24 Y95.654 E-.38966
;WIPE_END
G1 E-.04 F2100
G1 Z.8 F720
G1 X83.796 Y96.215 F10800
G1 Z.4 F720
G1 E.8 F2100
;TYPE:Solid infill
;WIDTH:0.460413
G1 F900
G1 X83.503 Y96.508 E.01439
G1 X82.944 Y96.477 E.01945
G1 X83.063 Y96.357 E.00585
G1 X82.503 Y96.326 E.01945
G1 X82.384 Y96.445 E.00584
G1 X81.825 Y96.414 E.01945
G1 X81.944 Y96.295 E.00583
G1 X81.384 Y96.264 E.01945
G1 X81.266 Y96.383 E.00583
G1 X80.718 Y96.353 E.01905
G1 X80.843 Y96.216 E.00643
G1 X80.843 Y95.625 E.0205
G1 X80.717 Y95.751 E.00618
G1 X80.716 Y95.162 E.02046
G1 X81.026 Y94.852 E.01523
; stop printing object 3dbArches.stl id:0 copy 0
M106 S170.85
;LAYER_CHANGE
;Z:0.6
;HEIGHT:0.2
;BEFORE_LAYER_CHANGE
G92 E0.0
;0.6


;WIPE_START
G1 F8640
G1 X80.716 Y95.162 E-.10127
G1 X80.717 Y95.751 E-.13611
G1 X80.843 Y95.625 E-.04108
G1 X80.843 Y96.216 E-.13636
G1 X80.718 Y96.353 E-.04274
G1 X81.266 Y96.383 E-.12669
G1 X81.384 Y96.264 E-.03876
G1 X81.944 Y96.295 E-.12937
G1 X81.92 Y96.319 E-.00762
;WIPE_END
G1 E-.04 F2100
G1 Z.8 F720
;AFTER_LAYER_CHANGE
;0.6
; printing object 3dbArches.stl id:0 copy 0
G1 X98.897 Y96.752 F10800
G1 Z.6 F720
G1 E.8 F2100
M204 S800
;TYPE:Perimeter
;WIDTH:0.45
G1 F900
G1 X98.889 Y97.674 E.03123
