; generated by PrusaSlicer 2.4.0+win64 on 2022-01-17 at 19:34:54 UTC

; 

; external perimeters extrusion width = 0.45mm
; perimeters extrusion width = 0.45mm
; infill extrusion width = 0.45mm
; solid infill extrusion width = 0.45mm
; top infill extrusion width = 0.40mm
; first layer extrusion width = 0.42mm

M73 P0 R85
M73 Q0 S86
M201 X1000 Y1000 Z200 E5000 ; sets maximum accelerations, mm/sec^2
M203 X200 Y200 Z12 E120 ; sets maximum feedrates, mm/sec
M204 P1250 R1250 T1250 ; sets acceleration (P, T) and retract acceleration (R), mm/sec^2
M205 X8.00 Y8.00 Z0.40 E4.50 ; sets the jerk limits, mm/sec
M205 S0 T0 ; sets the minimum extruding and travel feed rate, mm/sec
M107
;TYPE:Custom
M862.3 P "MK3S" ; printer model check
M862.1 P0.4 ; nozzle diameter check
M115 U3.10.1 ; tell printer latest fw version
G90 ; use absolute coordinates
M83 ; extruder relative mode
M104 S215 ; set extruder temp
M140 S60 ; set bed temp
M190 S60 ; wait for bed temp
M109 S215 ; wait for extruder temp
G28 W ; home all without mesh bed level
G80 ; mesh bed leveling
G1 Z0.2 F720
G1 Y-3 F1000 ; go outside print area
G92 E0
G1 X60 E9 F1000 ; intro line
G1 X100 E12.5 F1000 ; intro line
G92 E0
M221 S95

; Don't change E values below. Excessive value can damage the printer.
M907 E430 ; set extruder motor current
G21 ; set units to millimeters
G90 ; use absolute coordinates
M83 ; use relative distances for extrusion
M900 K0.05 ; Filament gcode LA 1.5
M900 K30 ; Filament gcode LA 1.0
M107
;LAYER_CHANGE
;Z:0.2
;HEIGHT:0.2
;BEFORE_LAYER_CHANGE
G92 E0.0
;0.2


G1 E-.8 F2100
G1 Z.2 F720
;AFTER_LAYER_CHANGE
;0.2
G1 X63.433 Y81.3 F10800
G1 E.8 F2100
M204 S800
;TYPE:Skirt/Brim
;WIDTH:0.42
G1 F1200
G1 X64.394 Y80.838 E.03343
G1 X65.505 Y80.608 E.0356
G1 X90.31 Y79.149 E.77908
G1 X92.641 Y79.338 E.07331
G1 X94.927 Y79.834 E.07337
G1 X97.114 Y80.621 E.07286
G1 X99.14 Y81.668 E.07151
G1 X100.919 Y82.89 E.06768
G1 X102.681 Y84.471 E.07421
G1 X104.197 Y86.246 E.07319
G1 X105.446 Y88.191 E.07247
G1 X105.794 Y89.209 E.03374
G1 X105.868 Y90.181 E.03056
G1 X105.704 Y91.152 E.0309
G1 X105.252 Y92.163 E.0347
G1 X104.142 Y93.827 E.06272
G1 X102.849 Y95.353 E.06272
G1 X101.294 Y96.808 E.06677
G1 X99.653 Y98.012 E.06382
G1 X97.335 Y99.28 E.08285
G1 X94.95 Y100.16 E.07971
G1 X92.461 Y100.688 E.07976
G1 X91.129 Y100.821 E.042
G1 X89.771 Y100.851 E.04257
G1 X65.238 Y99.362 E.77062
G1 X64.319 Y99.136 E.02969
G1 X63.445 Y98.707 E.03053
G1 X62.703 Y98.116 E.02976
G1 X62.114 Y97.393 E.02923
G1 X61.637 Y96.418 E.03402
G1 X61.386 Y95.19 E.0393
G1 X61.387 Y84.79 E.32609
G1 X61.583 Y83.747 E.03327
G1 X62.008 Y82.778 E.03319
G1 X62.636 Y81.952 E.03252
G1 X63.386 Y81.338 E.03039
M204 S1000
G1 X63.625 Y81.633 F10800
M204 S800
G1 F1200
G1 X63.672 Y81.595 E.00187
G1 X64.571 Y81.177 E.03111
G1 X65.625 Y80.977 E.03364
G1 X90.308 Y79.526 E.77524
G1 X92.586 Y79.711 E.07167
G1 X94.826 Y80.197 E.07188
G1 X96.75 Y80.875 E.06395
G1 X98.772 Y81.888 E.07091
M73 Q0 S85
G1 X100.653 Y83.161 E.07122
G1 X102.375 Y84.697 E.07236
G1 X103.895 Y86.473 E.07328
G1 X105.109 Y88.359 E.07033
G1 X105.437 Y89.354 E.03284
G1 X105.475 Y90.387 E.03241
G1 X105.227 Y91.376 E.03199
G1 X104.698 Y92.351 E.03476
G1 X103.588 Y93.928 E.06048
G1 X102.328 Y95.351 E.05959
G1 X100.76 Y96.755 E.06598
G1 X99.224 Y97.839 E.05895
G1 X97.152 Y98.949 E.0737
G1 X94.823 Y99.804 E.07781
G1 X92.316 Y100.327 E.08029
G1 X89.758 Y100.473 E.08032
G1 X65.424 Y99.005 E.76436
G1 X64.56 Y98.82 E.02772
G1 X63.707 Y98.427 E.02945
G1 X62.97 Y97.85 E.02934
G1 X62.385 Y97.116 E.02944
G1 X61.945 Y96.147 E.03337
G1 X61.756 Y95.061 E.03457
G1 X61.763 Y84.821 E.32105
G1 X61.945 Y83.853 E.03089
G1 X62.334 Y82.968 E.0303
G1 X62.905 Y82.216 E.02961
G1 X63.579 Y81.671 E.02718
M204 S1000
; printing object 3DBenchy.stl id:0 copy 0
G1 E-.8 F2100
G1 X90.035 Y89.114 F10800
G1 E.8 F2100
M204 S800
;TYPE:External perimeter
G1 F1200
G1 X90.161 Y89.175 E.00437
G1 X90.229 Y89.013 E.00551
G1 X90.341 Y89.087 E.00421
G1 X90.397 Y88.96 E.00437
G1 X90.466 Y88.667 E.00944
G1 X90.586 Y88.458 E.00757
G1 X90.846 Y88.209 E.01125
G1 X91.096 Y88.094 E.00866
G1 X91.372 Y88.102 E.00864
G1 X91.543 Y88.168 E.00575
G1 X91.687 Y88.26 E.00535
G1 X91.819 Y88.381 E.00562
G1 X91.916 Y88.521 E.00535
G1 X91.989 Y88.86 E.01087
G1 X91.946 Y89.283 E.01334
G1 X91.639 Y89.876 E.02093
G1 X91.267 Y90.489 E.02248
G1 X91.194 Y90.71 E.00728
G1 X91.23 Y90.852 E.0046
G1 X91.955 Y92.063 E.04425
G1 X92.086 Y92.423 E.01203
G1 X92.103 Y92.726 E.0095
G1 X92.036 Y93.014 E.00928
G1 X91.878 Y93.25 E.00891
G1 X91.655 Y93.411 E.00861
G1 X91.386 Y93.495 E.00885
G1 X91.1 Y93.497 E.00895
G1 X90.9 Y93.441 E.00651
G1 X90.688 Y93.295 E.00808
G1 X90.571 Y93.157 E.00567
G1 X90.476 Y92.992 E.00596
G1 X90.365 Y92.65 E.01128
G1 X90.342 Y92.477 E.00548
G1 X90.306 Y92.41 E.00239
G1 X90.098 Y92.329 E.00698
G1 X90.087 Y92.304 E.00087
G1 X89.952 Y92.364 E.00465
G1 X89.902 Y92.463 E.00346
G1 X89.889 Y92.573 E.00347
G1 X89.783 Y92.89 E.01047
G1 X89.669 Y93.099 E.00747
G1 X89.49 Y93.311 E.00872
G1 X89.251 Y93.437 E.00846
G1 X88.97 Y93.45 E.00884
G1 X88.717 Y93.369 E.00833
G1 X88.566 Y93.254 E.00594
G1 X88.437 Y93.106 E.00616
G1 X88.363 Y92.87 E.00774
G1 X88.356 Y92.673 E.00618
G1 X88.475 Y92.067 E.01938
G1 X88.785 Y91.355 E.02435
G1 X88.911 Y91.134 E.00797
G1 X89.175 Y90.768 E.01416
G1 X88.946 Y90.419 E.01308
G1 X88.377 Y89.392 E.0368
G1 X88.28 Y89.104 E.00955
G1 X88.263 Y88.758 E.01084
G1 X88.357 Y88.495 E.00878
G1 X88.533 Y88.288 E.00851
G1 X88.779 Y88.144 E.00893
G1 X89.085 Y88.079 E.00981
G1 X89.252 Y88.091 E.00524
G1 X89.418 Y88.149 E.00553
G1 X89.572 Y88.238 E.00556
G1 X89.709 Y88.374 E.00605
G1 X89.904 Y88.704 E.01204
G1 X89.952 Y88.934 E.00736
G1 X90.01 Y89.06 E.00435
M204 S1000
G1 X90.167 Y89.07 F10800
G1 E-.8 F2100
G1 X87.93 Y91.643 F10800
G1 E.8 F2100
M204 S800
G1 F1200
G1 X88.027 Y92.003 E.01167
G1 X88.024 Y92.241 E.00747
G1 X87.928 Y92.911 E.02123
G1 X87.891 Y93.047 E.00441
G1 X87.716 Y93.347 E.01088
G1 X87.511 Y93.531 E.00865
G1 X87.294 Y93.665 E.00801
G1 X87.044 Y93.744 E.00819
G1 X86.675 Y93.772 E.01163
G1 X86.312 Y93.698 E.01162
G1 X86.078 Y93.589 E.00808
G1 X85.873 Y93.439 E.00798
G1 X85.708 Y93.247 E.00792
G1 X85.579 Y93.022 E.00814
G1 X85.501 Y92.657 E.0117
G1 X85.599 Y92.048 E.01933
G1 X85.674 Y91.846 E.00676
G1 X85.784 Y91.658 E.00684
G1 X86.199 Y91.213 E.01906
G1 X86.521 Y91.039 E.0115
G1 X86.777 Y90.991 E.00815
G1 X87.03 Y90.996 E.00794
G1 X87.278 Y91.059 E.00802
G1 X87.51 Y91.175 E.00813
G1 X87.708 Y91.341 E.00809
G1 X87.895 Y91.595 E.0099
M204 S1000
G1 X88.3 Y91.682 F10800
G1 E-.8 F2100
G1 X80.906 Y86.905 F10800
G1 E.8 F2100
M204 S800
G1 F1200
G1 X81.055 Y86.789 E.00589
G1 X81.387 Y86.66 E.01118
G1 X81.724 Y86.624 E.01063
G1 X83.355 Y86.661 E.05114
G1 X83.963 Y86.75 E.01928
G1 X84.435 Y86.897 E.01551
G1 X84.84 Y87.122 E.01451
G1 X85.17 Y87.407 E.01368
G1 X85.484 Y87.805 E.0159
G1 X85.734 Y88.281 E.01686
G1 X85.91 Y88.823 E.01785
G1 X86.01 Y89.457 E.02013
G1 X86.026 Y89.992 E.01678
G1 X85.954 Y90.544 E.01746
G1 X85.834 Y90.885 E.01133
G1 X85.692 Y91.152 E.00947
G1 X85.501 Y91.637 E.01635
G1 X85.378 Y91.872 E.00832
G1 X85.185 Y92.153 E.01069
G1 X85.016 Y92.474 E.01137
G1 X84.752 Y92.778 E.01264
G1 X84.538 Y92.934 E.0083
G1 X84.309 Y93.058 E.00815
G1 X83.83 Y93.202 E.01568
G1 X83.388 Y93.266 E.01401
G1 X82.853 Y93.294 E.01682
G1 X82.042 Y93.286 E.02541
G1 X81.504 Y93.329 E.01691
G1 X81.248 Y93.28 E.00818
G1 X81.079 Y93.189 E.00601
G1 X80.945 Y93.067 E.00569
G1 X80.81 Y92.846 E.00814
G1 X80.729 Y92.576 E.00881
G1 X80.702 Y92.27 E.00965
G1 X80.719 Y91.664 E.019
G1 X80.724 Y88.056 E.11314
G1 X80.686 Y87.6 E.01434
G1 X80.691 Y87.328 E.00854
G1 X80.787 Y87.054 E.00908
G1 X80.869 Y86.952 E.00411
M204 S1000
G1 X80.854 Y86.724 F10800
G1 E-.8 F2100
G1 X79.103 Y89.456 F10800
G1 E.8 F2100
M204 S800
G1 F1200
G1 X78.986 Y89.509 E.00403
G1 X79.304 Y89.651 E.01091
G1 X79.48 Y89.819 E.00762
G1 X79.605 Y89.893 E.00457
G1 X79.78 Y90.056 E.00748
G1 X79.984 Y90.488 E.015
G1 X80.087 Y90.881 E.01271
G1 X80.118 Y91.115 E.00741
G1 X80.095 Y91.565 E.01414
G1 X79.967 Y92.027 E.01503
G1 X79.801 Y92.372 E.01201
G1 X79.513 Y92.762 E.01519
G1 X79.337 Y92.931 E.00766
G1 X79.148 Y93.075 E.00744
G1 X78.942 Y93.2 E.00755
G1 X78.718 Y93.302 E.00772
G1 X78.268 Y93.425 E.01465
G1 X77.867 Y93.465 E.01263
G1 X77.432 Y93.458 E.01363
G1 X77.038 Y93.404 E.01248
G1 X76.709 Y93.312 E.01071
G1 X76.417 Y93.181 E.01003
G1 X76.172 Y93.007 E.00942
G1 X75.975 Y92.781 E.0094
G1 X75.855 Y92.534 E.00862
G1 X75.793 Y92.244 E.00929
G1 X75.81 Y91.948 E.00931
G1 X75.915 Y91.68 E.00901
G1 X76.097 Y91.475 E.00858
G1 X76.257 Y91.376 E.00591
G1 X76.429 Y91.311 E.00578
G1 X76.713 Y91.273 E.00896
G1 X77.059 Y91.322 E.01097
G1 X77.319 Y91.438 E.00891
G1 X77.731 Y91.738 E.01599
G1 X77.81 Y91.758 E.00254
G1 X77.927 Y91.732 E.00375
G1 X78.053 Y91.659 E.00458
G1 X78.144 Y91.556 E.00432
G1 X78.201 Y91.425 E.00448
G1 X78.216 Y91.28 E.00456
G1 X78.183 Y91.13 E.0048
G1 X78.087 Y90.951 E.00637
G1 X77.975 Y90.822 E.00535
G1 X77.839 Y90.714 E.00544
G1 X77.689 Y90.638 E.00527
G1 X77.504 Y90.585 E.00604
G1 X77.08 Y90.51 E.0135
G1 X76.837 Y90.415 E.00818
G1 X76.635 Y90.244 E.0083
G1 X76.537 Y90.076 E.00608
G1 X76.485 Y89.899 E.00577
G1 X76.476 Y89.711 E.0059
G1 X76.511 Y89.518 E.00617
G1 X76.604 Y89.259 E.00862
G1 X76.723 Y89.079 E.00676
G1 X76.881 Y88.964 E.00614
G1 X77.082 Y88.866 E.00702
G1 X77.678 Y88.694 E.01944
G1 X77.767 Y88.641 E.00324
G1 X77.895 Y88.498 E.00601
G1 X77.919 Y88.413 E.00278
G1 X77.887 Y88.268 E.00467
G1 X77.805 Y88.198 E.00337
G1 X77.655 Y88.191 E.0047
G1 X77.479 Y88.243 E.00576
G1 X77.262 Y88.368 E.00785
G1 X76.925 Y88.525 E.01166
G1 X76.716 Y88.585 E.0068
G1 X76.523 Y88.591 E.00605
G1 X76.337 Y88.521 E.00624
G1 X76.165 Y88.382 E.00694
G1 X75.988 Y88.184 E.00833
G1 X75.887 Y87.982 E.00707
G1 X75.867 Y87.574 E.0128
G1 X75.942 Y87.27 E.00984
G1 X76.05 Y87.095 E.00644
G1 X76.265 Y86.9 E.00912
G1 X76.542 Y86.717 E.01039
G1 X76.874 Y86.583 E.01124
G1 X77.232 Y86.501 E.01151
G1 X77.609 Y86.463 E.01188
G1 X78 Y86.466 E.01226
G1 X78.299 Y86.499 E.00945
G1 X78.652 Y86.575 E.0113
G1 X78.878 Y86.655 E.00752
G1 X79.173 Y86.814 E.01053
G1 X79.349 Y86.95 E.00697
G1 X79.509 Y87.111 E.00711
G1 X79.694 Y87.374 E.01009
G1 X79.814 Y87.659 E.0097
G1 X79.857 Y87.866 E.00661
G1 X79.871 Y88.08 E.00674
G1 X79.865 Y88.323 E.00761
G1 X79.744 Y88.842 E.01672
G1 X79.621 Y89.031 E.00708
G1 X79.447 Y89.175 E.00707
G1 X79.317 Y89.317 E.00606
G1 X79.154 Y89.423 E.00609
M204 S1000
G1 X79.102 Y89.584 F10800
G1 E-.8 F2100
G1 X97.11 Y90.999 F10800
G1 E.8 F2100
M204 S800
;TYPE:Perimeter
G1 F1200
G1 X96.817 Y91.394 E.01541
G1 X96.565 Y91.828 E.01573
G1 X96.469 Y92.085 E.00859
G1 X96.409 Y92.434 E.01111
G1 X96.417 Y92.704 E.00848
G1 X96.466 Y92.954 E.00799
G1 X96.556 Y93.197 E.00811
G1 X96.712 Y93.448 E.00927
G1 X96.903 Y93.638 E.00847
G1 X97.142 Y93.785 E.00877
G1 X97.48 Y93.879 E.01102
G1 X97.735 Y93.891 E.00799
G1 X98.244 Y93.861 E.01598
G1 X98.926 Y93.866 E.02139
G1 X99.365 Y93.832 E.01381
G1 X98.429 Y94.554 E.03708
G1 X97.537 Y95.161 E.03382
G1 X96.553 Y95.723 E.03552
G1 X95.581 Y96.183 E.03374
G1 X95.007 Y96.413 E.01937
G1 X93.975 Y96.755 E.0341
G1 X93.213 Y96.953 E.02469
G1 X92.61 Y97.078 E.01931
G1 X91.99 Y97.178 E.01968
G1 X91.385 Y97.249 E.01909
G1 X90.758 Y97.294 E.01973
G1 X89.991 Y97.312 E.02405
G1 X89.183 Y97.285 E.02535
G1 X65.856 Y95.867 E.73274
G1 X65.558 Y95.815 E.00947
G1 X65.464 Y95.781 E.00313
G1 X65.353 Y95.723 E.00393
G1 X65.175 Y95.578 E.00719
G1 X65.045 Y95.394 E.00709
G1 X64.955 Y95.157 E.00796
G1 X64.918 Y94.922 E.00744
G1 X64.912 Y92.451 E.07749
G1 X65.139 Y92.758 E.01197
G1 X65.35 Y92.982 E.00965
G1 X65.696 Y93.269 E.01409
G1 X66.193 Y93.555 E.01799
G1 X66.49 Y93.672 E.01001
G1 X66.825 Y93.765 E.01091
G1 X67.143 Y93.818 E.0101
G1 X67.634 Y93.844 E.01541
G1 X68.096 Y93.814 E.01453
G1 X68.516 Y93.732 E.01342
G1 X68.912 Y93.591 E.01317
G1 X69.267 Y93.393 E.01276
G1 X69.58 Y93.139 E.01265
G1 X69.84 Y92.832 E.01262
G1 X70.032 Y92.495 E.01215
G1 X70.151 Y92.166 E.01098
G1 X70.157 Y91.908 E.00809
G1 X70.07 Y91.541 E.01181
G1 X69.914 Y91.282 E.00947
G1 X69.723 Y91.083 E.00867
G1 X69.407 Y90.884 E.01171
G1 X69.146 Y90.793 E.00866
G1 X68.891 Y90.753 E.0081
G1 X68.618 Y90.759 E.00856
G1 X68.251 Y90.858 E.0119
G1 X67.934 Y91.071 E.01198
G1 X67.801 Y91.232 E.00654
G1 X67.574 Y91.276 E.00724
G1 X67.369 Y91.246 E.00651
G1 X67.218 Y91.18 E.00517
G1 X67.118 Y91.102 E.00394
G1 X67.033 Y90.989 E.00444
G1 X66.967 Y90.844 E.005
G1 X66.906 Y90.627 E.00708
G1 X66.866 Y90.346 E.00889
G1 X66.849 Y89.926 E.01318
G1 X66.87 Y89.545 E.01195
G1 X66.912 Y89.282 E.00837
G1 X66.996 Y89.018 E.00868
G1 X67.053 Y88.91 E.00384
G1 X67.147 Y88.799 E.00454
G1 X67.313 Y88.7 E.00608
G1 X67.478 Y88.661 E.0053
G1 X67.621 Y88.677 E.00451
G1 X68.282 Y89.057 E.02393
G1 X68.64 Y89.166 E.01173
G1 X69.01 Y89.184 E.01161
G1 X69.339 Y89.099 E.01064
G1 X69.667 Y88.88 E.01237
G1 X69.905 Y88.591 E.01174
G1 X69.98 Y88.44 E.00529
G1 X70.049 Y88.532 E.0036
G1 X70.298 Y88.692 E.00929
G1 X70.533 Y88.781 E.00787
G1 X70.884 Y88.832 E.01113
G1 X71.518 Y88.762 E.02001
G1 X71.495 Y89.13 E.01158
G1 X71.512 Y91.91 E.08715
G1 X71.473 Y92.408 E.01567
G1 X71.489 Y92.74 E.01043
G1 X71.563 Y92.999 E.00845
G1 X71.71 Y93.249 E.00908
G1 X71.917 Y93.448 E.009
G1 X72.152 Y93.581 E.00846
G1 X72.406 Y93.664 E.0084
G1 X72.67 Y93.699 E.00834
G1 X72.93 Y93.687 E.00815
G1 X73.198 Y93.623 E.00865
G1 X73.537 Y93.437 E.01211
G1 X73.811 Y93.128 E.01297
G1 X73.963 Y92.782 E.01184
G1 X74.029 Y92.413 E.01176
G1 X74.014 Y88.79 E.1136
G1 X74.707 Y88.776 E.02173
G1 X75.062 Y88.694 E.01142
G1 X75.388 Y88.55 E.01117
G1 X75.634 Y88.319 E.01059
G1 X75.673 Y88.398 E.00276
G1 X75.905 Y88.656 E.01086
G1 X76.148 Y88.853 E.00981
G1 X76.366 Y88.934 E.00732
G1 X76.264 Y89.089 E.00581
G1 X76.146 Y89.42 E.01101
G1 X76.097 Y89.687 E.00851
G1 X76.111 Y89.963 E.00866
G1 X76.188 Y90.226 E.0086
G1 X76.341 Y90.49 E.00956
G1 X76.641 Y90.743 E.01231
G1 X76.977 Y90.874 E.0113
G1 X77.418 Y90.953 E.01405
G1 X77.634 Y91.033 E.00723
G1 X77.775 Y91.167 E.00607
G1 X77.834 Y91.302 E.00463
G1 X77.827 Y91.341 E.00125
G1 X77.508 Y91.11 E.01233
G1 X77.165 Y90.956 E.01181
G1 X76.714 Y90.892 E.01427
G1 X76.337 Y90.943 E.01194
G1 X76.089 Y91.036 E.00828
G1 X75.851 Y91.184 E.00878
G1 X75.588 Y91.48 E.01242
G1 X75.437 Y91.866 E.013
G1 X75.413 Y92.273 E.01279
G1 X75.496 Y92.658 E.01233
G1 X75.658 Y92.99 E.0116
G1 X75.916 Y93.289 E.01238
G1 X76.229 Y93.51 E.01201
G1 X76.58 Y93.667 E.01207
G1 X76.961 Y93.774 E.01239
G1 X77.403 Y93.835 E.014
G1 X77.882 Y93.842 E.01502
G1 X78.336 Y93.797 E.0143
G1 X78.847 Y93.658 E.01661
G1 X79.119 Y93.534 E.00938
G1 X79.36 Y93.387 E.00885
G1 X79.583 Y93.218 E.00875
G1 X79.797 Y93.011 E.00935
G1 X80.125 Y92.568 E.01729
G1 X80.329 Y92.134 E.01503
G1 X80.357 Y92.647 E.01613
G1 X80.462 Y93.001 E.01155
G1 X80.652 Y93.309 E.01136
G1 X80.86 Y93.5 E.00884
G1 X81.121 Y93.64 E.0093
G1 X81.484 Y93.708 E.01158
G1 X82.055 Y93.663 E.01797
G1 X82.86 Y93.671 E.02525
G1 X83.425 Y93.642 E.01773
G1 X83.913 Y93.571 E.01544
G1 X84.455 Y93.407 E.01777
G1 X84.739 Y93.253 E.01013
G1 X85.008 Y93.058 E.01042
G1 X85.163 Y92.88 E.00739
G1 X85.222 Y93.158 E.00892
G1 X85.398 Y93.466 E.01112
G1 X85.615 Y93.717 E.01041
G1 X85.885 Y93.915 E.01049
G1 X86.193 Y94.058 E.01064
G1 X86.651 Y94.153 E.01467
G1 X87.117 Y94.116 E.01465
G1 X87.452 Y94.01 E.01101
G1 X87.738 Y93.834 E.01053
G1 X88.012 Y93.588 E.01156
G1 X88.15 Y93.351 E.0086
G1 X88.307 Y93.53 E.00747
G1 X88.539 Y93.708 E.00916
G1 X88.919 Y93.83 E.01252
G1 X89.353 Y93.809 E.0136
G1 X89.73 Y93.611 E.01338
G1 X89.982 Y93.313 E.01224
G1 X90.109 Y93.08 E.0083
G1 X90.261 Y93.375 E.0104
G1 X90.434 Y93.578 E.00835
G1 X90.738 Y93.786 E.01157
G1 X91.049 Y93.875 E.01014
G1 X91.445 Y93.872 E.01241
G1 X91.826 Y93.753 E.01253
G1 X92.153 Y93.516 E.01266
G1 X92.387 Y93.167 E.01318
G1 X92.483 Y92.759 E.01314
G1 X92.459 Y92.347 E.01295
G1 X92.297 Y91.9 E.01489
G1 X91.584 Y90.709 E.04353
G1 X91.968 Y90.061 E.02362
G1 X92.116 Y89.776 E.01007
G1 X92.986 Y92.095 E.07768
G1 X93.249 Y92.716 E.02115
G1 X93.061 Y93.119 E.01393
