; generated by PrusaSlicer 2.3.3+win64 on 2021-12-17 at 15:56:25 UTC

; 

; external perimeters extrusion width = 0.70mm
; perimeters extrusion width = 0.70mm
; infill extrusion width = 0.70mm
; solid infill extrusion width = 0.70mm
; top infill extrusion width = 0.70mm

; external perimeters extrusion width = 0.70mm
; perimeters extrusion width = 0.70mm
; infill extrusion width = 0.70mm
; solid infill extrusion width = 0.70mm
; top infill extrusion width = 0.70mm

M73 P0 R51
M201 X2000 Y2000 Z600 E5000 ; sets maximum accelerations, mm/sec^2
M203 X180 Y180 Z12 E80 ; sets maximum feedrates, mm/sec
M204 P2000 R2000 T2000 ; sets acceleration (P, T) and retract acceleration (R), mm/sec^2
M205 X10.00 Y10.00 Z3.00 E13.00 ; sets the jerk limits, mm/sec
M205 S0 T0 ; sets the minimum extruding and travel feed rate, mm/sec
M107
;TYPE:Custom
; Insert the following at layer z=10.2mm to pause the print after layer z=10mm, before layer z=10.2mm.
; M300 S880 P2000 ; play tone prior to filament change
; M600 X10 Y178 Z3 E-2 U0 L0 ; filament change

M300 S880 P2000 ; play tone

M104 S210; set hot end temp
M140 S60; set bed temp

G21 ; set units to millimeters
G90 ; use absolute positioning
M82 ; absolute extrusion mode

G28 ; home
G0 X1 Z10 ; move up
G0 X1 Y180 ; move back
G0 Z3 ; move to final holding position

M190 S60; wait bed temp
M109 S210; wait hot end temp

G92 E0.0 ; reset extruder distance position
G1 E10 F120 ; air purge
G1 Y150 Z0.4 E12 F1800 ; start of line purge
G1 Y30 E20 F1800 ; end of line purge 
G92 E0.0 ; reset extruder distance position

G0 X0 Y0 ; rapid home

;G0 X0 Y20 Z5 F9000 ; rapid away from prime blob and wake timer
;G0 X7 ; rapid away from timer
;G0 X0 ; start timer

M300 S880 P2000 ; play tone
G21 ; set units to millimeters
G90 ; use absolute coordinates
M83 ; use relative distances for extrusion
M900 K0.03 ; Filament gcode LA 1.5
;LAYER_CHANGE
;Z:0.25
;HEIGHT:0.25
;BEFORE_LAYER_CHANGE
G92 E0.0
;z=0.25
;LinAdv
M900 K0.01

G1 E-1.00000 F2100.000
G1 Z0.200 F21000.000
G1 Z0.250
;AFTER_LAYER_CHANGE
;0.25
G1 Z0.450
G1 X76.818 Y76.812
G1 Z0.250
G1 E1.00000 F2100.000
M204 S150
;TYPE:Skirt
;WIDTH:0.7
G1 F966
G1 X78.218 Y75.548 E0.12166
G1 X79.625 Y74.507 E0.11287
G1 X81.244 Y73.538 E0.12166
G1 X82.945 Y72.740 E0.12119
G1 X84.601 Y72.152 E0.11334
G1 X86.425 Y71.700 E0.12119
G1 X88.126 Y71.448 E0.11088
G1 X90.005 Y71.354 E0.12133
G1 X91.889 Y71.450 E0.12164
G1 X93.619 Y71.708 E0.11286
G1 X95.449 Y72.168 E0.12167
G1 X97.216 Y72.807 E0.12119
G1 X98.803 Y73.562 E0.11333
G1 X100.413 Y74.532 E0.12119
G1 X101.789 Y75.553 E0.11053
G1 X103.188 Y76.818 E0.12166
G1 X104.452 Y78.218 E0.12166
G1 X105.493 Y79.625 E0.11286
G1 X106.462 Y81.244 E0.12167
G1 X107.260 Y82.945 E0.12119
G1 X107.848 Y84.601 E0.11334
G1 X108.300 Y86.425 E0.12119
G1 X108.552 Y88.126 E0.11088
G1 X108.646 Y90.004 E0.12130
G1 X108.550 Y91.889 E0.12167
G1 X108.292 Y93.619 E0.11286
G1 X107.832 Y95.449 E0.12167
G1 X107.193 Y97.216 E0.12119
G1 X106.438 Y98.803 E0.11333
G1 X105.468 Y100.413 E0.12119
G1 X104.447 Y101.789 E0.11052
G1 X103.182 Y103.188 E0.12166
G1 X101.782 Y104.452 E0.12166
G1 X100.375 Y105.493 E0.11286
G1 X98.756 Y106.462 E0.12167
G1 X97.055 Y107.260 E0.12119
G1 X95.399 Y107.848 E0.11334
G1 X93.575 Y108.300 E0.12119
G1 X91.874 Y108.552 E0.11088
M73 P0 R50
G1 X89.996 Y108.646 E0.12128
G1 X88.111 Y108.550 E0.12168
G1 X86.381 Y108.292 E0.11286
G1 X84.551 Y107.832 E0.12167
G1 X82.784 Y107.193 E0.12119
G1 X81.197 Y106.438 E0.11333
G1 X79.587 Y105.468 E0.12119
G1 X78.211 Y104.447 E0.11052
G1 X76.812 Y103.182 E0.12166
G1 X75.548 Y101.782 E0.12166
G1 X74.507 Y100.375 E0.11287
G1 X73.538 Y98.756 E0.12166
G1 X72.740 Y97.055 E0.12119
G1 X72.152 Y95.399 E0.11334
G1 X71.700 Y93.575 E0.12119
G1 X71.448 Y91.874 E0.11088
G1 X71.354 Y89.996 E0.12130
G1 X71.450 Y88.111 E0.12167
G1 X71.708 Y86.381 E0.11286
G1 X72.168 Y84.551 E0.12167
G1 X72.807 Y82.784 E0.12119
G1 X73.562 Y81.197 E0.11333
G1 X74.532 Y79.587 E0.12119
G1 X75.553 Y78.211 E0.11053
G1 X76.758 Y76.879 E0.11586
M204 S1000
; printing object Shape-Cylinder id:0 copy 0
;WIPE_START
G1 F16800.000
G1 X78.218 Y75.548 E-0.23465
G1 X79.625 Y74.507 E-0.20782
G1 X81.244 Y73.538 E-0.22402
G1 X82.945 Y72.740 E-0.22315
G1 X83.424 Y72.570 E-0.06036
;WIPE_END
G1 E-0.05000 F2100.000
G1 Z0.450 F21000.000
G1 X92.115 Y98.543
G1 Z0.250
G1 E1.00000 F2100.000
M204 S150
;TYPE:Perimeter
G1 F966
G1 X91.529 Y98.670 E0.03866
G1 X91.073 Y98.738 E0.02972
G1 X90.623 Y98.781 E0.02916
G1 X89.838 Y98.802 E0.05065
G1 X88.936 Y98.739 E0.05831
G1 X88.161 Y98.609 E0.05065
G1 X87.288 Y98.375 E0.05831
G1 X86.552 Y98.100 E0.05065
G1 X85.740 Y97.704 E0.05831
G1 X85.070 Y97.293 E0.05065
G1 X84.341 Y96.744 E0.05887
G1 X83.667 Y96.115 E0.05943
G1 X83.063 Y95.420 E0.05943
G1 X82.789 Y95.049 E0.02972
G1 X82.534 Y94.665 E0.02972
G1 X82.092 Y93.867 E0.05887
G1 X81.782 Y93.155 E0.05009
G1 X81.536 Y92.418 E0.05009
G1 X81.422 Y91.980 E0.02916
G1 X81.262 Y91.073 E0.05943
G1 X81.219 Y90.623 E0.02916
G1 X81.198 Y89.838 E0.05065
G1 X81.261 Y88.936 E0.05831
G1 X81.391 Y88.161 E0.05065
G1 X81.625 Y87.288 E0.05831
G1 X81.900 Y86.552 E0.05065
G1 X82.300 Y85.732 E0.05887
G1 X82.534 Y85.335 E0.02972
G1 X82.784 Y84.958 E0.02916
G1 X83.262 Y84.335 E0.05065
G1 X83.562 Y83.996 E0.02916
G1 X84.225 Y83.356 E0.05943
G1 X84.951 Y82.789 E0.05943
G1 X85.335 Y82.534 E0.02972
G1 X86.133 Y82.092 E0.05887
G1 X86.845 Y81.782 E0.05009
G1 X87.582 Y81.536 E0.05009
G1 X88.020 Y81.422 E0.02916
G1 X88.471 Y81.330 E0.02972
G1 X89.377 Y81.219 E0.05887
G1 X90.162 Y81.198 E0.05065
G1 X91.064 Y81.261 E0.05831
G1 X91.839 Y81.391 E0.05065
G1 X92.720 Y81.628 E0.05887
G1 X93.581 Y81.958 E0.05943
G1 X94.394 Y82.372 E0.05887
G1 X95.049 Y82.789 E0.05009
G1 X95.665 Y83.262 E0.05009
G1 X96.004 Y83.562 E0.02916
G1 X96.326 Y83.879 E0.02916
G1 X96.847 Y84.467 E0.05065
G1 X97.122 Y84.826 E0.02916
G1 X97.624 Y85.598 E0.05943
G1 X98.042 Y86.419 E0.05943
G1 X98.215 Y86.837 E0.02916
G1 X98.464 Y87.582 E0.05065
G1 X98.578 Y88.020 E0.02916
G1 X98.670 Y88.471 E0.02972
G1 X98.781 Y89.377 E0.05887
G1 X98.802 Y90.162 E0.05065
G1 X98.739 Y91.064 E0.05831
G1 X98.609 Y91.839 E0.05065
G1 X98.372 Y92.720 E0.05887
G1 X98.042 Y93.581 E0.05943
G1 X97.628 Y94.394 E0.05887
G1 X97.206 Y95.056 E0.05065
G1 X96.649 Y95.769 E0.05831
G1 X96.109 Y96.338 E0.05065
G1 X95.420 Y96.937 E0.05887
G1 X94.665 Y97.466 E0.05943
G1 X93.867 Y97.908 E0.05887
G1 X93.155 Y98.218 E0.05009
G1 X92.202 Y98.520 E0.06448
M204 S1000
G1 X92.364 Y99.146 F21000.000
M204 S150
;TYPE:External perimeter
G1 F966
G1 X91.641 Y99.306 E0.04773
G1 X91.152 Y99.379 E0.03191
G1 X90.662 Y99.427 E0.03171
G1 X89.832 Y99.448 E0.05356
G1 X89.341 Y99.427 E0.03171
G1 X88.851 Y99.380 E0.03171
G1 X88.032 Y99.243 E0.05356
G1 X87.554 Y99.128 E0.03171
G1 X87.083 Y98.988 E0.03171
G1 X86.305 Y98.697 E0.05356
G1 X85.857 Y98.493 E0.03171
G1 X85.421 Y98.266 E0.03171
G1 X84.713 Y97.833 E0.05356
G1 X84.313 Y97.547 E0.03171
G1 X83.926 Y97.239 E0.03191
G1 X83.555 Y96.911 E0.03191
G1 X83.202 Y96.564 E0.03191
G1 X82.868 Y96.200 E0.03191
G1 X82.553 Y95.818 E0.03191
G1 X82.259 Y95.420 E0.03191
G1 X81.986 Y95.008 E0.03191
G1 X81.735 Y94.581 E0.03191
G1 X81.508 Y94.145 E0.03171
G1 X81.178 Y93.386 E0.05336
G1 X80.915 Y92.602 E0.05336
G1 X80.792 Y92.126 E0.03171
G1 X80.694 Y91.641 E0.03191
G1 X80.621 Y91.152 E0.03191
G1 X80.573 Y90.662 E0.03171
G1 X80.552 Y89.832 E0.05356
G1 X80.573 Y89.341 E0.03171
G1 X80.620 Y88.851 E0.03171
G1 X80.757 Y88.032 E0.05356
G1 X80.872 Y87.554 E0.03171
G1 X81.012 Y87.083 E0.03171
G1 X81.303 Y86.305 E0.05356
G1 X81.507 Y85.857 E0.03171
G1 X81.735 Y85.419 E0.03191
G1 X81.986 Y84.992 E0.03191
G1 X82.257 Y84.582 E0.03171
G1 X82.763 Y83.923 E0.05356
G1 X83.089 Y83.555 E0.03171
G1 X83.436 Y83.202 E0.03191
G1 X83.800 Y82.868 E0.03191
G1 X84.182 Y82.553 E0.03191
G1 X84.580 Y82.259 E0.03191
G1 X84.992 Y81.986 E0.03191
G1 X85.419 Y81.735 E0.03191
G1 X85.855 Y81.508 E0.03171
G1 X86.614 Y81.178 E0.05336
G1 X87.398 Y80.915 E0.05336
G1 X87.874 Y80.792 E0.03171
G1 X88.359 Y80.694 E0.03191
G1 X88.848 Y80.621 E0.03191
G1 X89.338 Y80.573 E0.03171
G1 X90.168 Y80.552 E0.05356
G1 X90.659 Y80.573 E0.03171
G1 X91.149 Y80.620 E0.03171
G1 X91.968 Y80.757 E0.05356
G1 X92.446 Y80.872 E0.03171
G1 X92.920 Y81.013 E0.03191
G1 X93.387 Y81.178 E0.03191
G1 X93.844 Y81.367 E0.03191
G1 X94.290 Y81.580 E0.03191
G1 X94.722 Y81.815 E0.03171
G1 X95.420 Y82.259 E0.05336
G1 X96.077 Y82.763 E0.05336
G1 X96.445 Y83.089 E0.03171
G1 X96.795 Y83.433 E0.03171
G1 X97.346 Y84.055 E0.05356
G1 X97.645 Y84.446 E0.03171
G1 X97.925 Y84.853 E0.03191
G1 X98.184 Y85.275 E0.03191
G1 X98.420 Y85.710 E0.03191
G1 X98.633 Y86.156 E0.03191
G1 X98.821 Y86.611 E0.03171
G1 X99.085 Y87.398 E0.05356
G1 X99.208 Y87.874 E0.03171
G1 X99.306 Y88.359 E0.03191
G1 X99.379 Y88.848 E0.03191
G1 X99.427 Y89.338 E0.03171
G1 X99.448 Y90.168 E0.05356
G1 X99.427 Y90.659 E0.03171
G1 X99.380 Y91.149 E0.03171
G1 X99.243 Y91.968 E0.05356
G1 X99.128 Y92.446 E0.03171
G1 X98.987 Y92.920 E0.03191
G1 X98.822 Y93.387 E0.03191
G1 X98.633 Y93.844 E0.03191
G1 X98.420 Y94.290 E0.03191
G1 X98.185 Y94.722 E0.03171
G1 X97.739 Y95.423 E0.05356
G1 X97.447 Y95.818 E0.03171
G1 X97.134 Y96.197 E0.03171
G1 X96.562 Y96.800 E0.05356
G1 X96.200 Y97.132 E0.03171
G1 X95.818 Y97.447 E0.03191
G1 X95.420 Y97.741 E0.03191
G1 X95.008 Y98.014 E0.03191
G1 X94.581 Y98.265 E0.03191
G1 X94.145 Y98.492 E0.03171
G1 X93.386 Y98.822 E0.05336
G1 X92.451 Y99.124 E0.06341
M204 S1000
G1 X91.939 Y98.722 F21000.000
; stop printing object Shape-Cylinder id:0 copy 0
M106 S229.5
;LAYER_CHANGE
;Z:0.5
;HEIGHT:0.25
;BEFORE_LAYER_CHANGE
G92 E0.0
;z=0.5
;LinAdv
M900 K0.01

;WIPE_START
G1 F16800.000
G1 X91.641 Y99.306 E-0.09857
G1 X91.152 Y99.379 E-0.05875
G1 X90.662 Y99.427 E-0.05839
G1 X89.832 Y99.448 E-0.09862
G1 X89.341 Y99.427 E-0.05839
G1 X88.851 Y99.380 E-0.05839
G1 X88.032 Y99.243 E-0.09862
G1 X87.554 Y99.128 E-0.05839
G1 X87.083 Y98.988 E-0.05839
G1 X86.305 Y98.697 E-0.09862
G1 X85.857 Y98.493 E-0.05839
G1 X85.421 Y98.266 E-0.05839
G1 X84.789 Y97.879 E-0.08811
;WIPE_END
G1 E-0.05000 F2100.000
G1 Z0.450 F21000.000
G1 Z0.500
;AFTER_LAYER_CHANGE
;0.5
; printing object Shape-Cylinder id:0 copy 0
G1 Z0.700
G1 X95.519 Y82.895
G1 Z0.500
G1 E1.00000 F2100.000
M204 S800
;TYPE:Perimeter
G1 F900
G1 X96.024 Y83.309 E0.04214
G1 X96.691 Y83.976 E0.06078
G1 X97.284 Y84.708 E0.06078
G1 X97.797 Y85.498 E0.06078
G1 X98.018 Y85.905 E0.02984
G1 X98.351 Y86.635 E0.05178
G1 X98.513 Y87.069 E0.02984
G1 X98.652 Y87.510 E0.02984
G1 X98.839 Y88.291 E0.05178
G1 X98.916 Y88.747 E0.02984
G1 X98.968 Y89.207 E0.02984
G1 X99.003 Y90.000 E0.05121
G1 X98.968 Y90.793 E0.05121
G1 X98.838 Y91.718 E0.06022
G1 X98.736 Y92.178 E0.03040
G1 X98.612 Y92.624 E0.02984
G1 X98.344 Y93.381 E0.05182
G1 X98.160 Y93.805 E0.02979
G1 X97.717 Y94.637 E0.06078
G1 X97.190 Y95.418 E0.06078
G1 X96.902 Y95.780 E0.02984
G1 X96.366 Y96.366 E0.05121
G1 X95.780 Y96.902 E0.05121
G1 X95.035 Y97.464 E0.06022
G1 X94.637 Y97.717 E0.03040
G1 X93.805 Y98.160 E0.06078
G1 X92.931 Y98.513 E0.06078
G1 X92.490 Y98.652 E0.02984
G1 X91.709 Y98.839 E0.05178
G1 X91.253 Y98.916 E0.02984
G1 X90.793 Y98.968 E0.02984
G1 X90.000 Y99.003 E0.05121
G1 X89.207 Y98.968 E0.05121
G1 X88.282 Y98.838 E0.06022
G1 X87.822 Y98.736 E0.03040
G1 X87.376 Y98.612 E0.02984
G1 X86.619 Y98.344 E0.05182
G1 X86.195 Y98.160 E0.02979
G1 X85.363 Y97.717 E0.06078
G1 X84.582 Y97.190 E0.06078
G1 X84.220 Y96.902 E0.02984
G1 X83.628 Y96.360 E0.05178
G1 X83.309 Y96.024 E0.02984
G1 X83.009 Y95.673 E0.02984
G1 X82.531 Y95.027 E0.05182
G1 X82.283 Y94.637 E0.02979
G1 X81.840 Y93.805 E0.06078
G1 X81.487 Y92.931 E0.06078
G1 X81.348 Y92.490 E0.02984
G1 X81.161 Y91.709 E0.05178
G1 X81.084 Y91.253 E0.02984
G1 X81.032 Y90.793 E0.02984
G1 X80.997 Y90.000 E0.05121
G1 X81.032 Y89.207 E0.05121
G1 X81.162 Y88.282 E0.06022
G1 X81.388 Y87.376 E0.06022
G1 X81.656 Y86.619 E0.05182
G1 X82.051 Y85.773 E0.06017
G1 X82.531 Y84.973 E0.06022
G1 X83.009 Y84.327 E0.05182
G1 X83.634 Y83.634 E0.06017
G1 X84.327 Y83.009 E0.06022
G1 X84.973 Y82.531 E0.05182
G1 X85.773 Y82.051 E0.06017
G1 X86.627 Y81.652 E0.06078
G1 X87.069 Y81.487 E0.03040
G1 X87.510 Y81.348 E0.02984
G1 X88.291 Y81.161 E0.05178
M73 P1 R50
G1 X88.747 Y81.084 E0.02984
G1 X89.207 Y81.032 E0.02984
G1 X90.009 Y80.997 E0.05182
G1 X90.471 Y81.009 E0.02979
G1 X91.408 Y81.108 E0.06078
G1 X92.330 Y81.303 E0.06078
G1 X92.774 Y81.435 E0.02984
G1 X93.526 Y81.716 E0.05178
G1 X93.947 Y81.908 E0.02984
G1 X94.357 Y82.122 E0.02984
G1 X95.034 Y82.536 E0.05121
G1 X95.447 Y82.842 E0.03309
M204 S1000
G1 X95.831 Y82.322 F21000.000
M204 S800
;TYPE:External perimeter
G1 F900
G1 X96.076 Y82.503 E0.01962
G1 X96.457 Y82.829 E0.03234
G1 X96.823 Y83.177 E0.03258
G1 X97.171 Y83.543 E0.03258
G1 X97.499 Y83.927 E0.03258
G1 X97.807 Y84.328 E0.03258
G1 X98.093 Y84.744 E0.03258
G1 X98.357 Y85.175 E0.03258
G1 X98.597 Y85.616 E0.03239
G1 X98.948 Y86.388 E0.05469
G1 X99.124 Y86.858 E0.03239
G1 X99.275 Y87.337 E0.03239
G1 X99.473 Y88.162 E0.05469
G1 X99.556 Y88.657 E0.03239
G1 X99.613 Y89.156 E0.03239
G1 X99.650 Y90.000 E0.05449
G1 X99.613 Y90.844 E0.05449
G1 X99.556 Y91.343 E0.03239
G1 X99.473 Y91.841 E0.03258
G1 X99.363 Y92.335 E0.03258
G1 X99.229 Y92.818 E0.03238
G1 X98.946 Y93.618 E0.05473
G1 X98.746 Y94.078 E0.03234
G1 X98.520 Y94.530 E0.03258
G1 X98.272 Y94.970 E0.03258
G1 X98.000 Y95.396 E0.03258
G1 X97.707 Y95.807 E0.03258
G1 X97.394 Y96.200 E0.03239
G1 X96.823 Y96.823 E0.05449
G1 X96.200 Y97.394 E0.05449
G1 X95.807 Y97.707 E0.03239
G1 X95.396 Y98.000 E0.03258
G1 X94.970 Y98.272 E0.03258
G1 X94.530 Y98.520 E0.03258
G1 X94.078 Y98.746 E0.03258
G1 X93.615 Y98.947 E0.03258
G1 X93.142 Y99.124 E0.03258
G1 X92.663 Y99.275 E0.03239
G1 X91.838 Y99.473 E0.05469
G1 X91.343 Y99.556 E0.03239
G1 X90.844 Y99.613 E0.03239
G1 X90.000 Y99.650 E0.05449
G1 X89.156 Y99.613 E0.05449
G1 X88.657 Y99.556 E0.03239
G1 X88.159 Y99.473 E0.03258
G1 X87.665 Y99.363 E0.03258
G1 X87.182 Y99.229 E0.03238
G1 X86.382 Y98.946 E0.05473
G1 X85.922 Y98.746 E0.03234
G1 X85.470 Y98.520 E0.03258
G1 X85.030 Y98.272 E0.03258
G1 X84.604 Y98.000 E0.03258
G1 X84.193 Y97.707 E0.03258
G1 X83.800 Y97.394 E0.03239
G1 X83.174 Y96.821 E0.05469
G1 X82.829 Y96.457 E0.03239
G1 X82.503 Y96.075 E0.03238
G1 X81.998 Y95.393 E0.05473
G1 X81.728 Y94.970 E0.03234
G1 X81.480 Y94.530 E0.03258
G1 X81.254 Y94.078 E0.03258
G1 X81.053 Y93.615 E0.03258
G1 X80.876 Y93.142 E0.03258
G1 X80.725 Y92.663 E0.03239
G1 X80.527 Y91.838 E0.05469
G1 X80.444 Y91.343 E0.03239
G1 X80.387 Y90.844 E0.03239
G1 X80.350 Y90.000 E0.05449
G1 X80.387 Y89.156 E0.05449
G1 X80.444 Y88.657 E0.03239
G1 X80.527 Y88.159 E0.03258
G1 X80.637 Y87.665 E0.03258
G1 X80.771 Y87.182 E0.03238
G1 X81.054 Y86.382 E0.05473
G1 X81.254 Y85.922 E0.03234
G1 X81.480 Y85.470 E0.03258
G1 X81.728 Y85.030 E0.03258
G1 X81.998 Y84.606 E0.03238
G1 X82.503 Y83.924 E0.05473
G1 X82.829 Y83.543 E0.03234
G1 X83.177 Y83.177 E0.03258
G1 X83.543 Y82.829 E0.03258
G1 X83.925 Y82.503 E0.03238
G1 X84.607 Y81.998 E0.05473
G1 X85.030 Y81.728 E0.03234
G1 X85.470 Y81.480 E0.03258
G1 X85.922 Y81.254 E0.03258
G1 X86.385 Y81.053 E0.03258
G1 X86.858 Y80.876 E0.03258
G1 X87.337 Y80.725 E0.03239
G1 X88.162 Y80.527 E0.05469
G1 X88.657 Y80.444 E0.03239
G1 X89.156 Y80.387 E0.03238
G1 X90.004 Y80.350 E0.05473
G1 X90.505 Y80.363 E0.03234
G1 X91.009 Y80.403 E0.03258
G1 X91.510 Y80.469 E0.03258
G1 X92.006 Y80.561 E0.03258
G1 X92.498 Y80.679 E0.03258
G1 X92.979 Y80.822 E0.03239
G1 X93.773 Y81.119 E0.05469
G1 X94.230 Y81.327 E0.03239
G1 X94.676 Y81.559 E0.03239
G1 X95.396 Y82.000 E0.05449
G1 X95.759 Y82.269 E0.02911
M204 S1000
G1 X95.802 Y82.625 F21000.000
; stop printing object Shape-Cylinder id:0 copy 0
;LAYER_CHANGE
;Z:0.75
;HEIGHT:0.25
;BEFORE_LAYER_CHANGE
G92 E0.0
;z=0.75
;LinAdv
M900 K0.01

;WIPE_START
G1 F16800.000
G1 X96.076 Y82.503 E-0.04682
G1 X96.457 Y82.829 E-0.05955
G1 X96.823 Y83.177 E-0.05999
G1 X97.171 Y83.543 E-0.05999
G1 X97.499 Y83.927 E-0.05999
G1 X97.807 Y84.328 E-0.05999
G1 X98.093 Y84.744 E-0.05999
G1 X98.357 Y85.175 E-0.05999
G1 X98.597 Y85.616 E-0.05963
G1 X98.948 Y86.388 E-0.10069
